;FLAVOR:Marlin
;TIME:1967
;Filament used: 0.541459m
;Layer height: 0.12
;MINX:118.05
;MINY:99.164
;MINZ:0.12
;MAXX:187.95
;MAXY:141.364
;MAXZ:1.8
;TARGET_MACHINE.NAME:Creality CR-10S Pro
;Generated with Cura_SteamEngine 5.6.0
M82 ;absolute extrusion mode
M201 X500.00 Y500.00 Z100.00 E5000.00 ;Setup machine max acceleration
M203 X500.00 Y500.00 Z10.00 E50.00 ;Setup machine max feedrate
M204 P500.00 R1000.00 T500.00 ;Setup Print/Retract/Travel acceleration
M205 X8.00 Y8.00 Z0.40 E5.00 ;Setup Jerk
M220 S100 ;Reset Feedrate
M221 S100 ;Reset Flowrate

;*** Start Dual Nozzle/Bed Preheating ***
M140 S70 ; start preheating the bed
M104 S215 ﻿T0 ; start preheating hotend
M190 S70 ; heat to Cura Bed setting
M109 S215 ﻿T0 ; heat to Cura Hotend
;*** End Preheating ***

G28 ;Home
G29 ;Auto bed Level

G92 E0 ;Reset Extruder
G1 Z2.0 F3000 ;Move Z Axis up
G1 X10.1 Y20 Z0.28 F5000.0 ;Move to start position
G1 X10.1 Y200.0 Z0.28 F1500.0 E15 ;Draw the first line
G1 X10.4 Y200.0 Z0.28 F5000.0 ;Move to side a little
G1 X10.4 Y20 Z0.28 F1500.0 E30 ;Draw the second line
G92 E0 ;Reset Extruder
G1 Z2.0 F3000 ;Move Z Axis up
G92 E0
G92 E0
G1 F2700 E-5
;LAYER_COUNT:15
;LAYER:0
M107
G0 F4200 X121.006 Y103.173 Z0.12
;TYPE:SKIRT
G1 F2700 E0
G1 F900 X121.783 Y102.372 E0.02227
G1 X122.573 Y101.692 E0.04307
G1 X123.365 Y101.122 E0.06254
G1 X124.326 Y100.553 E0.08483
G1 X125.269 Y100.104 E0.10567
G1 X126.248 Y99.74 E0.12652
G1 X127.185 Y99.481 E0.14592
G1 X128.298 Y99.277 E0.1685
G1 X129.437 Y99.181 E0.19131
G1 X130.144 Y99.164 E0.20542
G1 X175.466 Y99.164 E1.10987
G1 X176.383 Y99.179 E1.12817
G1 X177.426 Y99.246 E1.14903
G1 X178.46 Y99.405 E1.16991
G1 X179.472 Y99.655 E1.19071
G1 X180.424 Y99.979 E1.21078
G1 X181.316 Y100.369 E1.23021
G1 X182.323 Y100.924 E1.25315
G1 X183.074 Y101.426 E1.27118
G1 X184.003 Y102.177 E1.29502
G1 X184.749 Y102.906 E1.31583
G1 X185.428 Y103.697 E1.33664
G1 X186.037 Y104.545 E1.35747
G1 X186.499 Y105.321 E1.3755
G1 X187.015 Y106.393 E1.39924
G1 X187.366 Y107.337 E1.41934
G1 X187.635 Y108.309 E1.43946
G1 X187.838 Y109.421 E1.46202
G1 X187.933 Y110.551 E1.48465
G1 X187.95 Y111.294 E1.49948
G1 X187.949 Y128.976 E1.85235
G1 X187.936 Y129.774 E1.86827
G1 X187.872 Y130.82 E1.88919
G1 X187.714 Y131.852 E1.91002
G1 X187.465 Y132.865 E1.93084
G1 X187.128 Y133.855 E1.95171
G1 X186.705 Y134.81 E1.97255
G1 X186.202 Y135.72 E1.9933
G1 X185.68 Y136.501 E2.01205
G1 X184.959 Y137.396 E2.03498
G1 X184.334 Y138.047 E2.05299
G1 X183.436 Y138.829 E2.07675
G1 X182.616 Y139.419 E2.09691
G1 X181.686 Y139.97 E2.11849
G1 X180.775 Y140.406 E2.13864
G1 X179.764 Y140.783 E2.16017
G1 X178.79 Y141.052 E2.18034
G1 X177.714 Y141.249 E2.20217
G1 X176.563 Y141.347 E2.22522
G1 X175.82 Y141.364 E2.24005
G1 X130.402 Y141.363 E3.14642
G1 X129.634 Y141.35 E3.16175
G1 X128.589 Y141.285 E3.18264
G1 X127.557 Y141.127 E3.20348
G1 X126.543 Y140.878 E3.22431
G1 X125.553 Y140.54 E3.24519
G1 X124.601 Y140.118 E3.26597
G1 X123.748 Y139.649 E3.28539
G1 X122.822 Y139.028 E3.30764
G1 X122.091 Y138.438 E3.32639
G1 X121.287 Y137.663 E3.34868
G1 X120.582 Y136.847 E3.3702
G1 X120.052 Y136.116 E3.38822
G1 X119.442 Y135.095 E3.41195
G1 X118.992 Y134.151 E3.43282
G1 X118.639 Y133.206 E3.45295
G1 X118.361 Y132.2 E3.47378
G1 X118.164 Y131.118 E3.49573
G1 X118.065 Y129.915 E3.51981
G1 X118.05 Y129.222 E3.53365
G1 X118.051 Y111.476 E3.88779
G1 X118.064 Y110.74 E3.90248
G1 X118.13 Y109.696 E3.92335
G1 X118.288 Y108.664 E3.94419
G1 X118.538 Y107.65 E3.96503
G1 X118.877 Y106.661 E3.98589
G1 X119.285 Y105.739 E4.00601
G1 X119.807 Y104.795 E4.02754
G1 X120.391 Y103.931 E4.04835
G1 X121.006 Y103.173 E4.06783
G0 F4200 X121.293 Y103.451
G1 F900 X122.044 Y102.675 E4.08938
G1 X122.807 Y102.016 E4.1095
G1 X123.569 Y101.466 E4.12826
G1 X124.498 Y100.914 E4.14982
G1 X125.409 Y100.479 E4.16997
G1 X126.355 Y100.126 E4.19012
G1 X127.292 Y99.867 E4.20952
G1 X128.332 Y99.676 E4.23062
G1 X129.471 Y99.58 E4.25343
G1 X130.153 Y99.564 E4.26704
G1 X175.46 Y99.564 E5.17119
G1 X176.358 Y99.578 E5.18912
G1 X177.366 Y99.641 E5.20927
G1 X178.364 Y99.793 E5.22942
G1 X179.344 Y100.034 E5.24956
G1 X180.264 Y100.346 E5.26894
G1 X181.156 Y100.736 E5.28837
G1 X182.101 Y101.257 E5.30991
G1 X182.852 Y101.759 E5.32793
G1 X183.724 Y102.463 E5.3503
G1 X184.446 Y103.167 E5.37042
G1 X185.103 Y103.931 E5.39053
G1 X185.693 Y104.75 E5.41067
G1 X186.155 Y105.526 E5.4287
G1 X186.64 Y106.533 E5.451
G1 X186.98 Y107.444 E5.47041
G1 X187.249 Y108.416 E5.49053
G1 X187.439 Y109.455 E5.51161
G1 X187.534 Y110.585 E5.53424
G1 X187.55 Y111.294 E5.54839
G1 X187.549 Y128.97 E5.90114
G1 X187.537 Y129.75 E5.9167
G1 X187.477 Y130.76 E5.9369
G1 X187.325 Y131.757 E5.95702
G1 X187.086 Y132.737 E5.97715
G1 X186.762 Y133.694 E5.99731
G1 X186.355 Y134.617 E6.01745
G1 X185.869 Y135.498 E6.03752
G1 X185.347 Y136.279 E6.05627
G1 X184.67 Y137.119 E6.0778
G1 X184.045 Y137.77 E6.09581
G1 X183.202 Y138.505 E6.11813
G1 X182.412 Y139.075 E6.13757
G1 X181.513 Y139.609 E6.15844
G1 X180.635 Y140.031 E6.17788
G1 X179.658 Y140.397 E6.1987
G1 X178.684 Y140.666 E6.21886
G1 X177.68 Y140.85 E6.23923
G1 X176.529 Y140.948 E6.26228
G1 X175.82 Y140.964 E6.27644
G1 X130.408 Y140.963 E7.18268
G1 X129.658 Y140.951 E7.19765
G1 X128.649 Y140.89 E7.21782
G1 X127.652 Y140.738 E7.23795
G1 X126.672 Y140.499 E7.25808
G1 X125.715 Y140.174 E7.27825
G1 X124.794 Y139.767 E7.29834
G1 X123.941 Y139.298 E7.31777
G1 X123.073 Y138.716 E7.33862
G1 X122.369 Y138.15 E7.35665
G1 X121.565 Y137.375 E7.37894
G1 X120.906 Y136.612 E7.39906
G1 X120.376 Y135.881 E7.41707
G1 X119.803 Y134.922 E7.43937
G1 X119.367 Y134.011 E7.45952
G1 X119.025 Y133.099 E7.47896
G1 X118.747 Y132.093 E7.49979
G1 X118.563 Y131.085 E7.52024
G1 X118.464 Y129.882 E7.54433
G1 X118.45 Y129.222 E7.5575
G1 X118.451 Y111.483 E7.9115
G1 X118.463 Y110.765 E7.92583
G1 X118.525 Y109.756 E7.946
G1 X118.677 Y108.759 E7.96613
G1 X118.917 Y107.779 E7.98627
G1 X119.243 Y106.823 E8.00642
G1 X119.651 Y105.901 E8.02654
G1 X120.139 Y105.018 E8.04668
G1 X120.702 Y104.182 E8.06679
G1 X121.293 Y103.451 E8.08555
G0 F4200 X121.581 Y103.729
G1 F900 X122.306 Y102.977 E8.10639
G1 X123.042 Y102.34 E8.12582
G1 X123.774 Y101.81 E8.14385
G1 X124.671 Y101.275 E8.1647
G1 X125.549 Y100.854 E8.18413
G1 X126.462 Y100.512 E8.20358
G1 X127.399 Y100.253 E8.22298
G1 X128.366 Y100.075 E8.24261
G1 X129.505 Y99.979 E8.26542
G1 X130.162 Y99.964 E8.27853
G1 X175.454 Y99.964 E9.18238
G1 X176.334 Y99.977 E9.19995
G1 X177.306 Y100.036 E9.21938
G1 X178.269 Y100.182 E9.23882
G1 X179.216 Y100.413 E9.25827
G1 X180.104 Y100.713 E9.27697
G1 X180.996 Y101.103 E9.2964
G1 X181.879 Y101.59 E9.31652
G1 X182.63 Y102.092 E9.33455
G1 X183.445 Y102.75 E9.35546
G1 X184.143 Y103.428 E9.37487
G1 X184.779 Y104.165 E9.3943
G1 X185.349 Y104.955 E9.41374
G1 X185.811 Y105.731 E9.43176
G1 X186.265 Y106.673 E9.45263
G1 X186.594 Y107.551 E9.47134
G1 X186.863 Y108.523 E9.49147
G1 X187.04 Y109.489 E9.51107
G1 X187.135 Y110.619 E9.5337
G1 X187.15 Y111.294 E9.54717
G1 X187.149 Y128.964 E9.8998
G1 X187.138 Y129.727 E9.91502
G1 X187.081 Y130.7 E9.93447
G1 X186.936 Y131.663 E9.95391
G1 X186.707 Y132.609 E9.97333
G1 X186.396 Y133.533 E9.99279
G1 X186.004 Y134.424 E10.01221
G1 X185.536 Y135.276 E10.03161
G1 X185.014 Y136.057 E10.05036
G1 X184.381 Y136.842 E10.07048
G1 X183.756 Y137.493 E10.08849
G1 X182.967 Y138.181 E10.10938
G1 X182.207 Y138.731 E10.12811
G1 X181.34 Y139.248 E10.14825
G1 X180.462 Y139.67 E10.16769
G1 X179.551 Y140.012 E10.18711
G1 X178.612 Y140.273 E10.20656
G1 X177.646 Y140.451 E10.22616
G1 X176.495 Y140.549 E10.24921
G1 X175.82 Y140.564 E10.26269
G1 X130.414 Y140.563 E11.16881
G1 X129.681 Y140.552 E11.18344
G1 X128.709 Y140.495 E11.20287
G1 X127.746 Y140.349 E11.22231
G1 X126.8 Y140.12 E11.24173
G1 X125.876 Y139.808 E11.2612
G1 X124.986 Y139.416 E11.2806
G1 X124.163 Y138.965 E11.29933
G1 X123.324 Y138.404 E11.31947
G1 X122.62 Y137.838 E11.3375
G1 X121.867 Y137.113 E11.35836
G1 X121.23 Y136.377 E11.37778
G1 X120.7 Y135.646 E11.3958
G1 X120.164 Y134.749 E11.41666
G1 X119.742 Y133.871 E11.4361
G1 X119.4 Y132.959 E11.45553
G1 X119.14 Y132.021 E11.47496
G1 X118.962 Y131.052 E11.49462
G1 X118.864 Y129.873 E11.51823
G1 X118.85 Y129.222 E11.53122
G1 X118.851 Y111.489 E11.8851
G1 X118.862 Y110.789 E11.89907
G1 X118.92 Y109.816 E11.91853
G1 X119.066 Y108.853 E11.93796
G1 X119.296 Y107.907 E11.95739
G1 X119.609 Y106.984 E11.97684
G1 X120.001 Y106.094 E11.99625
G1 X120.471 Y105.241 E12.01568
G1 X121.014 Y104.433 E12.03511
G1 X121.581 Y103.729 E12.05315
G0 F4200 X121.893 Y103.98
G1 F900 X122.568 Y103.279 E12.07257
G1 X123.277 Y102.664 E12.0913
G1 X124.009 Y102.134 E12.10934
G1 X124.845 Y101.635 E12.12877
G1 X125.69 Y101.228 E12.14748
G1 X126.569 Y100.897 E12.16623
G1 X127.472 Y100.646 E12.18493
G1 X128.4 Y100.474 E12.20376
G1 X129.539 Y100.378 E12.22658
G1 X130.171 Y100.364 E12.23919
G1 X175.448 Y100.364 E13.14274
G1 X176.31 Y100.376 E13.15995
G1 X177.247 Y100.432 E13.17868
G1 X178.175 Y100.571 E13.1974
G1 X179.088 Y100.792 E13.21615
G1 X179.944 Y101.08 E13.23417
G1 X180.836 Y101.47 E13.2536
G1 X181.657 Y101.923 E13.27231
G1 X182.408 Y102.425 E13.29034
G1 X183.167 Y103.037 E13.3098
G1 X183.841 Y103.69 E13.32853
G1 X184.455 Y104.399 E13.34724
G1 X185.005 Y105.16 E13.36598
G1 X185.467 Y105.936 E13.384
G1 X185.89 Y106.813 E13.40343
G1 X186.219 Y107.691 E13.42214
G1 X186.47 Y108.596 E13.44089
G1 X186.641 Y109.523 E13.4597
G1 X186.736 Y110.653 E13.48233
G1 X186.75 Y111.294 E13.49512
G1 X186.749 Y128.959 E13.84765
G1 X186.739 Y129.704 E13.86252
G1 X186.685 Y130.641 E13.88125
G1 X186.547 Y131.57 E13.89999
G1 X186.328 Y132.482 E13.91871
G1 X186.03 Y133.372 E13.93744
G1 X185.653 Y134.232 E13.95617
G1 X185.203 Y135.054 E13.97488
G1 X184.681 Y135.835 E13.99362
G1 X184.092 Y136.565 E14.01234
G1 X183.467 Y137.216 E14.03035
G1 X182.732 Y137.857 E14.04981
G1 X181.972 Y138.407 E14.06853
G1 X181.166 Y138.888 E14.08726
G1 X180.321 Y139.296 E14.10599
G1 X179.443 Y139.627 E14.12472
G1 X178.539 Y139.88 E14.14345
G1 X177.612 Y140.052 E14.16226
G1 X176.461 Y140.15 E14.18532
G1 X175.82 Y140.164 E14.19811
G1 X130.42 Y140.163 E15.10412
G1 X129.704 Y140.153 E15.11841
G1 X128.768 Y140.099 E15.13712
G1 X127.839 Y139.96 E15.15586
G1 X126.927 Y139.741 E15.17458
G1 X126.037 Y139.442 E15.19332
G1 X125.178 Y139.065 E15.21204
G1 X124.355 Y138.614 E15.23077
G1 X123.575 Y138.092 E15.2495
G1 X122.871 Y137.526 E15.26752
G1 X122.169 Y136.851 E15.28696
G1 X121.554 Y136.142 E15.30569
G1 X121.024 Y135.411 E15.32371
G1 X120.524 Y134.575 E15.34315
G1 X120.116 Y133.73 E15.36187
G1 X119.785 Y132.852 E15.3806
G1 X119.533 Y131.948 E15.39932
G1 X119.361 Y131.019 E15.41818
G1 X119.263 Y129.84 E15.44179
G1 X119.25 Y129.222 E15.45412
G1 X119.251 Y111.495 E15.80788
G1 X119.261 Y110.812 E15.82152
G1 X119.316 Y109.875 E15.84025
G1 X119.455 Y108.947 E15.85897
G1 X119.675 Y108.035 E15.8777
G1 X119.975 Y107.145 E15.89644
G1 X120.352 Y106.286 E15.91516
G1 X120.803 Y105.464 E15.93387
G1 X121.326 Y104.684 E15.95261
G1 X121.893 Y103.98 E15.97065
G0 F4200 X122.205 Y104.231
G1 F900 X122.831 Y103.581 E15.98866
G1 X123.512 Y102.988 E16.00668
G1 X124.244 Y102.458 E16.02471
G1 X125.019 Y101.995 E16.04273
G1 X125.832 Y101.602 E16.06075
G1 X126.677 Y101.282 E16.07878
G1 X127.546 Y101.039 E16.09679
G1 X128.434 Y100.873 E16.11482
G1 X129.573 Y100.777 E16.13763
G1 X130.18 Y100.764 E16.14974
G1 X175.443 Y100.764 E17.05302
G1 X176.287 Y100.775 E17.06986
G1 X177.189 Y100.828 E17.08789
G1 X178.082 Y100.96 E17.10591
G1 X178.96 Y101.171 E17.12393
G1 X179.816 Y101.459 E17.14195
G1 X180.643 Y101.821 E17.15996
G1 X181.435 Y102.256 E17.178
G1 X182.186 Y102.758 E17.19602
G1 X182.889 Y103.325 E17.21405
G1 X183.539 Y103.952 E17.23207
G1 X184.131 Y104.634 E17.25009
G1 X184.661 Y105.365 E17.26811
G1 X185.123 Y106.141 E17.28613
G1 X185.516 Y106.954 E17.30415
G1 X185.834 Y107.799 E17.32217
G1 X186.077 Y108.669 E17.3402
G1 X186.242 Y109.557 E17.35822
G1 X186.337 Y110.687 E17.38085
G1 X186.35 Y111.294 E17.39297
G1 X186.349 Y128.954 E17.74539
G1 X186.34 Y129.681 E17.7599
G1 X186.289 Y130.583 E17.77793
G1 X186.158 Y131.477 E17.79596
G1 X185.949 Y132.355 E17.81397
G1 X185.663 Y133.212 E17.832
G1 X185.302 Y134.04 E17.85003
G1 X184.87 Y134.832 E17.86803
G1 X184.369 Y135.584 E17.88606
G1 X183.803 Y136.288 E17.90409
G1 X183.178 Y136.939 E17.9221
G1 X182.497 Y137.533 E17.94013
G1 X181.766 Y138.064 E17.95816
G1 X180.992 Y138.528 E17.97617
G1 X180.179 Y138.922 E17.9942
G1 X179.335 Y139.242 E18.01222
G1 X178.465 Y139.487 E18.03025
G1 X177.578 Y139.653 E18.04826
G1 X176.427 Y139.751 E18.07131
G1 X175.82 Y139.764 E18.08343
G1 X130.425 Y139.763 E18.98934
G1 X129.727 Y139.754 E19.00327
G1 X128.826 Y139.703 E19.02128
G1 X127.932 Y139.571 E19.03931
G1 X127.054 Y139.362 E19.05732
G1 X126.197 Y139.075 E19.07536
G1 X125.37 Y138.714 E19.09336
G1 X124.577 Y138.281 E19.11139
G1 X123.826 Y137.78 E19.12941
G1 X123.122 Y137.214 E19.14744
G1 X122.471 Y136.588 E19.16546
G1 X121.878 Y135.907 E19.18348
G1 X121.348 Y135.176 E19.2015
G1 X120.884 Y134.401 E19.21953
G1 X120.49 Y133.588 E19.23755
G1 X120.17 Y132.744 E19.25557
G1 X119.926 Y131.874 E19.2736
G1 X119.76 Y130.986 E19.29163
G1 X119.663 Y129.831 E19.31476
G1 X119.65 Y129.222 E19.32691
G1 X119.651 Y111.5 E19.68058
G1 X119.66 Y110.835 E19.69385
G1 X119.712 Y109.933 E19.71188
G1 X119.844 Y109.04 E19.72989
G1 X120.054 Y108.162 E19.74791
G1 X120.341 Y107.305 E19.76594
G1 X120.703 Y106.478 E19.78396
G1 X121.136 Y105.686 E19.80197
G1 X121.638 Y104.935 E19.82
G1 X122.205 Y104.231 E19.83804
G1 F2700 E14.83804
;MESH:display_glass.SLDPRT
G0 F4200 X129.185 Y111.378
G0 X130.264 Y111.378
G0 X131.193 Y120.645
G0 X131.452 Y121.358
G0 X131.942 Y121.943
G0 X132.316 Y122.159
G0 X133.784 Y122.88
G0 X133.759 Y122.579
;TYPE:WALL-INNER
G1 F2700 E19.83804
G1 F900 X133.395 Y122.613 E19.84533
G1 X132.944 Y122.582 E19.85436
G1 X132.543 Y122.476 E19.86263
G1 X132.168 Y122.299 E19.87091
G1 X131.837 Y122.067 E19.87897
G1 X131.55 Y121.782 E19.88705
G1 X131.313 Y121.445 E19.89527
G1 X131.16 Y121.115 E19.90253
G1 F803.6 X130.989 Y120.682 E19.91293
G1 F740.7 X130.964 Y120.323 E19.92166
G1 F745.3 X130.985 Y119.9 E19.93186
G1 F809 X131.159 Y119.415 E19.9433
G1 F900 X131.309 Y119.09 E19.95045
G1 X131.545 Y118.753 E19.95866
G1 X131.84 Y118.46 E19.96695
G1 X132.168 Y118.23 E19.97495
G1 X132.545 Y118.052 E19.98327
G1 X132.938 Y117.949 E19.99138
G1 X133.35 Y117.911 E19.99963
G1 X133.762 Y117.949 E20.00789
G1 X134.155 Y118.052 E20.016
G1 X134.532 Y118.23 E20.02432
G1 X134.86 Y118.46 E20.03231
G1 X135.153 Y118.75 E20.04054
G1 X135.387 Y119.085 E20.04869
G1 X135.564 Y119.466 E20.05708
G1 X135.664 Y119.856 E20.06511
G1 X135.7 Y120.264 E20.07328
G1 X135.664 Y120.673 E20.08148
G1 X135.563 Y121.065 E20.08956
G1 X135.391 Y121.437 E20.09774
G1 X135.15 Y121.781 E20.10612
G1 X134.863 Y122.067 E20.1142
G1 X134.532 Y122.299 E20.12227
G1 X134.154 Y122.478 E20.13062
G1 X133.759 Y122.579 E20.13875
G0 F4200 X133.784 Y122.88
G0 X131.882 Y122.783
G0 X131.035 Y122.094
G0 X130.85 Y128.564
G1 F900 X175.15 Y128.564 E21.02281
G1 X175.15 Y121.395 E21.16587
G1 X174.985 Y121.715 E21.17306
G1 X174.762 Y122.035 E21.18084
G1 X174.414 Y122.38 E21.19062
G1 X174.037 Y122.643 E21.19979
G1 X173.597 Y122.853 E21.20952
G1 X173.126 Y122.977 E21.21924
G1 X172.652 Y123.019 E21.22874
G1 X172.174 Y122.977 E21.23831
G1 X171.712 Y122.856 E21.24784
G1 X171.269 Y122.648 E21.25761
G1 X170.882 Y122.376 E21.26705
G1 X170.543 Y122.039 E21.27659
G1 X170.264 Y121.642 E21.28627
G1 X170.06 Y121.204 E21.29592
G1 X169.942 Y120.741 E21.30545
G1 X169.9 Y120.264 E21.31501
G1 X169.942 Y119.787 E21.32456
G1 X170.059 Y119.329 E21.334
G1 X170.264 Y118.885 E21.34375
G1 X170.54 Y118.493 E21.35332
G1 X170.882 Y118.153 E21.36295
G1 X171.274 Y117.879 E21.37249
G1 X171.716 Y117.671 E21.38224
G1 X172.171 Y117.556 E21.3916
G1 X172.645 Y117.509 E21.40111
G1 X173.135 Y117.554 E21.41093
G1 X173.595 Y117.675 E21.42042
G1 X174.033 Y117.884 E21.43011
G1 X174.413 Y118.15 E21.43936
G1 X174.76 Y118.492 E21.44909
G1 X174.985 Y118.813 E21.45691
G1 X175.15 Y119.132 E21.46408
G1 X175.15 Y111.964 E21.60712
G1 X130.85 Y111.964 E22.49118
