;FLAVOR:Marlin
;TIME:1151
;Filament used: 0.30579m
;Layer height: 0.12
;MINX:118.05
;MINY:128.9
;MINZ:0.12
;MAXX:187.95
;MAXY:171.1
;MAXZ:1.8
;TARGET_MACHINE.NAME:Creality CR-10S Pro
;Generated with Cura_SteamEngine 5.6.0
M82 ;absolute extrusion mode
M201 X500.00 Y500.00 Z100.00 E5000.00 ;Setup machine max acceleration
M203 X500.00 Y500.00 Z10.00 E50.00 ;Setup machine max feedrate
M204 P500.00 R1000.00 T500.00 ;Setup Print/Retract/Travel acceleration
M205 X8.00 Y8.00 Z0.40 E5.00 ;Setup Jerk
M220 S100 ;Reset Feedrate
M221 S100 ;Reset Flowrate

;*** Start Dual Nozzle/Bed Preheating ***
M140 S70 ; start preheating the bed
M104 S215 ﻿T0 ; start preheating hotend
M190 S70 ; heat to Cura Bed setting
M109 S215 ﻿T0 ; heat to Cura Hotend
;*** End Preheating ***

G28 ;Home
G29 ;Auto bed Level

G92 E0 ;Reset Extruder
G1 Z2.0 F3000 ;Move Z Axis up
G1 X10.1 Y20 Z0.28 F5000.0 ;Move to start position
G1 X10.1 Y200.0 Z0.28 F1500.0 E15 ;Draw the first line
G1 X10.4 Y200.0 Z0.28 F5000.0 ;Move to side a little
G1 X10.4 Y20 Z0.28 F1500.0 E30 ;Draw the second line
G92 E0 ;Reset Extruder
G1 Z2.0 F3000 ;Move Z Axis up
G92 E0
G92 E0
G1 F2700 E-5
;LAYER_COUNT:15
;LAYER:0
M107
G0 F4200 X121.783 Y132.108 Z0.12
;TYPE:SKIRT
G1 F2700 E0
G1 F900 X122.573 Y131.428 E0.0208
G1 X123.365 Y130.858 E0.04027
G1 X124.326 Y130.289 E0.06256
G1 X125.269 Y129.84 E0.0834
G1 X126.248 Y129.476 E0.10425
G1 X127.185 Y129.217 E0.12365
G1 X128.298 Y129.013 E0.14623
G1 X129.437 Y128.917 E0.16904
G1 X130.144 Y128.9 E0.18315
G1 X175.466 Y128.9 E1.0876
G1 X176.383 Y128.915 E1.1059
G1 X177.426 Y128.982 E1.12676
G1 X178.46 Y129.141 E1.14764
G1 X179.472 Y129.391 E1.16844
G1 X180.424 Y129.715 E1.18851
G1 X181.316 Y130.105 E1.20794
G1 X182.323 Y130.66 E1.23088
G1 X183.074 Y131.162 E1.24891
G1 X184.003 Y131.913 E1.27275
G1 X184.749 Y132.642 E1.29356
G1 X185.428 Y133.433 E1.31437
G1 X186.037 Y134.281 E1.3352
G1 X186.499 Y135.057 E1.35323
G1 X187.015 Y136.129 E1.37697
G1 X187.366 Y137.073 E1.39707
G1 X187.635 Y138.045 E1.41719
G1 X187.838 Y139.157 E1.43975
G1 X187.933 Y140.287 E1.46238
G1 X187.95 Y141.03 E1.47721
G1 X187.949 Y158.712 E1.83008
G1 X187.936 Y159.51 E1.846
G1 X187.872 Y160.556 E1.86692
G1 X187.714 Y161.588 E1.88775
G1 X187.465 Y162.601 E1.90857
G1 X187.128 Y163.591 E1.92944
G1 X186.705 Y164.546 E1.95028
G1 X186.202 Y165.456 E1.97103
G1 X185.68 Y166.237 E1.98978
G1 X184.959 Y167.132 E2.01271
G1 X184.334 Y167.783 E2.03072
G1 X183.436 Y168.565 E2.05448
G1 X182.616 Y169.155 E2.07464
G1 X181.686 Y169.706 E2.09622
G1 X180.775 Y170.142 E2.11637
G1 X179.764 Y170.519 E2.1379
G1 X178.79 Y170.788 E2.15807
G1 X177.714 Y170.985 E2.1799
G1 X176.563 Y171.083 E2.20295
G1 X175.82 Y171.1 E2.21778
G1 X130.402 Y171.099 E3.12415
G1 X129.634 Y171.086 E3.13948
G1 X128.589 Y171.021 E3.16037
G1 X127.557 Y170.863 E3.18121
G1 X126.543 Y170.614 E3.20204
G1 X125.553 Y170.276 E3.22292
G1 X124.601 Y169.854 E3.2437
G1 X123.748 Y169.385 E3.26313
G1 X122.822 Y168.764 E3.28538
G1 X122.091 Y168.174 E3.30412
G1 X121.287 Y167.399 E3.32641
G1 X120.582 Y166.583 E3.34793
G1 X120.052 Y165.852 E3.36595
G1 X119.442 Y164.831 E3.38968
G1 X118.992 Y163.887 E3.41055
G1 X118.639 Y162.942 E3.43068
G1 X118.361 Y161.936 E3.45151
G1 X118.164 Y160.854 E3.47346
G1 X118.065 Y159.651 E3.49755
G1 X118.05 Y158.958 E3.51138
G1 X118.051 Y141.212 E3.86552
G1 X118.064 Y140.476 E3.88021
G1 X118.13 Y139.432 E3.90108
G1 X118.288 Y138.4 E3.92192
G1 X118.538 Y137.386 E3.94276
G1 X118.877 Y136.397 E3.96362
G1 X119.285 Y135.475 E3.98374
G1 X119.807 Y134.531 E4.00527
G1 X120.391 Y133.667 E4.02608
G1 X121.006 Y132.909 E4.04556
G1 X121.783 Y132.108 E4.06783
G0 F4200 X122.044 Y132.411
G1 F900 X122.807 Y131.752 E4.08795
G1 X123.569 Y131.202 E4.10671
G1 X124.498 Y130.65 E4.12827
G1 X125.409 Y130.215 E4.14842
G1 X126.355 Y129.862 E4.16857
G1 X127.292 Y129.603 E4.18797
G1 X128.332 Y129.412 E4.20907
G1 X129.471 Y129.316 E4.23188
G1 X130.153 Y129.3 E4.24549
G1 X175.46 Y129.3 E5.14964
G1 X176.358 Y129.314 E5.16757
G1 X177.366 Y129.377 E5.18772
G1 X178.364 Y129.529 E5.20787
G1 X179.344 Y129.77 E5.22801
G1 X180.264 Y130.082 E5.24739
G1 X181.156 Y130.472 E5.26682
G1 X182.101 Y130.993 E5.28835
G1 X182.852 Y131.495 E5.30638
G1 X183.724 Y132.199 E5.32875
G1 X184.446 Y132.903 E5.34887
G1 X185.103 Y133.667 E5.36898
G1 X185.693 Y134.486 E5.38912
G1 X186.155 Y135.262 E5.40715
G1 X186.64 Y136.269 E5.42945
G1 X186.98 Y137.18 E5.44886
G1 X187.249 Y138.152 E5.46898
G1 X187.439 Y139.191 E5.49006
G1 X187.534 Y140.321 E5.51269
G1 X187.55 Y141.03 E5.52684
G1 X187.549 Y158.706 E5.87959
G1 X187.537 Y159.486 E5.89515
G1 X187.477 Y160.496 E5.91535
G1 X187.325 Y161.493 E5.93547
G1 X187.086 Y162.473 E5.9556
G1 X186.762 Y163.43 E5.97576
G1 X186.355 Y164.353 E5.99589
G1 X185.869 Y165.234 E6.01597
G1 X185.347 Y166.015 E6.03472
G1 X184.67 Y166.855 E6.05625
G1 X184.045 Y167.506 E6.07426
G1 X183.202 Y168.241 E6.09658
G1 X182.412 Y168.811 E6.11602
G1 X181.513 Y169.345 E6.13689
G1 X180.635 Y169.767 E6.15633
G1 X179.658 Y170.133 E6.17715
G1 X178.684 Y170.402 E6.19731
G1 X177.68 Y170.586 E6.21768
G1 X176.529 Y170.684 E6.24073
G1 X175.82 Y170.7 E6.25489
G1 X130.408 Y170.699 E7.16113
G1 X129.658 Y170.687 E7.1761
G1 X128.649 Y170.626 E7.19627
G1 X127.652 Y170.474 E7.2164
G1 X126.672 Y170.235 E7.23653
G1 X125.715 Y169.91 E7.2567
G1 X124.794 Y169.503 E7.27679
G1 X123.941 Y169.034 E7.29622
G1 X123.073 Y168.452 E7.31707
G1 X122.369 Y167.886 E7.3351
G1 X121.565 Y167.111 E7.35739
G1 X120.906 Y166.348 E7.37751
G1 X120.376 Y165.617 E7.39552
G1 X119.803 Y164.658 E7.41782
G1 X119.367 Y163.747 E7.43797
G1 X119.025 Y162.835 E7.45741
G1 X118.747 Y161.829 E7.47824
G1 X118.563 Y160.821 E7.49869
G1 X118.464 Y159.618 E7.52277
G1 X118.45 Y158.958 E7.53595
G1 X118.451 Y141.219 E7.88995
G1 X118.463 Y140.501 E7.90428
G1 X118.525 Y139.492 E7.92445
G1 X118.677 Y138.495 E7.94458
G1 X118.917 Y137.515 E7.96471
G1 X119.243 Y136.559 E7.98487
G1 X119.651 Y135.637 E8.00499
G1 X120.139 Y134.754 E8.02513
G1 X120.702 Y133.918 E8.04524
G1 X121.293 Y133.187 E8.064
G1 X122.044 Y132.411 E8.08555
G0 F4200 X122.306 Y132.713
G1 F900 X123.042 Y132.076 E8.10497
G1 X123.774 Y131.546 E8.12301
G1 X124.671 Y131.011 E8.14385
G1 X125.549 Y130.59 E8.16328
G1 X126.462 Y130.248 E8.18274
G1 X127.399 Y129.989 E8.20214
G1 X128.366 Y129.811 E8.22176
G1 X129.505 Y129.715 E8.24457
G1 X130.162 Y129.7 E8.25769
G1 X175.454 Y129.7 E9.16154
G1 X176.334 Y129.713 E9.1791
G1 X177.306 Y129.772 E9.19853
G1 X178.269 Y129.918 E9.21797
G1 X179.216 Y130.149 E9.23742
G1 X180.104 Y130.449 E9.25613
G1 X180.996 Y130.839 E9.27556
G1 X181.879 Y131.326 E9.29568
G1 X182.63 Y131.828 E9.31371
G1 X183.445 Y132.486 E9.33461
G1 X184.143 Y133.164 E9.35403
G1 X184.779 Y133.901 E9.37346
G1 X185.349 Y134.691 E9.3929
G1 X185.811 Y135.467 E9.41092
G1 X186.265 Y136.409 E9.43179
G1 X186.594 Y137.287 E9.4505
G1 X186.863 Y138.259 E9.47062
G1 X187.04 Y139.225 E9.49022
G1 X187.135 Y140.355 E9.51285
G1 X187.15 Y141.03 E9.52633
G1 X187.149 Y158.7 E9.87895
G1 X187.138 Y159.463 E9.89418
G1 X187.081 Y160.436 E9.91363
G1 X186.936 Y161.399 E9.93306
G1 X186.707 Y162.345 E9.95249
G1 X186.396 Y163.269 E9.97194
G1 X186.004 Y164.16 E9.99137
G1 X185.536 Y165.012 E10.01077
G1 X185.014 Y165.793 E10.02951
G1 X184.381 Y166.578 E10.04964
G1 X183.756 Y167.229 E10.06765
G1 X182.967 Y167.917 E10.08854
G1 X182.207 Y168.467 E10.10726
G1 X181.34 Y168.984 E10.1274
G1 X180.462 Y169.406 E10.14684
G1 X179.551 Y169.748 E10.16626
G1 X178.612 Y170.009 E10.18571
G1 X177.646 Y170.187 E10.20531
G1 X176.495 Y170.285 E10.22837
G1 X175.82 Y170.3 E10.24184
G1 X130.414 Y170.299 E11.14797
G1 X129.681 Y170.288 E11.1626
G1 X128.709 Y170.231 E11.18203
G1 X127.746 Y170.085 E11.20146
G1 X126.8 Y169.856 E11.22089
G1 X125.876 Y169.544 E11.24035
G1 X124.986 Y169.152 E11.25976
G1 X124.163 Y168.701 E11.27849
G1 X123.324 Y168.14 E11.29863
G1 X122.62 Y167.574 E11.31665
G1 X121.867 Y166.849 E11.33751
G1 X121.23 Y166.113 E11.35694
G1 X120.7 Y165.382 E11.37496
G1 X120.164 Y164.485 E11.39581
G1 X119.742 Y163.607 E11.41525
G1 X119.4 Y162.695 E11.43469
G1 X119.14 Y161.757 E11.45411
G1 X118.962 Y160.788 E11.47377
G1 X118.864 Y159.609 E11.49738
G1 X118.85 Y158.958 E11.51038
G1 X118.851 Y141.225 E11.86426
G1 X118.862 Y140.525 E11.87823
G1 X118.92 Y139.552 E11.89768
G1 X119.066 Y138.589 E11.91712
G1 X119.296 Y137.643 E11.93655
G1 X119.609 Y136.72 E11.956
G1 X120.001 Y135.83 E11.9754
G1 X120.471 Y134.977 E11.99484
G1 X121.014 Y134.169 E12.01427
G1 X121.581 Y133.465 E12.03231
G1 X122.306 Y132.713 E12.05315
G0 F4200 X122.568 Y133.015
G1 F900 X123.277 Y132.4 E12.07188
G1 X124.009 Y131.87 E12.08992
G1 X124.845 Y131.371 E12.10935
G1 X125.69 Y130.964 E12.12806
G1 X126.569 Y130.633 E12.14681
G1 X127.472 Y130.382 E12.16551
G1 X128.4 Y130.21 E12.18434
G1 X129.539 Y130.114 E12.20715
G1 X130.171 Y130.1 E12.21977
G1 X175.448 Y130.1 E13.12332
G1 X176.31 Y130.112 E13.14053
G1 X177.247 Y130.168 E13.15926
G1 X178.175 Y130.307 E13.17798
G1 X179.088 Y130.528 E13.19673
G1 X179.944 Y130.816 E13.21475
G1 X180.836 Y131.206 E13.23418
G1 X181.657 Y131.659 E13.25289
G1 X182.408 Y132.161 E13.27092
G1 X183.167 Y132.773 E13.29038
G1 X183.841 Y133.426 E13.30911
G1 X184.455 Y134.135 E13.32782
G1 X185.005 Y134.896 E13.34656
G1 X185.467 Y135.672 E13.36458
G1 X185.89 Y136.549 E13.38401
G1 X186.219 Y137.427 E13.40272
G1 X186.47 Y138.332 E13.42147
G1 X186.641 Y139.259 E13.44028
G1 X186.736 Y140.389 E13.46291
G1 X186.75 Y141.03 E13.4757
G1 X186.749 Y158.695 E13.82823
G1 X186.739 Y159.44 E13.8431
G1 X186.685 Y160.377 E13.86183
G1 X186.547 Y161.306 E13.88057
G1 X186.328 Y162.218 E13.89929
G1 X186.03 Y163.108 E13.91802
G1 X185.653 Y163.968 E13.93675
G1 X185.203 Y164.79 E13.95546
G1 X184.681 Y165.571 E13.9742
G1 X184.092 Y166.301 E13.99292
G1 X183.467 Y166.952 E14.01093
G1 X182.732 Y167.593 E14.03039
G1 X181.972 Y168.143 E14.04911
G1 X181.166 Y168.624 E14.06784
G1 X180.321 Y169.032 E14.08657
G1 X179.443 Y169.363 E14.1053
G1 X178.539 Y169.616 E14.12403
G1 X177.612 Y169.788 E14.14284
G1 X176.461 Y169.886 E14.1659
G1 X175.82 Y169.9 E14.17869
G1 X130.42 Y169.899 E15.0847
G1 X129.704 Y169.889 E15.09899
G1 X128.768 Y169.835 E15.1177
G1 X127.839 Y169.696 E15.13644
G1 X126.927 Y169.477 E15.15516
G1 X126.037 Y169.178 E15.1739
G1 X125.178 Y168.801 E15.19262
G1 X124.355 Y168.35 E15.21135
G1 X123.575 Y167.828 E15.23008
G1 X122.871 Y167.262 E15.2481
G1 X122.169 Y166.587 E15.26754
G1 X121.554 Y165.878 E15.28627
G1 X121.024 Y165.147 E15.30429
G1 X120.524 Y164.311 E15.32372
G1 X120.116 Y163.466 E15.34245
G1 X119.785 Y162.588 E15.36118
G1 X119.533 Y161.684 E15.3799
G1 X119.361 Y160.755 E15.39876
G1 X119.263 Y159.576 E15.42237
G1 X119.25 Y158.958 E15.4347
G1 X119.251 Y141.231 E15.78846
G1 X119.261 Y140.548 E15.8021
G1 X119.316 Y139.611 E15.82083
G1 X119.455 Y138.683 E15.83955
G1 X119.675 Y137.771 E15.85827
G1 X119.975 Y136.881 E15.87702
G1 X120.352 Y136.022 E15.89574
G1 X120.803 Y135.2 E15.91445
G1 X121.326 Y134.42 E15.93319
G1 X121.893 Y133.716 E15.95123
G1 X122.568 Y133.015 E15.97065
G0 F4200 X122.831 Y133.317
G1 F900 X123.512 Y132.724 E15.98867
G1 X124.244 Y132.194 E16.0067
G1 X125.019 Y131.731 E16.02472
G1 X125.832 Y131.338 E16.04274
G1 X126.677 Y131.018 E16.06077
G1 X127.546 Y130.775 E16.07878
G1 X128.434 Y130.609 E16.09681
G1 X129.573 Y130.513 E16.11962
G1 X130.18 Y130.5 E16.13173
G1 X175.443 Y130.5 E17.03501
G1 X176.287 Y130.511 E17.05185
G1 X177.189 Y130.564 E17.06988
G1 X178.082 Y130.696 E17.0879
G1 X178.96 Y130.907 E17.10592
G1 X179.816 Y131.195 E17.12394
G1 X180.643 Y131.557 E17.14196
G1 X181.435 Y131.992 E17.15999
G1 X182.186 Y132.494 E17.17801
G1 X182.889 Y133.061 E17.19604
G1 X183.539 Y133.688 E17.21406
G1 X184.131 Y134.37 E17.23208
G1 X184.661 Y135.101 E17.2501
G1 X185.123 Y135.877 E17.26812
G1 X185.516 Y136.69 E17.28615
G1 X185.834 Y137.535 E17.30416
G1 X186.077 Y138.405 E17.32219
G1 X186.242 Y139.293 E17.34021
G1 X186.337 Y140.423 E17.36284
G1 X186.35 Y141.03 E17.37496
G1 X186.349 Y158.69 E17.72738
G1 X186.34 Y159.417 E17.74189
G1 X186.289 Y160.319 E17.75992
G1 X186.158 Y161.213 E17.77795
G1 X185.949 Y162.091 E17.79596
G1 X185.663 Y162.948 E17.81399
G1 X185.302 Y163.776 E17.83202
G1 X184.87 Y164.568 E17.85002
G1 X184.369 Y165.32 E17.86806
G1 X183.803 Y166.024 E17.88608
G1 X183.178 Y166.675 E17.90409
G1 X182.497 Y167.269 E17.92213
G1 X181.766 Y167.8 E17.94016
G1 X180.992 Y168.264 E17.95816
G1 X180.179 Y168.658 E17.97619
G1 X179.335 Y168.978 E17.99421
G1 X178.465 Y169.223 E18.01224
G1 X177.578 Y169.389 E18.03025
G1 X176.427 Y169.487 E18.0533
G1 X175.82 Y169.5 E18.06542
G1 X130.425 Y169.499 E18.97133
G1 X129.727 Y169.49 E18.98526
G1 X128.826 Y169.439 E19.00327
G1 X127.932 Y169.307 E19.0213
G1 X127.054 Y169.098 E19.03931
G1 X126.197 Y168.811 E19.05735
G1 X125.37 Y168.45 E19.07536
G1 X124.577 Y168.017 E19.09339
G1 X123.826 Y167.516 E19.1114
G1 X123.122 Y166.95 E19.12943
G1 X122.471 Y166.324 E19.14745
G1 X121.878 Y165.643 E19.16547
G1 X121.348 Y164.912 E19.18349
G1 X120.884 Y164.137 E19.20152
G1 X120.49 Y163.324 E19.21955
G1 X120.17 Y162.48 E19.23756
G1 X119.926 Y161.61 E19.25559
G1 X119.76 Y160.722 E19.27362
G1 X119.663 Y159.567 E19.29675
G1 X119.65 Y158.958 E19.3089
G1 X119.651 Y141.236 E19.66257
G1 X119.66 Y140.571 E19.67584
G1 X119.712 Y139.669 E19.69387
G1 X119.844 Y138.776 E19.71188
G1 X120.054 Y137.898 E19.7299
G1 X120.341 Y137.041 E19.74793
G1 X120.703 Y136.214 E19.76595
G1 X121.136 Y135.422 E19.78396
G1 X121.638 Y134.671 E19.80199
G1 X122.205 Y133.967 E19.82003
G1 X122.831 Y133.317 E19.83804
G1 F2700 E14.83804
;MESH:display_glass.SLDPRT
G0 F4200 X130.264 Y140.035
G0 X130.264 Y141.114
G0 X131.193 Y150.381
G0 X131.452 Y151.094
G0 X131.849 Y151.567
G0 X133.32 Y152.65
G0 X133.346 Y152.354
;TYPE:WALL-INNER
G1 F2700 E19.83804
G1 F900 X132.89 Y152.303 E19.84719
G1 X132.548 Y152.213 E19.85425
G1 X132.169 Y152.037 E19.86259
G1 X131.836 Y151.803 E19.87071
G1 X131.55 Y151.517 E19.87878
G1 X131.313 Y151.181 E19.88699
G1 X131.16 Y150.851 E19.89425
G1 F803.6 X130.989 Y150.418 E19.90465
G1 F740.7 X130.964 Y150.059 E19.91338
G1 F745.3 X130.985 Y149.635 E19.92361
G1 F809 X131.16 Y149.149 E19.93508
G1 F900 X131.312 Y148.822 E19.94227
G1 X131.55 Y148.483 E19.95054
G1 X131.836 Y148.197 E19.95861
G1 X132.169 Y147.963 E19.96673
G1 X132.548 Y147.787 E19.97507
G1 X132.89 Y147.697 E19.98213
G1 X133.345 Y147.646 E19.99127
G1 X133.762 Y147.685 E19.99962
G1 X134.152 Y147.787 E20.00767
G1 X134.523 Y147.959 E20.01583
G1 X134.866 Y148.199 E20.02418
G1 X135.151 Y148.484 E20.03223
G1 X135.391 Y148.827 E20.04058
G1 X135.563 Y149.199 E20.04876
G1 X135.664 Y149.591 E20.05684
G1 X135.7 Y150 E20.06503
G1 X135.664 Y150.409 E20.07323
G1 X135.563 Y150.801 E20.0813
G1 X135.391 Y151.173 E20.08948
G1 X135.151 Y151.516 E20.09784
G1 X134.866 Y151.801 E20.10588
G1 X134.523 Y152.041 E20.11423
G1 X134.151 Y152.213 E20.12241
G1 X133.76 Y152.314 E20.13047
G1 X133.346 Y152.354 E20.13877
G0 F4200 X133.32 Y152.65
G0 X131.478 Y152.237
G0 X131.036 Y151.833
G0 X130.85 Y158.3
G1 F900 X175.15 Y158.3 E21.02283
G1 X175.15 Y151.131 E21.16589
G1 X174.985 Y151.451 E21.17308
G1 X174.767 Y151.764 E21.18069
G1 X174.426 Y152.107 E21.19034
G1 X174.037 Y152.381 E21.19984
G1 X173.59 Y152.591 E21.20969
G1 X173.129 Y152.711 E21.2192
G1 X172.648 Y152.755 E21.22884
G1 X172.172 Y152.712 E21.23838
G1 X171.709 Y152.59 E21.24793
G1 X171.272 Y152.386 E21.25755
G1 X170.873 Y152.106 E21.26728
G1 X170.544 Y151.777 E21.27657
G1 X170.263 Y151.377 E21.28632
G1 X170.06 Y150.939 E21.29596
G1 X169.942 Y150.477 E21.30547
G1 X169.9 Y150 E21.31503
G1 X169.942 Y149.523 E21.32458
G1 X170.06 Y149.061 E21.3341
G1 X170.263 Y148.623 E21.34373
G1 X170.544 Y148.223 E21.35349
G1 X170.873 Y147.894 E21.36277
G1 X171.272 Y147.614 E21.3725
G1 X171.713 Y147.408 E21.38221
G1 X172.171 Y147.292 E21.39164
G1 X172.645 Y147.245 E21.40115
G1 X173.129 Y147.289 E21.41085
G1 X173.59 Y147.409 E21.42035
G1 X174.037 Y147.619 E21.43021
G1 X174.426 Y147.893 E21.4397
G1 X174.767 Y148.236 E21.44936
G1 X174.985 Y148.549 E21.45697
G1 X175.15 Y148.869 E21.46415
G1 X175.15 Y141.7 E21.60722
G1 X130.85 Y141.7 E22.49127
G1 X130.851 Y148.866 E22.63428
