;FLAVOR:Marlin
;TIME:11071
;Filament used: 5.71697m
;Layer height: 0.2
;MINX:95.21
;MINY:58.301
;MINZ:0.28
;MAXX:210.79
;MAXY:241.649
;MAXZ:7.3
;TARGET_MACHINE.NAME:Creality CR-10S Pro
;Generated with Cura_SteamEngine 5.6.0
M82 ;absolute extrusion mode
M201 X500.00 Y500.00 Z100.00 E5000.00 ;Setup machine max acceleration
M203 X500.00 Y500.00 Z10.00 E50.00 ;Setup machine max feedrate
M204 P500.00 R1000.00 T500.00 ;Setup Print/Retract/Travel acceleration
M205 X8.00 Y8.00 Z0.40 E5.00 ;Setup Jerk
M220 S100 ;Reset Feedrate
M221 S100 ;Reset Flowrate

;*** Start Dual Nozzle/Bed Preheating ***
M140 S70 ; start preheating the bed
M104 S215.0 ﻿T0 ; start preheating hotend
M190 S70 ; heat to Cura Bed setting
M109 S215.0 ﻿T0 ; heat to Cura Hotend
;*** End Preheating ***

G28 ;Home
G29 ;Auto bed Level

G92 E0 ;Reset Extruder
G1 Z2.0 F3000 ;Move Z Axis up
G1 X10.1 Y20 Z0.28 F5000.0 ;Move to start position
G1 X10.1 Y200.0 Z0.28 F1500.0 E15 ;Draw the first line
G1 X10.4 Y200.0 Z0.28 F5000.0 ;Move to side a little
G1 X10.4 Y20 Z0.28 F1500.0 E30 ;Draw the second line
G92 E0 ;Reset Extruder
G1 Z2.0 F3000 ;Move Z Axis up
G92 E0
G92 E0
G1 F2700 E-5
;LAYER_COUNT:9
;LAYER:0
M107
G0 F6000 X97.553 Y64.825 Z0.28
;TYPE:SKIRT
G1 F2700 E0
G1 F600 X98.082 Y64.056 E0.04346
G1 X98.519 Y63.513 E0.07592
G1 X98.881 Y63.091 E0.10181
G1 X99.499 Y62.432 E0.14388
G1 X100.121 Y61.866 E0.18303
G1 X100.561 Y61.497 E0.20977
G1 X101.327 Y60.911 E0.25468
G1 X101.915 Y60.528 E0.28736
G1 X102.372 Y60.251 E0.31224
G1 X103.22 Y59.789 E0.35721
G1 X103.881 Y59.493 E0.39093
G1 X104.42 Y59.272 E0.41806
G1 X105.27 Y58.968 E0.46009
G1 X106.046 Y58.757 E0.49754
G1 X106.516 Y58.647 E0.52002
G1 X107.43 Y58.477 E0.5633
G1 X107.954 Y58.414 E0.58788
G1 X108.551 Y58.358 E0.6158
G1 X109.223 Y58.316 E0.64715
G1 X109.816 Y58.303 E0.67477
G1 X195.748 Y58.301 E4.67613
G1 X196.844 Y58.322 E4.72717
G1 X197.593 Y58.364 E4.7621
G1 X198.037 Y58.405 E4.78286
G1 X198.996 Y58.536 E4.82793
G1 X199.767 Y58.707 E4.86471
G1 X200.272 Y58.839 E4.88901
G1 X201.188 Y59.122 E4.93365
G1 X201.697 Y59.319 E4.95907
G1 X202.215 Y59.534 E4.98518
G1 X203.061 Y59.931 E5.0287
G1 X203.74 Y60.318 E5.06509
G1 X204.214 Y60.611 E5.09104
G1 X205.01 Y61.155 E5.13593
G1 X205.555 Y61.591 E5.16843
G1 X206.016 Y61.986 E5.1967
G1 X206.7 Y62.627 E5.24035
G1 X207.315 Y63.31 E5.28315
G1 X207.644 Y63.709 E5.30723
G1 X208.205 Y64.452 E5.35058
G1 X208.524 Y64.941 E5.37776
G1 X208.758 Y65.323 E5.39862
G1 X209.207 Y66.136 E5.44187
G1 X209.427 Y66.604 E5.46595
G1 X209.697 Y67.217 E5.49714
G1 X210.025 Y68.059 E5.53922
G1 X210.32 Y69.074 E5.58844
G1 X210.426 Y69.521 E5.60983
G1 X210.604 Y70.46 E5.65433
G1 X210.664 Y70.946 E5.67713
G1 X210.731 Y71.631 E5.70918
G1 X210.782 Y72.516 E5.75046
G1 X210.79 Y73.024 E5.77411
G1 X210.79 Y100.107 E7.03521
G1 X210.78 Y100.81 E7.06795
G1 X210.746 Y101.507 E7.10044
G1 X210.695 Y102.125 E7.12932
G1 X210.57 Y103.088 E7.17454
G1 X210.383 Y103.955 E7.21584
G1 X210.229 Y104.551 E7.2445
G1 X209.942 Y105.48 E7.28978
G1 X209.596 Y106.334 E7.33268
G1 X209.338 Y106.896 E7.36148
G1 X208.892 Y107.761 E7.40679
G1 X208.421 Y108.512 E7.44807
G1 X208.044 Y109.057 E7.47893
G1 X207.455 Y109.829 E7.52414
G1 X206.847 Y110.502 E7.56638
G1 X206.419 Y110.935 E7.59473
G1 X205.705 Y111.594 E7.63997
G1 X204.993 Y112.147 E7.68195
G1 X204.493 Y112.502 E7.7105
G1 X203.706 Y113.01 E7.75412
G1 X202.878 Y113.45 E7.79778
G1 X202.312 Y113.719 E7.82696
G1 X201.415 Y114.098 E7.8723
G1 X200.539 Y114.381 E7.91517
G1 X199.945 Y114.544 E7.94385
G1 X198.995 Y114.759 E7.98921
G1 X198.083 Y114.884 E8.03207
G1 X197.472 Y114.941 E8.06064
G1 X196.63 Y114.988 E8.09991
G1 X195.82 Y115 E8.13763
G1 X110.256 Y115.001 E12.12185
G1 X109.425 Y114.991 E12.16055
G1 X108.689 Y114.955 E12.19486
G1 X108.051 Y114.901 E12.22467
G1 X107.123 Y114.78 E12.26825
G1 X106.251 Y114.592 E12.30979
G1 X105.658 Y114.439 E12.33831
G1 X104.73 Y114.152 E12.38354
G1 X103.87 Y113.803 E12.42675
G1 X103.296 Y113.539 E12.45617
G1 X102.462 Y113.109 E12.49987
G1 X101.679 Y112.616 E12.54295
G1 X101.163 Y112.26 E12.57214
G1 X100.388 Y111.672 E12.61744
G1 X99.708 Y111.057 E12.66013
G1 X99.275 Y110.629 E12.68848
G1 X98.616 Y109.915 E12.73373
G1 X98.063 Y109.203 E12.7757
G1 X97.703 Y108.696 E12.80466
G1 X97.178 Y107.88 E12.84984
G1 X96.756 Y107.084 E12.89179
G1 X96.493 Y106.531 E12.9203
G1 X96.114 Y105.634 E12.96565
G1 X95.829 Y104.751 E13.00885
G1 X95.664 Y104.148 E13.03796
G1 X95.45 Y103.2 E13.08322
G1 X95.322 Y102.266 E13.12711
G1 X95.267 Y101.662 E13.15536
G1 X95.223 Y100.849 E13.19327
G1 X95.21 Y99.995 E13.23304
G1 X95.211 Y73.16 E14.48259
G1 X95.228 Y72.297 E14.52278
G1 X95.272 Y71.503 E14.55981
G1 X95.313 Y71.07 E14.58006
G1 X95.437 Y70.176 E14.62209
G1 X95.568 Y69.546 E14.65205
G1 X95.703 Y68.994 E14.67851
G1 X95.973 Y68.067 E14.72347
G1 X96.241 Y67.355 E14.7589
G1 X96.46 Y66.834 E14.78521
G1 X96.846 Y66.018 E14.82725
G1 X97.257 Y65.3 E14.86577
G1 X97.553 Y64.825 E14.89183
G0 F6000 X97.883 Y65.052
G1 F600 X98.412 Y64.283 E14.93529
G1 X98.823 Y63.773 E14.96579
G1 X99.173 Y63.365 E14.99082
G1 X99.791 Y62.706 E15.03289
G1 X100.378 Y62.172 E15.06984
G1 X100.804 Y61.814 E15.09575
G1 X101.545 Y61.246 E15.13923
G1 X102.122 Y60.87 E15.17129
G1 X102.564 Y60.602 E15.19536
G1 X103.384 Y60.154 E15.23887
G1 X104.033 Y59.863 E15.27199
G1 X104.555 Y59.649 E15.29826
G1 X105.405 Y59.345 E15.3403
G1 X106.137 Y59.146 E15.37562
G1 X106.59 Y59.04 E15.39728
G1 X107.478 Y58.874 E15.43935
G1 X107.991 Y58.812 E15.46341
G1 X108.576 Y58.757 E15.49077
G1 X109.232 Y58.716 E15.52138
G1 X109.816 Y58.703 E15.54858
G1 X195.741 Y58.701 E19.5496
G1 X196.822 Y58.721 E19.59995
G1 X197.557 Y58.762 E19.63423
G1 X197.983 Y58.801 E19.65414
G1 X198.91 Y58.927 E19.69771
G1 X199.666 Y59.094 E19.73376
G1 X200.154 Y59.221 E19.75724
G1 X201.044 Y59.495 E19.8006
G1 X201.544 Y59.688 E19.82556
G1 X202.045 Y59.896 E19.85082
G1 X202.891 Y60.293 E19.89433
G1 X203.53 Y60.658 E19.9286
G1 X203.989 Y60.941 E19.95371
G1 X204.76 Y61.467 E19.99717
G1 X205.295 Y61.895 E20.02907
G1 X205.742 Y62.278 E20.05648
G1 X206.426 Y62.919 E20.10013
G1 X207.007 Y63.565 E20.14058
G1 X207.325 Y63.95 E20.16384
G1 X207.87 Y64.671 E20.20592
G1 X208.183 Y65.15 E20.23257
G1 X208.408 Y65.517 E20.25261
G1 X208.845 Y66.307 E20.29465
G1 X209.061 Y66.765 E20.31823
G1 X209.324 Y67.362 E20.34861
G1 X209.652 Y68.204 E20.39068
G1 X209.931 Y69.167 E20.43737
G1 X210.033 Y69.596 E20.4579
G1 X210.207 Y70.509 E20.50118
G1 X210.266 Y70.985 E20.52351
G1 X210.332 Y71.654 E20.55482
G1 X210.382 Y72.522 E20.5953
G1 X210.39 Y73.03 E20.61896
G1 X210.39 Y100.101 E21.8795
G1 X210.38 Y100.791 E21.91163
G1 X210.347 Y101.474 E21.94347
G1 X210.298 Y102.074 E21.9715
G1 X210.179 Y103.004 E22.01516
G1 X209.996 Y103.855 E22.05569
G1 X209.847 Y104.433 E22.08349
G1 X209.571 Y105.33 E22.12719
G1 X209.232 Y106.167 E22.16924
G1 X208.982 Y106.713 E22.1972
G1 X208.553 Y107.548 E22.24091
G1 X208.082 Y108.299 E22.28219
G1 X207.726 Y108.815 E22.31138
G1 X207.158 Y109.561 E22.35504
G1 X206.562 Y110.221 E22.39645
G1 X206.147 Y110.641 E22.42394
G1 X205.459 Y111.278 E22.4676
G1 X204.761 Y111.821 E22.50878
G1 X204.276 Y112.166 E22.53649
G1 X203.518 Y112.657 E22.57855
G1 X202.706 Y113.089 E22.62137
G1 X202.156 Y113.351 E22.64974
G1 X201.292 Y113.717 E22.69343
G1 X200.433 Y113.995 E22.73548
G1 X199.856 Y114.154 E22.76334
G1 X198.941 Y114.363 E22.80705
G1 X198.046 Y114.486 E22.84911
G1 X197.45 Y114.542 E22.87699
G1 X196.624 Y114.588 E22.91551
G1 X195.82 Y114.6 E22.95295
G1 X110.261 Y114.601 E26.93694
G1 X109.444 Y114.591 E26.97498
G1 X108.722 Y114.556 E27.00864
G1 X108.103 Y114.504 E27.03757
G1 X107.175 Y114.383 E27.08114
G1 X106.351 Y114.205 E27.1204
G1 X105.776 Y114.057 E27.14805
G1 X104.88 Y113.781 E27.1917
G1 X104.02 Y113.432 E27.23492
G1 X103.479 Y113.183 E27.26265
G1 X102.645 Y112.753 E27.30634
G1 X101.906 Y112.287 E27.34702
G1 X101.404 Y111.941 E27.37541
G1 X100.656 Y111.375 E27.41909
G1 X99.989 Y110.772 E27.46096
G1 X99.569 Y110.357 E27.48845
G1 X98.932 Y109.669 E27.53211
G1 X98.389 Y108.971 E27.57329
G1 X98.039 Y108.479 E27.60141
G1 X97.531 Y107.692 E27.64502
G1 X97.117 Y106.912 E27.68614
G1 X96.861 Y106.375 E27.71384
G1 X96.495 Y105.511 E27.75754
G1 X96.215 Y104.645 E27.79992
G1 X96.054 Y104.059 E27.82821
G1 X95.846 Y103.145 E27.87186
G1 X95.72 Y102.229 E27.91492
G1 X95.666 Y101.64 E27.94246
G1 X95.623 Y100.843 E27.97962
G1 X95.61 Y99.995 E28.01911
G1 X95.611 Y73.168 E29.26829
G1 X95.627 Y72.319 E29.30783
G1 X95.67 Y71.54 E29.34416
G1 X95.709 Y71.125 E29.36357
G1 X95.833 Y70.231 E29.4056
G1 X95.957 Y69.64 E29.43371
G1 X96.087 Y69.105 E29.45935
G1 X96.347 Y68.208 E29.50284
G1 X96.61 Y67.51 E29.53757
G1 X96.822 Y67.005 E29.56307
G1 X97.208 Y66.189 E29.60511
G1 X97.596 Y65.512 E29.64144
G1 X97.883 Y65.052 E29.66669
G0 F6000 X98.213 Y65.278
G1 F600 X98.724 Y64.534 E29.70872
G1 X99.127 Y64.033 E29.73866
G1 X99.465 Y63.639 E29.76283
G1 X100.083 Y62.98 E29.8049
G1 X100.636 Y62.478 E29.83967
G1 X101.048 Y62.131 E29.86476
G1 X101.764 Y61.581 E29.9068
G1 X102.329 Y61.212 E29.93822
G1 X102.756 Y60.953 E29.96147
G1 X103.548 Y60.519 E30.00353
G1 X104.184 Y60.233 E30.036
G1 X104.69 Y60.026 E30.06145
G1 X105.54 Y59.722 E30.10349
G1 X106.228 Y59.535 E30.13669
G1 X106.664 Y59.433 E30.15754
G1 X107.552 Y59.267 E30.1996
G1 X108.029 Y59.21 E30.22197
G1 X108.601 Y59.156 E30.24873
G1 X109.241 Y59.116 E30.27858
G1 X109.816 Y59.103 E30.30537
G1 X195.734 Y59.101 E34.30607
G1 X196.8 Y59.12 E34.35571
G1 X197.521 Y59.16 E34.38934
G1 X197.929 Y59.197 E34.40841
G1 X198.824 Y59.318 E34.45047
G1 X199.566 Y59.481 E34.48584
G1 X200.037 Y59.603 E34.5085
G1 X200.9 Y59.868 E34.55053
G1 X201.391 Y60.057 E34.57503
G1 X201.875 Y60.258 E34.59944
G1 X202.693 Y60.641 E34.64149
G1 X203.32 Y60.998 E34.67509
G1 X203.764 Y61.272 E34.69938
G1 X204.51 Y61.78 E34.74141
G1 X205.035 Y62.199 E34.77269
G1 X205.469 Y62.57 E34.79927
G1 X206.129 Y63.186 E34.84131
G1 X206.699 Y63.82 E34.88101
G1 X207.006 Y64.191 E34.90343
G1 X207.551 Y64.912 E34.94552
G1 X207.842 Y65.359 E34.97036
G1 X208.058 Y65.711 E34.98959
G1 X208.495 Y66.501 E35.03162
G1 X208.695 Y66.927 E35.05354
G1 X208.951 Y67.507 E35.08306
G1 X209.279 Y68.349 E35.12514
G1 X209.542 Y69.26 E35.16929
G1 X209.64 Y69.671 E35.18896
G1 X209.81 Y70.558 E35.23102
G1 X209.868 Y71.025 E35.25293
G1 X209.933 Y71.677 E35.28344
G1 X209.982 Y72.528 E35.32313
G1 X209.99 Y73.036 E35.34679
G1 X209.99 Y100.095 E36.60677
G1 X209.98 Y100.772 E36.6383
G1 X209.948 Y101.442 E36.66953
G1 X209.901 Y102.024 E36.69672
G1 X209.788 Y102.92 E36.73877
G1 X209.609 Y103.755 E36.77854
G1 X209.464 Y104.316 E36.80552
G1 X209.2 Y105.18 E36.84758
G1 X208.868 Y106.001 E36.88882
G1 X208.626 Y106.531 E36.91595
G1 X208.214 Y107.335 E36.95802
G1 X207.743 Y108.086 E36.9993
G1 X207.407 Y108.573 E37.02685
G1 X206.861 Y109.293 E37.06892
G1 X206.277 Y109.94 E37.10951
G1 X205.875 Y110.348 E37.13618
G1 X205.213 Y110.962 E37.17822
G1 X204.529 Y111.495 E37.2186
G1 X204.059 Y111.83 E37.24547
G1 X203.301 Y112.321 E37.28753
G1 X202.534 Y112.728 E37.32796
G1 X202 Y112.983 E37.35551
G1 X201.169 Y113.336 E37.39756
G1 X200.326 Y113.609 E37.43882
G1 X199.766 Y113.764 E37.46587
G1 X198.886 Y113.967 E37.50793
G1 X198.008 Y114.088 E37.54919
G1 X197.428 Y114.143 E37.57632
G1 X196.618 Y114.188 E37.6141
G1 X195.82 Y114.2 E37.65126
G1 X110.266 Y114.201 E41.63501
G1 X109.463 Y114.191 E41.67241
G1 X108.755 Y114.157 E41.70541
G1 X108.154 Y114.107 E41.73349
G1 X107.259 Y113.992 E41.77551
G1 X106.451 Y113.818 E41.814
G1 X105.893 Y113.674 E41.84083
G1 X105.03 Y113.41 E41.88286
G1 X104.187 Y113.068 E41.92522
G1 X103.662 Y112.827 E41.95212
G1 X102.858 Y112.414 E41.9942
G1 X102.133 Y111.958 E42.03409
G1 X101.645 Y111.622 E42.06167
G1 X100.924 Y111.078 E42.10373
G1 X100.27 Y110.487 E42.14478
G1 X99.862 Y110.085 E42.17145
G1 X99.248 Y109.423 E42.21349
G1 X98.715 Y108.739 E42.25387
G1 X98.375 Y108.262 E42.28114
G1 X97.884 Y107.504 E42.3232
G1 X97.478 Y106.74 E42.36348
G1 X97.229 Y106.219 E42.39037
G1 X96.876 Y105.388 E42.43241
G1 X96.601 Y104.538 E42.47401
G1 X96.444 Y103.97 E42.50145
G1 X96.242 Y103.09 E42.54349
G1 X96.118 Y102.192 E42.58571
G1 X96.065 Y101.619 E42.6125
G1 X96.023 Y100.837 E42.64897
G1 X96.01 Y99.995 E42.68818
G1 X96.011 Y73.175 E43.93703
G1 X96.026 Y72.341 E43.97587
G1 X96.068 Y71.577 E44.0115
G1 X96.105 Y71.18 E44.03007
G1 X96.229 Y70.286 E44.07209
G1 X96.346 Y69.734 E44.09837
G1 X96.471 Y69.216 E44.12318
G1 X96.721 Y68.349 E44.1652
G1 X96.979 Y67.665 E44.19924
G1 X97.184 Y67.176 E44.22393
G1 X97.57 Y66.36 E44.26596
G1 X97.935 Y65.724 E44.3001
G1 X98.213 Y65.278 E44.32458
G1 F2700 E39.32458
;MESH:pb_top_lid_sm.SLDPRT(1)
G0 F6000 X107.195 Y70.921
G0 X107.34 Y71.032
;TYPE:WALL-INNER
G1 F2700 E44.32458
G1 F600 X107.114 Y71.398 E44.34461
G1 X106.947 Y71.798 E44.36479
G1 X106.845 Y72.221 E44.38505
G1 X106.809 Y72.662 E44.40565
G1 X106.81 Y100.639 E45.70838
G1 X106.853 Y101.127 E45.73119
G1 X106.975 Y101.582 E45.75313
G1 X107.183 Y102.028 E45.77604
G1 X107.453 Y102.413 E45.79794
G1 X107.797 Y102.757 E45.82059
G1 X108.182 Y103.027 E45.84249
G1 X108.629 Y103.235 E45.86544
G1 X109.084 Y103.356 E45.88737
G1 X109.578 Y103.401 E45.91047
G1 X196.422 Y103.401 E49.95429
G1 X196.916 Y103.356 E49.97738
G1 X197.371 Y103.235 E49.99931
G1 X197.818 Y103.027 E50.02226
G1 X198.203 Y102.757 E50.04416
G1 X198.547 Y102.413 E50.06681
G1 X198.817 Y102.028 E50.08871
G1 X199.025 Y101.582 E50.11163
G1 X199.146 Y101.127 E50.13355
G1 X199.191 Y100.639 E50.15637
G1 X199.191 Y72.662 E51.45909
G1 X199.155 Y72.22 E51.47974
G1 X199.055 Y71.804 E51.49967
G1 X198.892 Y71.411 E51.51948
G1 X198.66 Y71.03 E51.54025
G1 X198.383 Y70.708 E51.56003
G1 X198.063 Y70.433 E51.57967
G1 X197.681 Y70.201 E51.60048
G1 X197.288 Y70.036 E51.62033
G1 X196.871 Y69.936 E51.6403
G1 X196.43 Y69.901 E51.6609
G1 X109.594 Y69.901 E55.70435
G1 X109.15 Y69.934 E55.72508
G1 X108.729 Y70.031 E55.7452
G1 X108.33 Y70.194 E55.76527
G1 X107.953 Y70.422 E55.78578
G1 X107.631 Y70.694 E55.80541
G1 X107.34 Y71.032 E55.82618
G1 F2700 E50.82618
G0 F6000 X107.439 Y71.072
G0 X108.07 Y70.585
G0 X123.351 Y82.039
G0 X123.732 Y81.823
G1 F2700 E55.82618
G1 F600 X123.878 Y81.72 E55.8345
G1 X124.268 Y81.562 E55.85409
G1 X125.958 Y81.551 E55.93278
G1 X126.337 Y81.612 E55.95066
G1 X126.641 Y81.787 E55.96699
G1 X126.9 Y82.064 E55.98465
G1 X127.048 Y82.45 E56.0039
G1 X127.048 Y90.854 E56.39523
G1 X126.871 Y91.284 E56.41688
G1 X126.584 Y91.566 E56.43561
G1 X126.14 Y91.745 E56.45791
G1 X124.399 Y91.751 E56.53897
G1 X124.08 Y91.688 E56.55412
G1 X123.777 Y91.514 E56.57039
G1 X123.5 Y91.207 E56.58964
G1 X123.362 Y90.824 E56.6086
G1 X123.361 Y82.477 E56.99727
G1 X123.441 Y82.225 E57.00958
G1 X123.732 Y81.823 E57.03269
G0 F6000 X124.046 Y82.08
;TYPE:WALL-OUTER
G1 F600 X124.352 Y81.959 E57.04801
G1 X125.994 Y81.954 E57.12447
G1 X126.189 Y81.99 E57.1337
G1 X126.401 Y82.107 E57.14498
G1 X126.567 Y82.301 E57.15687
G1 X126.651 Y82.54 E57.16866
G1 X126.652 Y90.758 E57.55133
G1 X126.541 Y91.041 E57.56548
G1 X126.358 Y91.231 E57.57776
G1 X126.068 Y91.343 E57.59224
G1 X124.424 Y91.348 E57.66879
G1 X124.23 Y91.312 E57.67798
G1 X124.017 Y91.194 E57.68932
G1 X123.861 Y91.016 E57.70034
G1 X123.76 Y90.729 E57.71451
G1 X123.759 Y82.469 E58.09913
G1 X124.046 Y82.08 E58.12164
G1 F2700 E53.12164
G0 F6000 X123.415 Y82.086
G0 X123.588 Y81.721
G0 X123.588 Y70.101
G0 X109.579 Y69.501
G1 F2700 E58.12164
G1 F600 X109.09 Y69.538 E58.14447
G1 X108.607 Y69.649 E58.16755
G1 X108.15 Y69.836 E58.19054
G1 X107.719 Y70.096 E58.21398
G1 X107.349 Y70.409 E58.23655
G1 X107.016 Y70.795 E58.26028
G1 X106.757 Y71.214 E58.28322
G1 X106.565 Y71.673 E58.30639
G1 X106.449 Y72.158 E58.32961
G1 X106.409 Y72.646 E58.35241
G1 X106.41 Y100.657 E59.65672
G1 X106.458 Y101.197 E59.68196
G1 X106.597 Y101.719 E59.70712
G1 X106.835 Y102.229 E59.73332
G1 X107.145 Y102.671 E59.75846
G1 X107.539 Y103.065 E59.78441
G1 X107.981 Y103.375 E59.80954
G1 X108.492 Y103.613 E59.83579
G1 X109.014 Y103.752 E59.86095
G1 X109.56 Y103.801 E59.88647
G1 X196.44 Y103.801 E63.93197
G1 X196.986 Y103.752 E63.9575
G1 X197.508 Y103.613 E63.98265
G1 X198.019 Y103.375 E64.0089
