;FLAVOR:Marlin
;TIME:364
;Filament used: 0.13777m
;Layer height: 0.2
;MINX:118.526
;MINY:132.321
;MINZ:0.28
;MAXX:187.413
;MAXY:167.603
;MAXZ:0.76
;TARGET_MACHINE.NAME:Creality CR-10S Pro
;Generated with Cura_SteamEngine 5.6.0
M82 ;absolute extrusion mode
M201 X500.00 Y500.00 Z100.00 E5000.00 ;Setup machine max acceleration
M203 X500.00 Y500.00 Z10.00 E50.00 ;Setup machine max feedrate
M204 P500.00 R1000.00 T500.00 ;Setup Print/Retract/Travel acceleration
M205 X8.00 Y8.00 Z0.40 E5.00 ;Setup Jerk
M220 S100 ;Reset Feedrate
M221 S100 ;Reset Flowrate

;*** Start Dual Nozzle/Bed Preheating ***
M140 S70 ; start preheating the bed
M104 S215.0 ﻿T0 ; start preheating hotend
M190 S70 ; heat to Cura Bed setting
M109 S215.0 ﻿T0 ; heat to Cura Hotend
;*** End Preheating ***

G28 ;Home
G29 ;Auto bed Level

G92 E0 ;Reset Extruder
G1 Z2.0 F3000 ;Move Z Axis up
G1 X10.1 Y20 Z0.28 F5000.0 ;Move to start position
G1 X10.1 Y200.0 Z0.28 F1500.0 E15 ;Draw the first line
G1 X10.4 Y200.0 Z0.28 F5000.0 ;Move to side a little
G1 X10.4 Y20 Z0.28 F1500.0 E30 ;Draw the second line
G92 E0 ;Reset Extruder
G1 Z2.0 F3000 ;Move Z Axis up
G92 E0
G92 E0
G1 F2700 E-5
;LAYER_COUNT:3
;LAYER:0
M107
G0 F6000 X121.995 Y136.264 Z0.28
;TYPE:SKIRT
G1 F2700 E0
G1 F600 X122.733 Y135.629 E0.04533
G1 X123.524 Y135.06 E0.09071
G1 X124.367 Y134.562 E0.1363
G1 X125.37 Y134.091 E0.18789
G1 X125.929 Y133.862 E0.21602
G1 X126.408 Y133.68 E0.23988
G1 X127.137 Y133.428 E0.2758
G1 X128.086 Y133.136 E0.32203
G1 X128.739 Y132.959 E0.35354
G1 X129.429 Y132.796 E0.38655
G1 X130.05 Y132.67 E0.41606
G1 X130.754 Y132.554 E0.44928
G1 X131.616 Y132.45 E0.48971
G1 X132.498 Y132.372 E0.53094
G1 X133.272 Y132.331 E0.56703
G1 X133.93 Y132.321 E0.59767
G1 X134.469 Y132.326 E0.62277
G1 X135.789 Y132.373 E0.68428
G1 X137.291 Y132.447 E0.7543
G1 X139.79 Y132.5 E0.87069
G1 X142.271 Y132.481 E0.98622
G1 X145.942 Y132.335 E1.15729
G1 X146.54 Y132.328 E1.18514
G1 X147.417 Y132.342 E1.22598
G1 X147.967 Y132.367 E1.25162
G1 X149.881 Y132.498 E1.34095
G1 X152.426 Y132.604 E1.45956
G1 X154.946 Y132.639 E1.57691
G1 X167.5 Y132.64 E2.16148
G1 X169.041 Y132.662 E2.23324
G1 X171.7 Y132.662 E2.35706
G1 X173.418 Y132.639 E2.43706
G1 X175.887 Y132.64 E2.55203
G1 X176.616 Y132.652 E2.58598
G1 X177.59 Y132.711 E2.63141
G1 X178.551 Y132.858 E2.67668
G1 X179.497 Y133.089 E2.72203
G1 X180.42 Y133.402 E2.76741
G1 X181.31 Y133.796 E2.81273
G1 X182.163 Y134.267 E2.8581
G1 X182.97 Y134.812 E2.90345
G1 X183.725 Y135.425 E2.94873
G1 X184.424 Y136.103 E2.99407
G1 X185.061 Y136.841 E3.03947
G1 X185.63 Y137.631 E3.0848
G1 X186.093 Y138.407 E3.12688
G1 X186.545 Y139.348 E3.17549
G1 X186.887 Y140.261 E3.22089
G1 X187.137 Y141.165 E3.26456
G1 X187.319 Y142.157 E3.31152
G1 X187.409 Y143.127 E3.35689
G1 X187.413 Y144.101 E3.40224
G1 X187.339 Y145.001 E3.44429
G1 X187.212 Y145.784 E3.48123
G1 X187.051 Y146.594 E3.51968
G1 X186.755 Y147.978 E3.58558
G1 X186.299 Y150.441 E3.70222
G1 X185.902 Y152.998 E3.82271
G1 X185.593 Y155.245 E3.92832
G1 X185.353 Y156.46 E3.98599
G1 X185.262 Y156.807 E4.0027
G1 X184.9 Y157.94 E4.05808
G1 X184.748 Y158.336 E4.07783
G1 X184.372 Y159.199 E4.12167
G1 X183.78 Y160.262 E4.17832
G1 X183.49 Y160.718 E4.20349
G1 X182.708 Y161.795 E4.26546
G1 X182.472 Y162.081 E4.28273
G1 X181.666 Y162.954 E4.33805
G1 X181.399 Y163.215 E4.35544
G1 X180.725 Y163.816 E4.39749
G1 X179.914 Y164.434 E4.44497
G1 X178.925 Y165.085 E4.5001
G1 X178.528 Y165.315 E4.52146
G1 X177.461 Y165.864 E4.57734
G1 X176.483 Y166.258 E4.62644
G1 X175.926 Y166.455 E4.65395
G1 X175.002 Y166.735 E4.6989
G1 X174.175 Y166.916 E4.73832
G1 X173.518 Y167.026 E4.76934
G1 X172.694 Y167.135 E4.80805
G1 X171.871 Y167.212 E4.84654
G1 X171.023 Y167.26 E4.88608
G1 X170.457 Y167.276 E4.91245
G1 X165.769 Y167.286 E5.13074
G1 X164.363 Y167.269 E5.19622
G1 X162.725 Y167.225 E5.27252
G1 X158.802 Y167.257 E5.4552
G1 X157.619 Y167.287 E5.5103
G1 X155.03 Y167.287 E5.63085
G1 X152.446 Y167.324 E5.75119
G1 X149.876 Y167.433 E5.87096
G1 X148.233 Y167.544 E5.94764
G1 X147.394 Y167.587 E5.98676
G1 X146.692 Y167.599 E6.01946
G1 X145.65 Y167.579 E6.06798
G1 X144.954 Y167.546 E6.10043
G1 X142.416 Y167.46 E6.21868
G1 X139.895 Y167.448 E6.33607
G1 X137.384 Y167.507 E6.45302
G1 X135.556 Y167.591 E6.53823
G1 X134.483 Y167.603 E6.5882
G1 X133.619 Y167.569 E6.62846
G1 X132.706 Y167.496 E6.67111
G1 X131.436 Y167.318 E6.73082
G1 X130.795 Y167.19 E6.76126
G1 X130.098 Y167.026 E6.7946
G1 X129.792 Y166.942 E6.80938
G1 X129.113 Y166.734 E6.84244
G1 X128.602 Y166.558 E6.86761
G1 X127.722 Y166.209 E6.91169
G1 X127.254 Y166 E6.93556
G1 X126.422 Y165.582 E6.97891
G1 X126.028 Y165.361 E6.99995
G1 X125.32 Y164.929 E7.03857
G1 X124.95 Y164.683 E7.05926
G1 X124.199 Y164.134 E7.10258
G1 X123.847 Y163.852 E7.12358
G1 X123.13 Y163.222 E7.16802
G1 X122.757 Y162.862 E7.19216
G1 X121.893 Y161.924 E7.25154
G1 X121.61 Y161.576 E7.27243
G1 X120.897 Y160.589 E7.32913
G1 X120.701 Y160.281 E7.34612
G1 X120.175 Y159.36 E7.39551
G1 X119.98 Y158.974 E7.41565
G1 X119.511 Y157.899 E7.47026
G1 X119.384 Y157.556 E7.48729
G1 X119.126 Y156.771 E7.52577
G1 X118.851 Y155.704 E7.57708
G1 X118.661 Y154.531 E7.63241
G1 X118.607 Y154.043 E7.65527
G1 X118.541 Y152.79 E7.7137
G1 X118.546 Y151.465 E7.77539
G1 X118.569 Y150.149 E7.83668
G1 X118.526 Y146.797 E7.99278
G1 X118.527 Y144.776 E8.08688
G1 X118.539 Y144.071 E8.11972
G1 X118.599 Y143.098 E8.16511
G1 X118.746 Y142.137 E8.21038
G1 X118.977 Y141.19 E8.25577
G1 X119.291 Y140.268 E8.30112
G1 X119.684 Y139.377 E8.34647
G1 X120.119 Y138.585 E8.38854
G1 X120.702 Y137.718 E8.43719
G1 X121.292 Y136.989 E8.48086
G1 X121.995 Y136.264 E8.52788
G0 F6000 X122.256 Y136.567
G1 F600 X122.967 Y135.953 E8.57163
G1 X123.728 Y135.404 E8.61532
G1 X124.537 Y134.924 E8.65912
G1 X125.521 Y134.461 E8.70976
G1 X126.071 Y134.236 E8.73743
G1 X126.539 Y134.058 E8.76075
G1 X127.268 Y133.806 E8.79666
G1 X128.191 Y133.522 E8.84163
G1 X128.831 Y133.348 E8.87251
G1 X129.508 Y133.188 E8.90491
G1 X130.115 Y133.065 E8.93375
G1 X130.802 Y132.951 E8.96617
G1 X131.651 Y132.848 E9.006
G1 X132.519 Y132.771 E9.04657
G1 X133.278 Y132.731 E9.08196
G1 X133.926 Y132.721 E9.11214
G1 X134.455 Y132.726 E9.13677
G1 X135.769 Y132.773 E9.198
G1 X137.271 Y132.847 E9.26802
G1 X139.785 Y132.9 E9.38511
G1 X142.287 Y132.881 E9.50162
G1 X145.947 Y132.735 E9.67218
G1 X146.534 Y132.728 E9.69951
G1 X147.399 Y132.742 E9.7398
G1 X147.94 Y132.766 E9.76501
G1 X149.864 Y132.898 E9.85481
G1 X152.409 Y133.004 E9.97342
G1 X154.94 Y133.039 E10.09129
G1 X167.494 Y133.04 E10.67585
G1 X169.035 Y133.062 E10.74762
G1 X171.705 Y133.062 E10.87194
G1 X173.418 Y133.039 E10.95171
G1 X175.881 Y133.04 E11.0664
G1 X176.592 Y133.051 E11.09951
G1 X177.53 Y133.107 E11.14327
G1 X178.457 Y133.247 E11.18692
G1 X179.369 Y133.468 E11.23062
G1 X180.259 Y133.768 E11.27435
G1 X181.117 Y134.146 E11.31801
G1 X181.94 Y134.599 E11.36175
G1 X182.718 Y135.123 E11.40543
G1 X183.447 Y135.713 E11.4491
G1 X184.122 Y136.365 E11.4928
G1 X184.737 Y137.075 E11.53654
G1 X185.286 Y137.836 E11.58023
G1 X185.749 Y138.612 E11.62231
G1 X186.171 Y139.489 E11.66763
G1 X186.501 Y140.368 E11.71135
G1 X186.751 Y141.272 E11.75502
G1 X186.921 Y142.195 E11.79872
G1 X187.009 Y143.129 E11.84241
G1 X187.014 Y144.068 E11.88613
G1 X186.94 Y144.968 E11.92818
G1 X186.82 Y145.706 E11.963
G1 X186.66 Y146.51 E12.00117
G1 X186.364 Y147.894 E12.06707
G1 X185.906 Y150.368 E12.18423
G1 X185.507 Y152.937 E12.30528
G1 X185.201 Y155.168 E12.41014
G1 X184.966 Y156.359 E12.46667
G1 X184.881 Y156.686 E12.4824
G1 X184.527 Y157.797 E12.5367
G1 X184.381 Y158.177 E12.55565
G1 X184.022 Y159.005 E12.59767
G1 X183.442 Y160.048 E12.65325
G1 X183.166 Y160.483 E12.67723
G1 X182.399 Y161.54 E12.73805
G1 X182.163 Y161.826 E12.75531
G1 X181.387 Y162.668 E12.80863
G1 X181.133 Y162.916 E12.82516
G1 X180.459 Y163.517 E12.86721
G1 X179.694 Y164.1 E12.912
G1 X178.724 Y164.739 E12.96608
G1 X178.345 Y164.959 E12.98649
G1 X177.278 Y165.508 E13.04236
G1 X176.349 Y165.881 E13.08898
G1 X175.81 Y166.072 E13.1156
G1 X174.916 Y166.344 E13.15912
G1 X174.109 Y166.521 E13.19759
G1 X173.452 Y166.631 E13.22861
G1 X172.657 Y166.737 E13.26595
G1 X171.849 Y166.813 E13.30374
G1 X171.011 Y166.86 E13.34282
G1 X170.456 Y166.876 E13.36868
G1 X165.774 Y166.886 E13.58669
G1 X164.374 Y166.869 E13.65189
G1 X162.733 Y166.825 E13.72833
G1 X158.792 Y166.857 E13.91184
G1 X157.609 Y166.887 E13.96695
G1 X155.024 Y166.887 E14.08731
G1 X152.429 Y166.924 E14.20816
G1 X149.859 Y167.033 E14.32794
G1 X148.206 Y167.145 E14.40508
G1 X147.387 Y167.187 E14.44327
G1 X146.7 Y167.199 E14.47527
G1 X145.669 Y167.179 E14.52328
G1 X144.973 Y167.146 E14.55573
G1 X142.43 Y167.06 E14.67421
G1 X139.888 Y167.048 E14.79257
G1 X137.365 Y167.107 E14.91009
G1 X135.551 Y167.191 E14.99465
G1 X134.499 Y167.203 E15.04364
G1 X133.651 Y167.17 E15.08315
G1 X132.738 Y167.097 E15.1258
G1 X131.514 Y166.926 E15.18335
G1 X130.887 Y166.801 E15.21312
G1 X130.203 Y166.64 E15.24584
G1 X129.909 Y166.56 E15.26003
G1 X129.243 Y166.356 E15.29246
G1 X128.749 Y166.186 E15.31679
G1 X127.885 Y165.844 E15.36006
G1 X127.433 Y165.642 E15.38311
G1 X126.617 Y165.233 E15.42561
G1 X126.236 Y165.02 E15.44594
G1 X125.541 Y164.596 E15.48385
G1 X125.186 Y164.36 E15.5037
G1 X124.449 Y163.821 E15.54621
G1 X124.111 Y163.551 E15.56635
G1 X123.408 Y162.934 E15.60991
G1 X123.035 Y162.574 E15.63405
G1 X122.187 Y161.653 E15.69234
G1 X121.934 Y161.342 E15.71101
G1 X121.234 Y160.374 E15.76664
G1 X121.048 Y160.082 E15.78276
G1 X120.532 Y159.18 E15.83114
G1 X120.347 Y158.814 E15.85024
G1 X119.878 Y157.739 E15.90485
G1 X119.764 Y157.431 E15.92015
G1 X119.506 Y156.646 E15.95862
G1 X119.246 Y155.64 E16.00701
G1 X119.059 Y154.487 E16.0614
G1 X119.005 Y153.999 E16.08426
G1 X118.941 Y152.792 E16.14054
G1 X118.946 Y151.472 E16.202
G1 X118.969 Y150.156 E16.26329
G1 X118.926 Y146.797 E16.41971
G1 X118.927 Y144.782 E16.51354
G1 X118.938 Y144.095 E16.54553
G1 X118.995 Y143.158 E16.58925
G1 X119.135 Y142.231 E16.6329
G1 X119.356 Y141.318 E16.67664
G1 X119.657 Y140.429 E16.72035
G1 X120.035 Y139.57 E16.76405
G1 X120.47 Y138.778 E16.80612
G1 X121.013 Y137.97 E16.85145
G1 X121.603 Y137.241 E16.89512
G1 X122.256 Y136.567 E16.93882
G0 F6000 X122.518 Y136.869
G1 F600 X123.201 Y136.277 E16.98091
G1 X123.933 Y135.748 E17.02296
G1 X124.708 Y135.286 E17.06497
G1 X125.673 Y134.831 E17.11465
G1 X126.213 Y134.61 E17.14182
G1 X126.67 Y134.436 E17.16459
G1 X127.399 Y134.184 E17.20051
G1 X128.296 Y133.908 E17.24421
G1 X128.923 Y133.737 E17.27447
G1 X129.587 Y133.58 E17.30624
G1 X130.181 Y133.46 E17.33446
G1 X130.85 Y133.348 E17.36604
G1 X131.686 Y133.246 E17.40526
G1 X132.54 Y133.17 E17.44518
G1 X133.284 Y133.131 E17.47987
G1 X133.922 Y133.121 E17.50959
G1 X134.441 Y133.126 E17.53375
G1 X135.749 Y133.173 E17.5947
G1 X137.251 Y133.247 E17.66472
G1 X139.78 Y133.3 E17.78251
G1 X142.303 Y133.281 E17.9
G1 X145.952 Y133.135 E18.07004
G1 X146.527 Y133.128 E18.09682
G1 X147.382 Y133.142 E18.13664
G1 X147.913 Y133.165 E18.16139
G1 X149.847 Y133.298 E18.25165
G1 X152.392 Y133.404 E18.37026
G1 X154.934 Y133.439 E18.48864
G1 X167.488 Y133.44 E19.07321
G1 X169.029 Y133.462 E19.14497
G1 X171.71 Y133.462 E19.26981
G1 X173.418 Y133.439 E19.34935
G1 X175.875 Y133.44 E19.46376
G1 X176.569 Y133.45 E19.49607
G1 X177.471 Y133.503 E19.53815
G1 X178.364 Y133.636 E19.58019
G1 X179.242 Y133.847 E19.62224
G1 X180.098 Y134.134 E19.66428
G1 X180.925 Y134.497 E19.70633
G1 X181.717 Y134.931 E19.74838
G1 X182.467 Y135.434 E19.79043
G1 X183.17 Y136.001 E19.83249
G1 X183.82 Y136.627 E19.87451
G1 X184.413 Y137.309 E19.91659
G1 X184.942 Y138.041 E19.95865
G1 X185.405 Y138.817 E20.00072
G1 X185.797 Y139.63 E20.04275
G1 X186.116 Y140.475 E20.08481
G1 X186.358 Y141.345 E20.12686
G1 X186.523 Y142.233 E20.16891
G1 X186.609 Y143.132 E20.21096
G1 X186.615 Y144.035 E20.25301
G1 X186.541 Y144.935 E20.29506
G1 X186.428 Y145.628 E20.32776
G1 X186.269 Y146.426 E20.36565
G1 X185.973 Y147.81 E20.43155
G1 X185.513 Y150.295 E20.54923
G1 X185.112 Y152.876 E20.67085
G1 X184.809 Y155.091 E20.77495
G1 X184.579 Y156.259 E20.83038
G1 X184.5 Y156.565 E20.8451
G1 X184.153 Y157.654 E20.89832
G1 X184.014 Y158.018 E20.91646
G1 X183.655 Y158.846 E20.95848
G1 X183.104 Y159.834 E21.01116
G1 X182.842 Y160.248 E21.03397
G1 X182.09 Y161.285 E21.09362
G1 X181.854 Y161.571 E21.11089
G1 X181.108 Y162.382 E21.1622
G1 X180.867 Y162.617 E21.17787
G1 X180.193 Y163.218 E21.21992
G1 X179.474 Y163.766 E21.26202
G1 X178.523 Y164.393 E21.31506
G1 X178.161 Y164.604 E21.33457
G1 X177.129 Y165.137 E21.38865
G1 X176.215 Y165.504 E21.43451
G1 X175.693 Y165.689 E21.4603
G1 X174.83 Y165.953 E21.50233
G1 X174.043 Y166.126 E21.53985
G1 X173.386 Y166.236 E21.57087
G1 X172.619 Y166.339 E21.6069
G1 X171.827 Y166.414 E21.64394
G1 X170.999 Y166.46 E21.68256
G1 X170.455 Y166.476 E21.7079
G1 X165.779 Y166.486 E21.92564
G1 X164.385 Y166.469 E21.99055
G1 X162.741 Y166.425 E22.06713
G1 X158.782 Y166.457 E22.25148
G1 X157.599 Y166.487 E22.30659
G1 X155.018 Y166.487 E22.42677
G1 X152.412 Y166.524 E22.54813
G1 X149.842 Y166.633 E22.6679
G1 X148.179 Y166.746 E22.74552
G1 X147.38 Y166.787 E22.78277
G1 X146.708 Y166.799 E22.81407
G1 X145.688 Y166.779 E22.86157
G1 X144.992 Y166.746 E22.89402
G1 X142.443 Y166.66 E23.01278
G1 X139.881 Y166.648 E23.13208
G1 X137.346 Y166.707 E23.25015
G1 X135.546 Y166.791 E23.33406
G1 X134.514 Y166.803 E23.38211
G1 X133.683 Y166.771 E23.42084
G1 X132.77 Y166.698 E23.46349
G1 X131.592 Y166.534 E23.51887
G1 X130.979 Y166.412 E23.54797
G1 X130.307 Y166.254 E23.58012
G1 X130.026 Y166.178 E23.59367
G1 X129.373 Y165.978 E23.62547
G1 X128.896 Y165.814 E23.64896
G1 X128.048 Y165.479 E23.69141
G1 X127.612 Y165.284 E23.71365
G1 X126.812 Y164.884 E23.7553
G1 X126.444 Y164.679 E23.77492
G1 X125.762 Y164.263 E23.81212
G1 X125.422 Y164.037 E23.83113
G1 X124.699 Y163.509 E23.87281
G1 X124.375 Y163.25 E23.89213
G1 X123.672 Y162.633 E23.93568
G1 X123.329 Y162.303 E23.95785
G1 X122.497 Y161.4 E24.01502
G1 X122.258 Y161.107 E24.03263
G1 X121.571 Y160.158 E24.08718
G1 X121.395 Y159.883 E24.10238
G1 X120.889 Y158.999 E24.14981
G1 X120.714 Y158.654 E24.16783
G1 X120.245 Y157.579 E24.22244
G1 X120.144 Y157.306 E24.23599
G1 X119.893 Y156.545 E24.27331
G1 X119.641 Y155.576 E24.31993
G1 X119.457 Y154.443 E24.37338
G1 X119.403 Y153.955 E24.39624
G1 X119.341 Y152.794 E24.45038
G1 X119.346 Y151.479 E24.51161
G1 X119.369 Y150.163 E24.5729
G1 X119.326 Y146.797 E24.72964
G1 X119.327 Y144.788 E24.82319
G1 X119.337 Y144.119 E24.85435
G1 X119.391 Y143.217 E24.89642
G1 X119.524 Y142.324 E24.93846
G1 X119.735 Y141.446 E24.98051
G1 X120.023 Y140.59 E25.02256
G1 X120.386 Y139.763 E25.06462
G1 X120.821 Y138.971 E25.10669
G1 X121.324 Y138.221 E25.14874
G1 X121.891 Y137.519 E25.19076
G1 X122.518 Y136.869 E25.23282
G1 F2700 E20.23282
;MESH:body411571
G0 F6000 X129.942 Y144.545
G0 X130.658 Y145.032
;TYPE:WALL-INNER
G1 F2700 E25.23282
G1 F377.4 X131.042 Y144.873 E25.26359
G1 F406.8 X131.473 Y144.718 E25.29505
G1 F438.8 X131.99 Y144.564 E25.3294
G1 F473.4 X132.292 Y144.492 E25.34772
G1 F513.9 X132.837 Y144.395 E25.37781
G1 F564.7 X133.427 Y144.332 E25.40717
G1 F598.5 X134.046 Y144.309 E25.43608
G1 F591.1 X134.772 Y144.357 E25.47047
G1 F560.7 X135.27 Y144.432 E25.49556
G1 F533.3 X135.539 Y144.492 E25.51
G1 F505.3 X135.943 Y144.612 E25.53331
G1 F438.8 X136.42 Y144.843 E25.56705
G0 F6000 X134.701 Y144.517
G0 X134.03 Y144.465
G0 X132.91 Y144.565
G0 X131.743 Y144.876
G0 X130.375 Y145.51
G0 X130.127 Y145.945
G1 F600 X130.783 Y145.561 E25.60245
G1 X131.305 Y145.307 E25.62948
G1 X131.85 Y145.091 E25.65678
G1 X132.387 Y144.926 E25.68294
G1 X132.972 Y144.799 E25.71081
G1 X133.447 Y144.734 E25.73313
G1 X134.014 Y144.707 E25.75957
G1 X134.649 Y144.752 E25.78921
G1 X135.115 Y144.828 E25.81119
G1 X135.515 Y144.936 E25.83049
G1 X135.81 Y145.06 E25.84539
G1 X136.149 Y145.267 E25.86388
G1 X136.446 Y145.523 E25.88214
G1 X136.779 Y145.92 E25.90627
G1 X136.976 Y146.452 E25.93269
G1 X137.013 Y146.969 E25.95682
G1 X136.969 Y147.387 E25.97639
G1 X136.905 Y147.588 E25.98621
G1 X136.648 Y148.031 E26.01006
G1 X136.351 Y148.348 E26.03029
G1 X135.875 Y148.647 E26.05646
