;FLAVOR:Marlin
;TIME:345
;Filament used: 0.0814064m
;Layer height: 0.12
;MINX:132.2
;MINY:136.31
;MINZ:0.24
;MAXX:173.8
;MAXY:163.69
;MAXZ:3.72
;TARGET_MACHINE.NAME:Creality CR-10S Pro
;Generated with Cura_SteamEngine 5.6.0
M82 ;absolute extrusion mode
M201 X500.00 Y500.00 Z100.00 E5000.00 ;Setup machine max acceleration
M203 X500.00 Y500.00 Z10.00 E50.00 ;Setup machine max feedrate
M204 P500.00 R1000.00 T500.00 ;Setup Print/Retract/Travel acceleration
M205 X8.00 Y8.00 Z0.40 E5.00 ;Setup Jerk
M220 S100 ;Reset Feedrate
M221 S100 ;Reset Flowrate

;*** Start Dual Nozzle/Bed Preheating ***
M140 S70 ; start preheating the bed
M104 S215 ﻿T0 ; start preheating hotend
M190 S70 ; heat to Cura Bed setting
M109 S215 ﻿T0 ; heat to Cura Hotend
;*** End Preheating ***

G28 ;Home
G29 ;Auto bed Level

G92 E0 ;Reset Extruder
G1 Z2.0 F3000 ;Move Z Axis up
G1 X10.1 Y20 Z0.28 F5000.0 ;Move to start position
G1 X10.1 Y200.0 Z0.28 F1500.0 E15 ;Draw the first line
G1 X10.4 Y200.0 Z0.28 F5000.0 ;Move to side a little
G1 X10.4 Y20 Z0.28 F1500.0 E30 ;Draw the second line
G92 E0 ;Reset Extruder
G1 Z2.0 F3000 ;Move Z Axis up
G92 E0
G92 E0
G1 F2700 E-5
;LAYER_COUNT:30
;LAYER:0
M107
G0 F4200 X135.933 Y139.518 Z0.24
;TYPE:SKIRT
G1 F2700 E0
G1 F900 X136.723 Y138.838 E0.0416
G1 X137.515 Y138.268 E0.08055
G1 X138.476 Y137.699 E0.12512
G1 X139.419 Y137.25 E0.16681
G1 X140.398 Y136.886 E0.2085
G1 X141.335 Y136.627 E0.2473
G1 X142.448 Y136.423 E0.29246
G1 X143.587 Y136.327 E0.33808
G1 X144.294 Y136.31 E0.36631
G1 X149.632 Y136.31 E0.57936
G1 X151.646 Y136.338 E0.65975
G1 X151.927 Y136.332 E0.67097
G1 X152.986 Y136.35 E0.71324
G1 X156.076 Y136.31 E0.83658
G1 X161.465 Y136.311 E1.05166
G1 X162.233 Y136.325 E1.08232
G1 X163.276 Y136.392 E1.12404
G1 X164.31 Y136.551 E1.16579
G1 X165.322 Y136.801 E1.2074
G1 X166.274 Y137.125 E1.24753
G1 X167.166 Y137.515 E1.28639
G1 X168.173 Y138.07 E1.33228
G1 X168.924 Y138.572 E1.36833
G1 X169.853 Y139.323 E1.41601
G1 X170.599 Y140.052 E1.45764
G1 X171.278 Y140.843 E1.49925
G1 X171.887 Y141.691 E1.54092
G1 X172.349 Y142.467 E1.57696
G1 X172.865 Y143.539 E1.62445
G1 X173.216 Y144.483 E1.66465
G1 X173.485 Y145.455 E1.7049
G1 X173.688 Y146.567 E1.75001
G1 X173.783 Y147.697 E1.79527
G1 X173.8 Y148.44 E1.82494
G1 X173.799 Y151.302 E1.93917
G1 X173.786 Y152.1 E1.97102
G1 X173.722 Y153.146 E2.01285
G1 X173.564 Y154.178 E2.05451
G1 X173.315 Y155.191 E2.09615
G1 X172.978 Y156.181 E2.13789
G1 X172.555 Y157.136 E2.17958
G1 X172.052 Y158.046 E2.22108
G1 X171.53 Y158.827 E2.25857
G1 X170.809 Y159.722 E2.30444
G1 X170.184 Y160.373 E2.34046
G1 X169.286 Y161.155 E2.38798
G1 X168.466 Y161.745 E2.4283
G1 X167.536 Y162.296 E2.47145
G1 X166.625 Y162.732 E2.51176
G1 X165.614 Y163.109 E2.55482
G1 X164.64 Y163.378 E2.59515
G1 X163.564 Y163.575 E2.63881
G1 X162.413 Y163.673 E2.68492
G1 X161.67 Y163.69 E2.71458
G1 X156.231 Y163.689 E2.93166
G1 X154.331 Y163.663 E3.0075
G1 X154.073 Y163.668 E3.0178
G1 X153.014 Y163.65 E3.06007
G1 X149.924 Y163.69 E3.18341
G1 X144.535 Y163.689 E3.3985
G1 X143.767 Y163.675 E3.42916
G1 X142.724 Y163.608 E3.47087
G1 X141.69 Y163.449 E3.51263
G1 X140.678 Y163.199 E3.55423
G1 X139.726 Y162.875 E3.59437
G1 X138.834 Y162.485 E3.63322
G1 X137.827 Y161.93 E3.67912
G1 X137.076 Y161.428 E3.71517
G1 X136.147 Y160.677 E3.76285
G1 X135.401 Y159.948 E3.80448
G1 X134.722 Y159.157 E3.84608
G1 X134.113 Y158.309 E3.88775
G1 X133.651 Y157.533 E3.9238
G1 X133.135 Y156.461 E3.97128
G1 X132.784 Y155.517 E4.01148
G1 X132.515 Y154.544 E4.05177
G1 X132.312 Y153.429 E4.09701
G1 X132.215 Y152.24 E4.14462
G1 X132.2 Y151.548 E4.17224
G1 X132.201 Y148.622 E4.28903
G1 X132.214 Y147.886 E4.31841
G1 X132.28 Y146.842 E4.36016
G1 X132.438 Y145.81 E4.40183
G1 X132.688 Y144.796 E4.44351
G1 X133.027 Y143.807 E4.48524
G1 X133.435 Y142.885 E4.52548
G1 X133.957 Y141.941 E4.56853
G1 X134.541 Y141.077 E4.61016
G1 X135.156 Y140.319 E4.64912
G1 X135.933 Y139.518 E4.69365
G0 F4200 X136.194 Y139.821
G1 F900 X136.957 Y139.162 E4.73389
G1 X137.719 Y138.612 E4.7714
G1 X138.648 Y138.06 E4.81453
G1 X139.559 Y137.625 E4.85482
G1 X140.505 Y137.272 E4.89512
G1 X141.442 Y137.013 E4.93392
G1 X142.482 Y136.822 E4.97613
G1 X143.621 Y136.726 E5.02175
G1 X144.303 Y136.71 E5.04898
G1 X149.626 Y136.71 E5.26143
G1 X151.649 Y136.738 E5.34218
G1 X151.92 Y136.732 E5.353
G1 X152.984 Y136.75 E5.39547
G1 X156.076 Y136.71 E5.51889
G1 X161.458 Y136.711 E5.7337
G1 X162.208 Y136.724 E5.76363
G1 X163.216 Y136.787 E5.80394
G1 X164.214 Y136.939 E5.84424
G1 X165.194 Y137.18 E5.88452
G1 X166.114 Y137.492 E5.92329
G1 X167.006 Y137.882 E5.96214
G1 X167.951 Y138.403 E6.00521
G1 X168.702 Y138.905 E6.04127
G1 X169.574 Y139.609 E6.086
G1 X170.296 Y140.313 E6.12625
G1 X170.953 Y141.077 E6.16646
G1 X171.543 Y141.896 E6.20675
G1 X172.005 Y142.672 E6.24279
G1 X172.49 Y143.679 E6.28741
G1 X172.83 Y144.59 E6.32621
G1 X173.099 Y145.562 E6.36647
G1 X173.289 Y146.601 E6.40862
G1 X173.384 Y147.731 E6.45388
G1 X173.4 Y148.44 E6.48219
G1 X173.399 Y151.296 E6.59618
G1 X173.387 Y152.076 E6.62731
G1 X173.327 Y153.086 E6.6677
G1 X173.175 Y154.083 E6.70795
G1 X172.936 Y155.063 E6.74821
G1 X172.612 Y156.02 E6.78853
G1 X172.205 Y156.943 E6.8288
G1 X171.719 Y157.824 E6.86895
G1 X171.197 Y158.605 E6.90645
G1 X170.52 Y159.445 E6.94951
G1 X169.895 Y160.096 E6.98552
G1 X169.052 Y160.831 E7.03016
G1 X168.262 Y161.401 E7.06904
G1 X167.363 Y161.935 E7.11078
G1 X166.485 Y162.357 E7.14966
G1 X165.508 Y162.723 E7.1913
G1 X164.534 Y162.992 E7.23163
G1 X163.53 Y163.176 E7.27237
G1 X162.379 Y163.274 E7.31847
G1 X161.67 Y163.29 E7.34678
G1 X156.236 Y163.289 E7.56366
G1 X154.328 Y163.263 E7.63982
G1 X154.08 Y163.268 E7.64972
G1 X153.016 Y163.25 E7.69219
G1 X149.924 Y163.29 E7.81561
G1 X144.542 Y163.289 E8.03042
G1 X143.792 Y163.276 E8.06036
G1 X142.784 Y163.213 E8.10067
G1 X141.786 Y163.061 E8.14096
G1 X140.806 Y162.82 E8.18124
G1 X139.886 Y162.508 E8.22001
G1 X138.994 Y162.118 E8.25887
G1 X138.049 Y161.597 E8.30194
G1 X137.298 Y161.095 E8.33799
G1 X136.426 Y160.391 E8.38272
G1 X135.704 Y159.687 E8.42297
G1 X135.047 Y158.923 E8.46319
G1 X134.457 Y158.104 E8.50347
G1 X133.995 Y157.328 E8.53952
G1 X133.51 Y156.321 E8.58413
G1 X133.17 Y155.41 E8.62294
G1 X132.901 Y154.437 E8.66323
G1 X132.711 Y153.396 E8.70546
G1 X132.614 Y152.207 E8.75308
G1 X132.6 Y151.548 E8.77939
G1 X132.601 Y148.629 E8.89589
G1 X132.613 Y147.911 E8.92455
G1 X132.675 Y146.902 E8.9649
G1 X132.827 Y145.905 E9.00515
G1 X133.067 Y144.925 E9.04542
G1 X133.393 Y143.969 E9.08573
G1 X133.801 Y143.047 E9.12597
G1 X134.289 Y142.164 E9.16624
G1 X134.852 Y141.328 E9.20647
G1 X135.443 Y140.597 E9.24399
G1 X136.194 Y139.821 E9.28709
G0 F4200 X136.456 Y140.123
G1 F900 X137.192 Y139.486 E9.32594
G1 X137.924 Y138.956 E9.36201
G1 X138.821 Y138.421 E9.40369
G1 X139.699 Y138 E9.44256
G1 X140.612 Y137.658 E9.48147
G1 X141.549 Y137.399 E9.52027
G1 X142.516 Y137.221 E9.55951
G1 X143.655 Y137.125 E9.60513
G1 X144.312 Y137.11 E9.63136
G1 X149.62 Y137.11 E9.84322
G1 X151.652 Y137.138 E9.92432
G1 X151.913 Y137.132 E9.93474
G1 X152.982 Y137.15 E9.97742
G1 X156.076 Y137.11 E10.10092
G1 X161.451 Y137.111 E10.31544
G1 X162.184 Y137.123 E10.3447
G1 X163.156 Y137.182 E10.38357
G1 X164.119 Y137.328 E10.42244
G1 X165.066 Y137.559 E10.46135
G1 X165.954 Y137.859 E10.49876
G1 X166.846 Y138.249 E10.53761
G1 X167.729 Y138.736 E10.57786
G1 X168.48 Y139.238 E10.61392
G1 X169.295 Y139.896 E10.65572
G1 X169.993 Y140.574 E10.69456
G1 X170.629 Y141.311 E10.73341
G1 X171.199 Y142.101 E10.77229
G1 X171.661 Y142.877 E10.80834
G1 X172.115 Y143.819 E10.85008
G1 X172.444 Y144.697 E10.8875
G1 X172.713 Y145.669 E10.92775
G1 X172.89 Y146.635 E10.96695
G1 X172.985 Y147.765 E11.01221
G1 X173 Y148.44 E11.03916
G1 X172.999 Y151.29 E11.1529
G1 X172.988 Y152.053 E11.18336
G1 X172.931 Y153.026 E11.22226
G1 X172.786 Y153.989 E11.26113
G1 X172.557 Y154.935 E11.29998
G1 X172.246 Y155.859 E11.33889
G1 X171.854 Y156.75 E11.37774
G1 X171.386 Y157.602 E11.41654
G1 X170.864 Y158.383 E11.45403
G1 X170.231 Y159.168 E11.49428
G1 X169.606 Y159.819 E11.5303
G1 X168.817 Y160.507 E11.57208
G1 X168.057 Y161.057 E11.60952
G1 X167.19 Y161.574 E11.64981
G1 X166.312 Y161.996 E11.68869
G1 X165.401 Y162.338 E11.72753
G1 X164.462 Y162.599 E11.76643
G1 X163.496 Y162.777 E11.80563
G1 X162.345 Y162.875 E11.85174
G1 X161.67 Y162.89 E11.87869
G1 X156.241 Y162.889 E12.09537
G1 X154.325 Y162.863 E12.17185
G1 X154.087 Y162.868 E12.18135
G1 X153.018 Y162.85 E12.22402
G1 X149.924 Y162.89 E12.34752
G1 X144.549 Y162.889 E12.56205
G1 X143.816 Y162.877 E12.59131
G1 X142.844 Y162.818 E12.63017
G1 X141.881 Y162.672 E12.66905
G1 X140.934 Y162.441 E12.70795
G1 X140.046 Y162.141 E12.74536
G1 X139.154 Y161.751 E12.78422
G1 X138.271 Y161.264 E12.82447
G1 X137.52 Y160.762 E12.86052
G1 X136.705 Y160.104 E12.90233
G1 X136.007 Y159.426 E12.94116
G1 X135.371 Y158.689 E12.98002
G1 X134.801 Y157.899 E13.0189
G1 X134.339 Y157.123 E13.05494
G1 X133.885 Y156.181 E13.09668
G1 X133.556 Y155.303 E13.1341
G1 X133.287 Y154.33 E13.17439
G1 X133.11 Y153.363 E13.21363
G1 X133.014 Y152.198 E13.26029
G1 X133 Y151.548 E13.28623
G1 X133.001 Y148.635 E13.4025
G1 X133.012 Y147.935 E13.43044
G1 X133.07 Y146.962 E13.46934
G1 X133.216 Y145.999 E13.50822
G1 X133.446 Y145.053 E13.54707
G1 X133.759 Y144.13 E13.58597
G1 X134.151 Y143.24 E13.62479
G1 X134.621 Y142.387 E13.66366
G1 X135.164 Y141.579 E13.70251
G1 X135.731 Y140.875 E13.73859
G1 X136.456 Y140.123 E13.78028
G0 F4200 X136.718 Y140.425
G1 F900 X137.427 Y139.81 E13.81774
G1 X138.159 Y139.28 E13.85381
G1 X138.995 Y138.781 E13.89267
G1 X139.84 Y138.374 E13.93011
G1 X140.719 Y138.043 E13.96759
G1 X141.622 Y137.792 E14.005
G1 X142.55 Y137.62 E14.04267
G1 X143.689 Y137.524 E14.08829
G1 X144.321 Y137.51 E14.11352
G1 X149.615 Y137.51 E14.32482
G1 X151.657 Y137.538 E14.40633
G1 X151.906 Y137.532 E14.41627
G1 X152.98 Y137.55 E14.45914
G1 X156.076 Y137.51 E14.58272
G1 X161.445 Y137.511 E14.79701
G1 X162.16 Y137.522 E14.82555
G1 X163.097 Y137.578 E14.86301
G1 X164.025 Y137.717 E14.90046
G1 X164.938 Y137.938 E14.93795
G1 X165.794 Y138.226 E14.974
G1 X166.686 Y138.616 E15.01286
G1 X167.507 Y139.069 E15.05028
G1 X168.258 Y139.571 E15.08634
G1 X169.017 Y140.183 E15.12525
G1 X169.691 Y140.836 E15.16271
G1 X170.305 Y141.545 E15.20014
G1 X170.855 Y142.306 E15.23761
G1 X171.317 Y143.082 E15.27366
G1 X171.74 Y143.959 E15.31252
G1 X172.069 Y144.837 E15.34994
G1 X172.32 Y145.742 E15.38743
G1 X172.491 Y146.669 E15.42505
G1 X172.586 Y147.799 E15.47031
G1 X172.6 Y148.44 E15.4959
G1 X172.599 Y151.285 E15.60945
G1 X172.589 Y152.03 E15.63919
G1 X172.535 Y152.967 E15.67665
G1 X172.397 Y153.896 E15.71413
G1 X172.178 Y154.808 E15.75157
G1 X171.88 Y155.698 E15.78903
G1 X171.503 Y156.558 E15.82651
G1 X171.053 Y157.38 E15.86391
G1 X170.531 Y158.161 E15.9014
G1 X169.942 Y158.891 E15.93884
G1 X169.317 Y159.542 E15.97486
G1 X168.582 Y160.183 E16.01378
G1 X167.822 Y160.733 E16.05122
G1 X167.016 Y161.214 E16.08869
G1 X166.171 Y161.622 E16.12614
G1 X165.293 Y161.953 E16.16359
G1 X164.389 Y162.206 E16.20105
G1 X163.462 Y162.378 E16.23868
G1 X162.311 Y162.476 E16.28479
G1 X161.67 Y162.49 E16.31038
G1 X156.246 Y162.489 E16.52686
G1 X154.321 Y162.463 E16.6037
G1 X154.094 Y162.468 E16.61276
G1 X153.02 Y162.45 E16.65564
G1 X149.924 Y162.49 E16.77921
G1 X144.555 Y162.489 E16.9935
G1 X143.84 Y162.478 E17.02204
G1 X142.903 Y162.422 E17.05951
G1 X141.975 Y162.283 E17.09696
G1 X141.062 Y162.062 E17.13445
G1 X140.206 Y161.774 E17.1705
G1 X139.314 Y161.384 E17.20935
G1 X138.493 Y160.931 E17.24678
G1 X137.742 Y160.429 E17.28283
G1 X136.983 Y159.817 E17.32175
G1 X136.309 Y159.164 E17.3592
G1 X135.695 Y158.455 E17.39664
G1 X135.145 Y157.694 E17.43411
G1 X134.683 Y156.918 E17.47016
G1 X134.26 Y156.041 E17.50902
G1 X133.931 Y155.163 E17.54644
G1 X133.68 Y154.258 E17.58392
G1 X133.509 Y153.33 E17.62159
G1 X133.413 Y152.165 E17.66824
G1 X133.4 Y151.548 E17.69287
G1 X133.401 Y148.641 E17.8089
G1 X133.411 Y147.958 E17.83616
G1 X133.466 Y147.021 E17.87362
G1 X133.605 Y146.093 E17.91107
G1 X133.825 Y145.181 E17.94852
G1 X134.125 Y144.291 E17.986
G1 X134.502 Y143.432 E18.02345
G1 X134.953 Y142.61 E18.06087
G1 X135.476 Y141.83 E18.09835
G1 X136.043 Y141.126 E18.13443
G1 X136.718 Y140.425 E18.17327
G0 F4200 X136.981 Y140.727
G1 F900 X137.662 Y140.134 E18.20931
G1 X138.394 Y139.604 E18.24538
G1 X139.169 Y139.141 E18.28141
G1 X139.982 Y138.748 E18.31745
G1 X140.827 Y138.428 E18.35351
G1 X141.696 Y138.185 E18.38953
G1 X142.584 Y138.019 E18.42558
G1 X143.723 Y137.923 E18.4712
G1 X144.33 Y137.91 E18.49544
G1 X149.61 Y137.91 E18.70617
G1 X151.662 Y137.938 E18.78808
G1 X151.899 Y137.932 E18.79754
G1 X152.978 Y137.95 E18.84061
G1 X156.076 Y137.91 E18.96427
G1 X161.439 Y137.911 E19.17832
G1 X162.137 Y137.921 E19.20618
G1 X163.039 Y137.974 E19.24225
G1 X163.932 Y138.106 E19.27827
G1 X164.81 Y138.317 E19.31431
G1 X165.666 Y138.605 E19.35036
G1 X166.493 Y138.967 E19.38639
G1 X167.285 Y139.402 E19.42246
G1 X168.036 Y139.904 E19.45851
G1 X168.739 Y140.471 E19.49456
G1 X169.389 Y141.098 E19.5306
G1 X169.981 Y141.78 E19.56665
G1 X170.511 Y142.511 E19.60269
G1 X170.973 Y143.287 E19.63873
G1 X171.366 Y144.1 E19.67477
G1 X171.684 Y144.945 E19.71081
G1 X171.927 Y145.815 E19.74686
G1 X172.092 Y146.703 E19.78291
G1 X172.187 Y147.833 E19.82817
G1 X172.2 Y148.44 E19.8524
G1 X172.199 Y151.28 E19.96575
G1 X172.19 Y152.007 E19.99477
G1 X172.139 Y152.909 E20.03083
G1 X172.008 Y153.803 E20.06689
G1 X171.799 Y154.681 E20.10291
G1 X171.513 Y155.538 E20.13897
G1 X171.152 Y156.366 E20.17502
G1 X170.72 Y157.158 E20.21103
G1 X170.219 Y157.91 E20.24709
G1 X169.653 Y158.614 E20.28315
G1 X169.028 Y159.265 E20.31917
G1 X168.347 Y159.859 E20.35523
G1 X167.616 Y160.39 E20.39129
G1 X166.842 Y160.854 E20.42731
G1 X166.029 Y161.248 E20.46337
G1 X165.185 Y161.568 E20.4994
G1 X164.315 Y161.813 E20.53547
G1 X163.428 Y161.979 E20.57149
G1 X162.277 Y162.077 E20.61759
G1 X161.67 Y162.09 E20.64182
G1 X156.251 Y162.089 E20.85811
G1 X154.317 Y162.063 E20.93531
G1 X154.101 Y162.068 E20.94393
G1 X153.022 Y162.05 E20.987
G1 X149.924 Y162.09 E21.11066
G1 X144.561 Y162.089 E21.32471
G1 X143.863 Y162.079 E21.35257
G1 X142.961 Y162.026 E21.38863
G1 X142.068 Y161.894 E21.42466
G1 X141.19 Y161.683 E21.4607
G1 X140.334 Y161.395 E21.49675
G1 X139.507 Y161.033 E21.53278
G1 X138.715 Y160.598 E21.56884
G1 X137.964 Y160.096 E21.6049
G1 X137.261 Y159.529 E21.64094
G1 X136.611 Y158.902 E21.67699
G1 X136.019 Y158.22 E21.71303
G1 X135.489 Y157.489 E21.74907
G1 X135.027 Y156.713 E21.78512
G1 X134.634 Y155.9 E21.82116
G1 X134.316 Y155.055 E21.85719
G1 X134.073 Y154.185 E21.89325
G1 X133.908 Y153.297 E21.92929
G1 X133.813 Y152.156 E21.97499
G1 X133.8 Y151.548 E21.99926
G1 X133.801 Y148.646 E22.11509
G1 X133.81 Y147.981 E22.14163
G1 X133.862 Y147.079 E22.17769
G1 X133.994 Y146.186 E22.21372
G1 X134.204 Y145.308 E22.24975
G1 X134.491 Y144.451 E22.28583
G1 X134.853 Y143.624 E22.32186
G1 X135.286 Y142.832 E22.35788
G1 X135.788 Y142.081 E22.39394
G1 X136.355 Y141.377 E22.43001
G1 X136.981 Y140.727 E22.46603
G1 F2700 E17.46603
;MESH:button.SLDPRT
G0 F4200 X144.414 Y147.445
G0 X144.414 Y148.524
G0 X148.286 Y149.282
G0 X148.459 Y150.89
;TYPE:WALL-INNER
G1 F2700 E22.46603
G1 F900 X148.458 Y149.11 E22.53708
G1 X145 Y149.11 E22.67509
G1 X145 Y150.89 E22.74614
G1 X148.459 Y150.89 E22.88419
G0 F4200 X148.859 Y151.29
G1 F900 X148.858 Y148.71 E22.98717
G1 X144.6 Y148.71 E23.15711
G1 X144.6 Y151.29 E23.26008
G1 X148.859 Y151.29 E23.43007
G0 F4200 X149.259 Y151.69
;TYPE:WALL-OUTER
G1 F900 X149.258 Y148.31 E23.56497
G1 X144.2 Y148.31 E23.76685
G1 X144.2 Y151.69 E23.90175
G1 X149.259 Y151.69 E24.10367
G0 F4200 X148.989 Y151.42
G0 X148.359 Y150.53
G0 X148.099 Y150.53
;TYPE:SKIN
G1 F900 X145.36 Y150.53 E24.21299
G1 X145.36 Y149.47 E24.25529
G1 X148.098 Y149.47 E24.36457
G1 X148.099 Y150.53 E24.40688
G0 F4200 X148.359 Y150.53
G0 X148.286 Y149.282
G0 X147.407 Y149.21
G0 X147.407 Y149.669
G1 F900 X147.899 Y150.161 E24.43465
G0 F4200 X147.5 Y150.328
G1 F900 X146.841 Y149.669 E24.47185
G0 F4200 X146.275 Y149.669
G1 F900 X146.934 Y150.328 E24.50905
G0 F4200 X146.368 Y150.328
