;FLAVOR:Marlin
;TIME:12776
;Filament used: 6.47125m
;Layer height: 0.2
;MINX:115.519
;MINY:41.803
;MINZ:0.28
;MAXX:204.632
;MAXY:255.18
;MAXZ:45.15
;TARGET_MACHINE.NAME:Creality CR-10S Pro
;Generated with Cura_SteamEngine 5.6.0
M82 ;absolute extrusion mode
M201 X500.00 Y500.00 Z100.00 E5000.00 ;Setup machine max acceleration
M203 X500.00 Y500.00 Z10.00 E50.00 ;Setup machine max feedrate
M204 P500.00 R1000.00 T500.00 ;Setup Print/Retract/Travel acceleration
M205 X8.00 Y8.00 Z0.40 E5.00 ;Setup Jerk
M220 S100 ;Reset Feedrate
M221 S100 ;Reset Flowrate

;*** Start Dual Nozzle/Bed Preheating ***
M140 S70 ; start preheating the bed
M104 S215.0 ﻿T0 ; start preheating hotend
M190 S70 ; heat to Cura Bed setting
M109 S215.0 ﻿T0 ; heat to Cura Hotend
;*** End Preheating ***

G28 ;Home
G29 ;Auto bed Level

G92 E0 ;Reset Extruder
G1 Z2.0 F3000 ;Move Z Axis up
G1 X10.1 Y20 Z0.28 F5000.0 ;Move to start position
G1 X10.1 Y200.0 Z0.28 F1500.0 E15 ;Draw the first line
G1 X10.4 Y200.0 Z0.28 F5000.0 ;Move to side a little
G1 X10.4 Y20 Z0.28 F1500.0 E30 ;Draw the second line
G92 E0 ;Reset Extruder
G1 Z2.0 F3000 ;Move Z Axis up
G92 E0
G92 E0
G1 F2700 E-5
;LAYER_COUNT:171
;LAYER:0
M107
G0 F6000 X118.852 Y48.86 Z0.28
;TYPE:SKIRT
G1 F2700 E0
G1 F600 X119.226 Y48 E0.04367
G1 X119.709 Y47.114 E0.09066
G1 X120.248 Y46.304 E0.13596
G1 X120.812 Y45.598 E0.17804
G1 X121.535 Y44.843 E0.22671
G1 X122.269 Y44.204 E0.27203
G1 X123.058 Y43.631 E0.31743
G1 X123.894 Y43.131 E0.36279
G1 X124.771 Y42.707 E0.40815
G1 X125.681 Y42.363 E0.45345
G1 X126.619 Y42.1 E0.49881
G1 X127.587 Y41.919 E0.54467
G1 X128.763 Y41.818 E0.59963
G1 X129.42 Y41.803 E0.63023
G1 X186.712 Y41.803 E3.29799
G1 X187.592 Y41.816 E3.33897
G1 X188.564 Y41.875 E3.38431
G1 X189.527 Y42.021 E3.42966
G1 X190.474 Y42.252 E3.47505
G1 X191.362 Y42.552 E3.5187
G1 X192.254 Y42.942 E3.56403
G1 X193.137 Y43.429 E3.61098
G1 X193.888 Y43.931 E3.65305
G1 X194.703 Y44.589 E3.70182
G1 X195.401 Y45.267 E3.74713
G1 X196.037 Y46.004 E3.79246
G1 X196.607 Y46.794 E3.83782
G1 X197.069 Y47.57 E3.87988
G1 X197.523 Y48.512 E3.92857
G1 X197.852 Y49.39 E3.97223
G1 X198.125 Y50.376 E4.01987
G1 X198.335 Y51.634 E4.07926
G1 X198.552 Y53.723 E4.17705
G1 X198.882 Y56.288 E4.29747
G1 X199.268 Y58.75 E4.41351
G1 X199.735 Y61.255 E4.53217
G1 X200.34 Y64.073 E4.66638
G1 X200.505 Y65.042 E4.71215
G1 X200.59 Y66.22 E4.76714
G1 X200.603 Y67.012 E4.80402
G1 X200.607 Y69.13 E4.90265
G1 X200.595 Y70.002 E4.94326
G1 X200.535 Y70.983 E4.98902
G1 X200.343 Y72.181 E5.04552
G1 X200.253 Y72.586 E5.06483
G1 X199.995 Y73.544 E5.11103
G1 X199.672 Y74.425 E5.15473
G1 X199.243 Y75.337 E5.20166
G1 X198.753 Y76.176 E5.2469
G1 X198.253 Y76.888 E5.28741
G1 X197.977 Y77.247 E5.3085
G1 X197.349 Y77.992 E5.35387
G1 X196.659 Y78.678 E5.39917
G1 X195.897 Y79.31 E5.44527
G1 X194.788 Y80.049 E5.50733
G1 X194.433 Y80.254 E5.52641
G1 X193.567 Y80.701 E5.57179
G1 X192.701 Y81.056 E5.61537
G1 X191.746 Y81.358 E5.66201
G1 X190.799 Y81.586 E5.70737
G1 X189.906 Y81.721 E5.74942
G1 X188.908 Y81.784 E5.79599
G1 X187.76 Y81.8 E5.84945
G1 X186.992 Y81.789 E5.88521
G1 X186.018 Y81.732 E5.93065
G1 X185.068 Y81.591 E5.97537
G1 X182.319 Y81.047 E6.10585
G1 X179.858 Y80.634 E6.22205
G1 X177.415 Y80.295 E6.3369
G1 X174.85 Y80.011 E6.45706
G1 X172.329 Y79.803 E6.57485
G1 X169.903 Y79.675 E6.68797
G1 X166.238 Y79.603 E6.85866
G1 X150.402 Y79.603 E7.59605
G1 X147.819 Y79.64 E7.71634
G1 X145.253 Y79.749 E7.83593
G1 X142.774 Y79.925 E7.95166
G1 X140.273 Y80.172 E8.06868
G1 X137.765 Y80.493 E8.18641
G1 X135.352 Y80.872 E8.30015
G1 X131.545 Y81.601 E8.48064
G1 X130.651 Y81.731 E8.52271
G1 X129.647 Y81.79 E8.56954
G1 X128.421 Y81.802 E8.62663
G1 X127.715 Y81.791 E8.65951
G1 X126.734 Y81.731 E8.70527
G1 X125.541 Y81.539 E8.76154
G1 X125.122 Y81.446 E8.78152
G1 X124.166 Y81.188 E8.82763
G1 X123.25 Y80.852 E8.87306
G1 X122.37 Y80.437 E8.91837
G1 X121.531 Y79.946 E8.96363
G1 X120.817 Y79.445 E9.00425
G1 X120.479 Y79.185 E9.02411
G1 X119.735 Y78.558 E9.06941
G1 X119.096 Y77.92 E9.11146
G1 X118.421 Y77.111 E9.16052
G1 X117.757 Y76.132 E9.2156
G1 X117.485 Y75.677 E9.24028
G1 X117.025 Y74.82 E9.28558
G1 X116.641 Y73.926 E9.33088
G1 X116.357 Y73.068 E9.37296
G1 X116.119 Y72.051 E9.4216
G1 X115.991 Y71.157 E9.46365
G1 X115.936 Y70.272 E9.50494
G1 X115.912 Y68.999 E9.56423
G1 X115.909 Y67.202 E9.6479
G1 X115.921 Y66.323 E9.68884
G1 X115.981 Y65.343 E9.73456
G1 X116.165 Y64.185 E9.78915
G1 X116.444 Y62.891 E9.85079
G1 X116.499 Y62.593 E9.8649
G1 X116.812 Y61.132 E9.93448
G1 X117.273 Y58.631 E10.0529
G1 X117.653 Y56.184 E10.1682
G1 X118.098 Y52.466 E10.34257
G1 X118.174 Y51.694 E10.37869
G1 X118.31 Y50.765 E10.42241
G1 X118.543 Y49.783 E10.4694
G1 X118.852 Y48.86 E10.51473
G0 F6000 X119.219 Y49.02
G1 F600 X119.593 Y48.16 E10.55839
G1 X120.042 Y47.335 E10.60213
G1 X120.561 Y46.554 E10.64579
G1 X121.125 Y45.848 E10.68787
G1 X121.798 Y45.144 E10.73322
G1 X122.505 Y44.527 E10.77692
G1 X123.264 Y43.974 E10.82064
G1 X124.069 Y43.491 E10.86436
G1 X124.913 Y43.081 E10.90805
G1 X125.79 Y42.748 E10.95173
G1 X126.693 Y42.493 E10.99542
G1 X127.621 Y42.318 E11.0394
G1 X128.797 Y42.217 E11.09436
G1 X129.429 Y42.203 E11.12379
G1 X186.706 Y42.203 E13.79085
G1 X187.568 Y42.215 E13.83099
G1 X188.505 Y42.271 E13.8747
G1 X189.433 Y42.41 E13.91839
G1 X190.346 Y42.631 E13.96213
G1 X191.202 Y42.919 E14.00419
G1 X192.094 Y43.309 E14.04952
G1 X192.915 Y43.762 E14.09318
G1 X193.666 Y44.264 E14.13525
G1 X194.425 Y44.876 E14.18065
G1 X195.099 Y45.529 E14.22434
G1 X195.713 Y46.238 E14.26802
G1 X196.263 Y46.999 E14.31174
G1 X196.725 Y47.775 E14.35379
G1 X197.148 Y48.652 E14.39913
G1 X197.477 Y49.53 E14.44279
G1 X197.73 Y50.442 E14.48686
G1 X197.94 Y51.7 E14.54625
G1 X198.155 Y53.774 E14.64334
G1 X198.485 Y56.339 E14.76376
G1 X198.875 Y58.823 E14.88084
G1 X199.344 Y61.339 E15.00002
G1 X199.946 Y64.141 E15.13347
G1 X200.106 Y65.071 E15.17741
G1 X200.19 Y66.227 E15.23138
G1 X200.203 Y67.013 E15.26798
G1 X200.207 Y69.125 E15.36633
G1 X200.196 Y69.978 E15.40605
G1 X200.14 Y70.92 E15.44999
G1 X199.952 Y72.095 E15.5054
G1 X199.867 Y72.482 E15.52385
G1 X199.619 Y73.406 E15.5684
G1 X199.296 Y74.287 E15.61209
G1 X198.897 Y75.136 E15.65577
G1 X198.426 Y75.946 E15.6994
G1 X197.935 Y76.645 E15.73918
G1 X197.671 Y76.99 E15.75941
G1 X197.067 Y77.709 E15.80313
G1 X196.403 Y78.371 E15.84679
G1 X195.675 Y78.977 E15.8909
G1 X194.587 Y79.703 E15.9518
G1 X194.249 Y79.899 E15.97
G1 X193.415 Y80.331 E16.01373
G1 X192.58 Y80.675 E16.05578
G1 X191.652 Y80.969 E16.10111
G1 X190.739 Y81.19 E16.14485
G1 X189.846 Y81.325 E16.18691
G1 X188.902 Y81.384 E16.23095
G1 X187.765 Y81.4 E16.2839
G1 X187.015 Y81.39 E16.31882
G1 X186.077 Y81.336 E16.36257
G1 X185.127 Y81.195 E16.40729
G1 X182.397 Y80.655 E16.53688
G1 X179.913 Y80.238 E16.65416
G1 X177.459 Y79.897 E16.76953
G1 X174.891 Y79.613 E16.88983
G1 X172.362 Y79.405 E17.00799
G1 X169.911 Y79.275 E17.12228
G1 X166.246 Y79.203 E17.29297
G1 X150.396 Y79.203 E18.03101
G1 X147.802 Y79.24 E18.15181
G1 X145.236 Y79.349 E18.2714
G1 X142.743 Y79.526 E18.38778
G1 X140.222 Y79.775 E18.50574
G1 X137.714 Y80.096 E18.62348
G1 X135.277 Y80.479 E18.73835
G1 X131.487 Y81.205 E18.91803
G1 X130.593 Y81.335 E18.9601
G1 X129.643 Y81.39 E19.00441
G1 X128.427 Y81.402 E19.06103
G1 X127.739 Y81.392 E19.09307
G1 X126.797 Y81.336 E19.13701
G1 X125.627 Y81.148 E19.19219
G1 X125.226 Y81.06 E19.21131
G1 X124.303 Y80.812 E19.25581
G1 X123.42 Y80.49 E19.29958
G1 X122.571 Y80.091 E19.34326
G1 X121.761 Y79.619 E19.38691
G1 X121.06 Y79.127 E19.42679
G1 X120.736 Y78.879 E19.44579
G1 X120.018 Y78.275 E19.48948
G1 X119.379 Y77.637 E19.53153
G1 X118.752 Y76.886 E19.57708
G1 X118.1 Y75.926 E19.63112
G1 X117.837 Y75.487 E19.65495
G1 X117.392 Y74.662 E19.69859
G1 X117.021 Y73.8 E19.74229
G1 X116.737 Y72.942 E19.78438
G1 X116.515 Y71.994 E19.82971
G1 X116.387 Y71.1 E19.87177
G1 X116.336 Y70.264 E19.91077
G1 X116.312 Y68.998 E19.96973
G1 X116.309 Y67.207 E20.05312
G1 X116.32 Y66.347 E20.09317
G1 X116.376 Y65.406 E20.13707
G1 X116.556 Y64.269 E20.19067
G1 X116.835 Y62.975 E20.25231
G1 X116.89 Y62.677 E20.26642
G1 X117.203 Y61.216 E20.33599
G1 X117.666 Y58.703 E20.45498
G1 X118.048 Y56.245 E20.57081
G1 X118.495 Y52.514 E20.74578
G1 X118.57 Y51.752 E20.78143
G1 X118.706 Y50.823 E20.82515
G1 X118.922 Y49.91 E20.86884
G1 X119.219 Y49.02 E20.91253
G0 F6000 X119.586 Y49.179
G1 F600 X119.945 Y48.35 E20.95459
G1 X120.375 Y47.556 E20.99664
G1 X120.874 Y46.804 E21.03866
G1 X121.438 Y46.098 E21.08074
G1 X122.062 Y45.445 E21.1228
G1 X122.741 Y44.85 E21.16484
G1 X123.471 Y44.317 E21.20692
G1 X124.244 Y43.851 E21.24895
G1 X125.056 Y43.455 E21.29102
G1 X125.899 Y43.133 E21.33304
G1 X126.768 Y42.886 E21.37511
G1 X127.655 Y42.717 E21.41715
G1 X128.831 Y42.616 E21.47211
G1 X129.438 Y42.603 E21.50038
G1 X186.701 Y42.603 E24.16679
G1 X187.545 Y42.614 E24.20609
G1 X188.447 Y42.667 E24.24817
G1 X189.34 Y42.799 E24.2902
G1 X190.218 Y43.01 E24.33225
G1 X191.074 Y43.298 E24.3743
G1 X191.901 Y43.66 E24.41634
G1 X192.693 Y44.095 E24.45841
G1 X193.444 Y44.597 E24.50048
G1 X194.147 Y45.164 E24.54253
G1 X194.797 Y45.791 E24.58458
G1 X195.389 Y46.473 E24.62664
G1 X195.919 Y47.204 E24.66868
G1 X196.381 Y47.98 E24.71073
G1 X196.774 Y48.793 E24.75278
G1 X197.092 Y49.638 E24.79482
G1 X197.335 Y50.508 E24.83688
G1 X197.545 Y51.766 E24.89627
G1 X197.758 Y53.825 E24.99266
G1 X198.088 Y56.39 E25.11308
G1 X198.482 Y58.896 E25.2312
G1 X198.953 Y61.421 E25.35081
G1 X199.298 Y63.058 E25.42871
G1 X199.552 Y64.21 E25.48364
G1 X199.707 Y65.1 E25.5257
G1 X199.79 Y66.234 E25.57865
G1 X199.803 Y67.014 E25.61497
G1 X199.807 Y69.12 E25.71304
G1 X199.797 Y69.955 E25.75192
G1 X199.745 Y70.857 E25.79399
G1 X199.561 Y72.009 E25.84831
G1 X199.476 Y72.396 E25.86676
G1 X199.243 Y73.269 E25.90884
G1 X198.934 Y74.117 E25.95086
G1 X198.551 Y74.935 E25.99292
G1 X198.098 Y75.716 E26.03496
G1 X197.617 Y76.402 E26.07397
G1 X197.364 Y76.733 E26.09337
G1 X196.784 Y77.426 E26.13545
G1 X196.146 Y78.064 E26.17747
G1 X195.453 Y78.644 E26.21955
G1 X194.365 Y79.37 E26.28045
G1 X194.064 Y79.544 E26.29664
G1 X193.263 Y79.961 E26.33869
G1 X192.428 Y80.305 E26.38074
G1 X191.557 Y80.58 E26.42327
G1 X190.679 Y80.794 E26.46535
G1 X189.786 Y80.929 E26.50741
G1 X188.896 Y80.984 E26.54893
G1 X187.77 Y81 E26.60136
G1 X187.038 Y80.991 E26.63545
G1 X186.136 Y80.94 E26.67752
G1 X185.186 Y80.799 E26.72224
G1 X182.475 Y80.263 E26.85092
G1 X179.968 Y79.842 E26.96929
G1 X177.503 Y79.499 E27.08518
G1 X174.932 Y79.215 E27.20562
G1 X172.395 Y79.007 E27.32415
G1 X169.919 Y78.875 E27.43961
G1 X166.254 Y78.803 E27.6103
G1 X150.39 Y78.803 E28.34899
G1 X147.785 Y78.84 E28.4703
G1 X145.219 Y78.949 E28.5899
G1 X142.712 Y79.127 E28.70693
G1 X140.171 Y79.378 E28.82582
G1 X137.663 Y79.699 E28.94356
G1 X135.202 Y80.086 E29.05956
G1 X131.429 Y80.809 E29.23844
G1 X130.535 Y80.939 E29.28051
G1 X129.639 Y80.99 E29.3223
G1 X128.432 Y81.002 E29.3785
G1 X127.762 Y80.993 E29.40971
G1 X126.86 Y80.941 E29.45178
G1 X125.713 Y80.757 E29.50587
G1 X125.312 Y80.669 E29.52498
G1 X124.439 Y80.436 E29.56706
G1 X123.59 Y80.128 E29.60911
G1 X122.772 Y79.745 E29.65117
G1 X121.991 Y79.292 E29.69321
G1 X121.303 Y78.809 E29.73235
G1 X120.993 Y78.572 E29.75052
G1 X120.301 Y77.992 E29.79257
G1 X119.662 Y77.354 E29.83461
G1 X119.083 Y76.661 E29.87666
G1 X118.443 Y75.72 E29.92965
G1 X118.189 Y75.297 E29.95263
G1 X117.759 Y74.503 E29.99467
G1 X117.401 Y73.674 E30.03672
G1 X117.117 Y72.816 E30.07881
G1 X116.911 Y71.937 E30.12085
G1 X116.783 Y71.043 E30.1629
G1 X116.736 Y70.256 E30.19961
G1 X116.712 Y68.997 E30.25824
G1 X116.709 Y67.212 E30.34136
G1 X116.719 Y66.37 E30.38057
G1 X116.771 Y65.468 E30.42264
G1 X116.947 Y64.353 E30.4752
G1 X117.226 Y63.059 E30.53684
G1 X117.281 Y62.761 E30.55095
G1 X117.594 Y61.3 E30.62053
G1 X118.059 Y58.775 E30.74008
G1 X118.443 Y56.306 E30.85643
G1 X118.892 Y52.562 E31.03201
G1 X118.966 Y51.809 E31.06724
G1 X119.095 Y50.915 E31.1093
G1 X119.302 Y50.036 E31.15135
G1 X119.586 Y49.179 E31.19339
G1 F2700 E26.19339
G0 F6000 X127.182 Y66.193
G1 F2700 E31.19339
G1 F600 X127.365 Y65.953 E31.20745
G1 X127.67 Y65.772 E31.22396
G1 X127.917 Y65.706 E31.23587
G1 X127.947 Y65.797 E31.24033
G1 X128.039 Y65.866 E31.24568
G1 X128.108 Y65.892 E31.24912
G1 X128.108 Y66.728 E31.28804
G1 X128.049 Y66.747 E31.29093
G1 X127.977 Y66.849 E31.29674
G1 X127.969 Y66.931 E31.30058
G1 X128.108 Y68.112 E31.35595
G1 X128.108 Y69.403 E31.41607
G1 X128.147 Y69.522 E31.4219
G1 X128.308 Y69.603 E31.43029
G1 X130.149 Y69.603 E31.51601
G1 X130.156 Y69.629 E31.51727
G1 X130.223 Y69.735 E31.52311
G1 X130.287 Y69.76 E31.52631
G1 X130.205 Y70.039 E31.53985
G1 X129.938 Y70.39 E31.56038
G1 X129.466 Y70.602 E31.58448
G1 X127.891 Y70.603 E31.65782
G1 X127.574 Y70.528 E31.67298
G1 X127.328 Y70.336 E31.68751
G1 X127.154 Y70.047 E31.70322
G1 X127.113 Y69.895 E31.71055
G1 X127.108 Y66.51 E31.86817
G1 X127.182 Y66.193 E31.88333
G0 F6000 X127.552 Y66.367
G1 F600 X127.636 Y66.258 E31.88974
G1 X127.708 Y66.214 E31.89367
G1 X127.708 Y66.538 E31.90875
G1 X127.634 Y66.634 E31.9144
G1 X127.572 Y66.843 E31.92455
G1 X127.572 Y66.978 E31.93084
G1 X127.708 Y68.133 E31.98499
G1 X127.708 Y69.403 E32.04413
G1 X127.748 Y69.618 E32.05431
G1 X127.861 Y69.804 E32.06444
G1 X128.034 Y69.937 E32.0746
G1 X128.308 Y70.003 E32.08773
G1 X129.729 Y70.003 E32.15389
G1 X129.681 Y70.067 E32.15762
G1 X129.38 Y70.202 E32.17298
G1 X127.936 Y70.203 E32.24022
G1 X127.751 Y70.159 E32.24907
G1 X127.633 Y70.067 E32.25604
G1 X127.526 Y69.888 E32.26575
G1 X127.513 Y69.841 E32.26802
G1 X127.508 Y66.554 E32.42108
G1 X127.552 Y66.367 E32.43002
G1 F2700 E27.43002
G0 F6000 X186.789 Y70.003
G1 F2700 E32.43002
G1 F600 X188.208 Y70.003 E32.4961
G1 X188.423 Y69.963 E32.50628
G1 X188.609 Y69.85 E32.51642
G1 X188.742 Y69.677 E32.52658
G1 X188.808 Y69.403 E32.5397
G1 X188.808 Y68.133 E32.59884
G1 X188.944 Y66.978 E32.65299
G1 X188.93 Y66.76 E32.66316
G1 X188.838 Y66.562 E32.67333
G1 X188.808 Y66.533 E32.67527
G1 X188.808 Y66.207 E32.69045
G1 X188.891 Y66.271 E32.69533
G1 X188.991 Y66.441 E32.70452
G1 X189.003 Y66.486 E32.70668
G1 X189.008 Y69.776 E32.85988
G1 X188.965 Y69.958 E32.86859
G1 X188.866 Y70.086 E32.87612
G1 X188.695 Y70.185 E32.88532
G1 X188.647 Y70.198 E32.88764
G1 X187.238 Y70.203 E32.95325
G1 X186.953 Y70.133 E32.96691
G1 X186.796 Y70.014 E32.97609
G1 X186.789 Y70.003 E32.9767
G0 F6000 X186.495 Y70.288
G1 F600 X186.287 Y69.958 E32.99486
G1 X186.318 Y69.901 E32.99788
G1 X186.338 Y69.849 E33.00047
G1 X186.393 Y69.603 E33.01221
G1 X188.208 Y69.603 E33.09673
G1 X188.327 Y69.564 E33.10256
G1 X188.408 Y69.403 E33.11095
G1 X188.408 Y68.112 E33.17106
G1 X188.547 Y66.931 E33.22644
G1 X188.522 Y66.809 E33.23223
G1 X188.429 Y66.725 E33.23807
G1 X188.408 Y66.721 E33.23907
G1 X188.408 Y65.918 E33.27646
G1 X188.472 Y65.896 E33.27961
G1 X188.572 Y65.821 E33.28543
G1 X188.6 Y65.731 E33.28982
G1 X188.937 Y65.802 E33.30585
G1 X189.197 Y66.002 E33.32113
G1 X189.364 Y66.286 E33.33647
G1 X189.403 Y66.434 E33.3436
G1 X189.408 Y69.819 E33.50122
G1 X189.334 Y70.135 E33.51633
G1 X189.135 Y70.391 E33.53143
G1 X188.846 Y70.56 E33.54702
G1 X188.702 Y70.598 E33.55395
G1 X187.188 Y70.603 E33.62445
G1 X186.779 Y70.503 E33.64405
G1 X186.495 Y70.288 E33.66064
G1 F2700 E28.66064
;MESH:body115710
G0 F6000 X186.495 Y67.458
G0 X186.408 Y66.878
;TYPE:WALL-INNER
G1 F2700 E33.66064
G1 F600 X186.408 Y53.804 E34.26942
G1 X130.109 Y53.804 E36.89094
G1 X130.109 Y66.878 E37.49972
G1 X186.408 Y66.878 E40.12124
G0 F6000 X186.808 Y67.278
G1 F600 X186.808 Y53.404 E40.76727
G1 X129.709 Y53.404 E43.42604
G1 X129.709 Y67.278 E44.07207
G1 X186.808 Y67.278 E46.73084
G0 F6000 X187.208 Y67.678
;TYPE:WALL-OUTER
G1 F600 X187.208 Y53.004 E47.41412
G1 X129.309 Y53.004 E50.11014
G1 X129.309 Y67.678 E50.79342
G1 X187.208 Y67.678 E53.48944
G0 F6000 X186.938 Y67.408
G0 X186.308 Y66.518
G0 X186.048 Y66.518
;TYPE:SKIN
G1 F600 X130.469 Y66.518 E56.07743
G1 X130.469 Y54.164 E56.65269
G1 X186.048 Y54.164 E59.24068
G1 X186.048 Y66.518 E59.81593
G0 F6000 X186.308 Y66.518
G0 X186.308 Y54.608
G0 X185.847 Y54.608
G1 F600 X185.603 Y54.364 E59.832
G0 F6000 X185.037 Y54.364
