;FLAVOR:Marlin
;TIME:3811
;Filament used: 1.17973m
;Layer height: 0.12
;MINX:116.801
;MINY:78.75
;MINZ:0.24
;MAXX:189.55
;MAXY:221.2
;MAXZ:19
;TARGET_MACHINE.NAME:Creality CR-10S Pro
;Generated with Cura_SteamEngine 5.6.0
M82 ;absolute extrusion mode
M201 X500.00 Y500.00 Z100.00 E5000.00 ;Setup machine max acceleration
M203 X500.00 Y500.00 Z10.00 E50.00 ;Setup machine max feedrate
M204 P500.00 R1000.00 T500.00 ;Setup Print/Retract/Travel acceleration
M205 X8.00 Y8.00 Z0.40 E5.00 ;Setup Jerk
M220 S100 ;Reset Feedrate
M221 S100 ;Reset Flowrate

;*** Start Dual Nozzle/Bed Preheating ***
M140 S70 ; start preheating the bed
M104 S215 ﻿T0 ; start preheating hotend
M190 S70 ; heat to Cura Bed setting
M109 S215 ﻿T0 ; heat to Cura Hotend
;*** End Preheating ***

G28 ;Home
G29 ;Auto bed Level

G92 E0 ;Reset Extruder
G1 Z2.0 F3000 ;Move Z Axis up
G1 X10.1 Y20 Z0.28 F5000.0 ;Move to start position
G1 X10.1 Y200.0 Z0.28 F1500.0 E15 ;Draw the first line
G1 X10.4 Y200.0 Z0.28 F5000.0 ;Move to side a little
G1 X10.4 Y20 Z0.28 F1500.0 E30 ;Draw the second line
G92 E0 ;Reset Extruder
G1 Z2.0 F3000 ;Move Z Axis up
G92 E0
G92 E0
G1 F2700 E-5
;LAYER_COUNT:93
;LAYER:0
M107
G0 F4200 X122.168 Y185.772 Z0.24
;TYPE:SKIRT
G1 F2700 E0
G1 F900 X123.062 Y185.201 E0.04234
G1 X123.985 Y184.719 E0.0839
G1 X124.818 Y184.369 E0.11996
G1 X125.949 Y184.011 E0.16731
G1 X126.967 Y183.785 E0.20893
G1 X127.863 Y183.666 E0.245
G1 X128.781 Y183.616 E0.2817
G1 X129.744 Y183.601 E0.32014
G1 X175.472 Y183.6 E2.14524
G1 X176.393 Y183.615 E2.182
G1 X177.436 Y183.682 E2.22372
G1 X178.467 Y183.84 E2.26535
G1 X179.468 Y184.087 E2.3065
G1 X180.796 Y184.563 E2.3628
G1 X181.197 Y184.739 E2.38028
G1 X182.134 Y185.205 E2.42205
G1 X183.021 Y185.75 E2.4636
G1 X183.861 Y186.373 E2.50534
G1 X184.59 Y187.018 E2.54419
G1 X185.338 Y187.809 E2.58764
G1 X186.072 Y188.748 E2.63521
G1 X186.286 Y189.057 E2.65021
G1 X186.842 Y189.94 E2.69186
G1 X187.288 Y190.806 E2.73074
G1 X187.708 Y191.838 E2.77521
G1 X188.013 Y192.838 E2.81694
G1 X188.228 Y193.859 E2.85858
G1 X188.352 Y194.876 E2.89947
G1 X188.384 Y195.583 E2.92772
G1 X188.399 Y196.54 E2.96592
G1 X188.4 Y208.243 E3.43301
G1 X188.385 Y209.182 E3.47049
G1 X188.319 Y210.226 E3.51224
G1 X188.161 Y211.254 E3.55376
G1 X187.95 Y212.133 E3.58983
G1 X187.452 Y213.556 E3.65001
G1 X187.31 Y213.888 E3.66442
G1 X186.854 Y214.828 E3.70612
G1 X186.319 Y215.722 E3.7477
G1 X185.748 Y216.512 E3.78661
G1 X185.019 Y217.353 E3.83103
G1 X184.342 Y218.008 E3.86862
G1 X183.31 Y218.832 E3.92133
G1 X182.999 Y219.05 E3.93649
G1 X182.102 Y219.62 E3.97891
G1 X181.174 Y220.099 E4.02059
G1 X180.207 Y220.494 E4.06228
G1 X179.207 Y220.803 E4.10405
G1 X178.19 Y221.021 E4.14557
G1 X177.294 Y221.137 E4.18163
G1 X176.419 Y221.184 E4.2166
G1 X175.456 Y221.199 E4.25504
G1 X129.728 Y221.2 E6.08014
G1 X128.807 Y221.185 E6.11691
G1 X127.764 Y221.118 E6.15862
G1 X126.733 Y220.96 E6.20025
G1 X125.732 Y220.713 E6.2414
G1 X124.404 Y220.237 E6.29771
G1 X124.003 Y220.061 E6.31519
G1 X123.066 Y219.595 E6.35695
G1 X122.179 Y219.05 E6.3985
G1 X121.339 Y218.427 E6.44025
G1 X120.635 Y217.806 E6.47771
G1 X119.837 Y216.964 E6.52401
G1 X119.19 Y216.139 E6.56586
G1 X118.927 Y215.764 E6.58414
G1 X118.368 Y214.88 E6.62589
G1 X117.906 Y213.984 E6.66612
G1 X117.498 Y212.983 E6.70926
G1 X117.192 Y211.983 E6.751
G1 X116.976 Y210.963 E6.79262
G1 X116.85 Y209.946 E6.83352
G1 X116.816 Y209.212 E6.86284
G1 X116.801 Y208.246 E6.9014
G1 X116.801 Y196.322 E7.37732
G1 X116.816 Y195.576 E7.4071
G1 X116.886 Y194.533 E7.44882
G1 X117.048 Y193.498 E7.49063
G1 X117.31 Y192.458 E7.53344
G1 X117.794 Y191.129 E7.58989
G1 X117.944 Y190.788 E7.60476
G1 X118.393 Y189.885 E7.64501
G1 X118.918 Y189.024 E7.68526
G1 X119.582 Y188.127 E7.7298
G1 X120.229 Y187.398 E7.7687
G1 X121.017 Y186.655 E7.81193
G1 X121.876 Y185.978 E7.85558
G1 X122.168 Y185.772 E7.86984
G0 F4200 X122.384 Y186.109
G1 F900 X123.248 Y185.555 E7.91081
G1 X124.14 Y185.088 E7.95099
G1 X124.973 Y184.738 E7.98706
G1 X126.036 Y184.401 E8.03156
G1 X127.02 Y184.182 E8.0718
G1 X127.916 Y184.063 E8.10787
G1 X128.787 Y184.016 E8.14269
G1 X129.744 Y184.001 E8.18089
G1 X175.466 Y184 E10.00575
G1 X176.368 Y184.014 E10.04176
G1 X177.376 Y184.077 E10.08207
G1 X178.372 Y184.229 E10.12228
G1 X179.333 Y184.464 E10.16176
G1 X180.661 Y184.94 E10.21807
G1 X181.019 Y185.097 E10.23367
G1 X181.925 Y185.546 E10.27403
G1 X182.783 Y186.072 E10.3142
G1 X183.596 Y186.673 E10.35455
G1 X184.325 Y187.318 E10.3934
G1 X185.023 Y188.055 E10.43391
G1 X185.744 Y188.977 E10.48063
G1 X185.948 Y189.27 E10.49488
G1 X186.486 Y190.123 E10.53513
G1 X186.932 Y190.989 E10.57401
G1 X187.326 Y191.955 E10.61565
G1 X187.622 Y192.921 E10.65597
G1 X187.831 Y193.908 E10.69624
G1 X187.952 Y194.894 E10.73589
G1 X187.984 Y195.589 E10.76365
G1 X187.999 Y196.54 E10.80161
G1 X188 Y208.237 E11.26847
G1 X187.986 Y209.157 E11.30519
G1 X187.924 Y210.166 E11.34554
G1 X187.772 Y211.161 E11.38571
G1 X187.561 Y212.04 E11.42179
G1 X187.084 Y213.399 E11.47928
G1 X186.95 Y213.714 E11.49294
G1 X186.511 Y214.623 E11.53323
G1 X185.994 Y215.488 E11.57345
G1 X185.445 Y216.25 E11.61093
G1 X184.74 Y217.066 E11.65397
G1 X184.092 Y217.695 E11.69002
G1 X183.06 Y218.519 E11.74272
G1 X182.784 Y218.713 E11.75619
G1 X181.918 Y219.265 E11.79718
G1 X181.022 Y219.729 E11.83745
G1 X180.088 Y220.112 E11.87774
G1 X179.123 Y220.412 E11.91807
G1 X178.139 Y220.624 E11.95825
G1 X177.243 Y220.74 E11.99431
G1 X176.413 Y220.784 E12.02748
G1 X175.456 Y220.799 E12.06568
G1 X129.734 Y220.8 E13.89055
G1 X128.832 Y220.786 E13.92655
G1 X127.824 Y220.723 E13.96686
G1 X126.828 Y220.571 E14.00707
G1 X125.867 Y220.336 E14.04656
G1 X124.539 Y219.86 E14.10287
G1 X124.181 Y219.703 E14.11847
G1 X123.275 Y219.254 E14.15883
G1 X122.417 Y218.728 E14.19899
G1 X121.604 Y218.127 E14.23934
G1 X120.9 Y217.506 E14.27681
G1 X120.152 Y216.717 E14.32021
G1 X119.505 Y215.892 E14.36205
G1 X119.265 Y215.55 E14.37873
G1 X118.724 Y214.697 E14.41904
G1 X118.262 Y213.801 E14.45928
G1 X117.88 Y212.865 E14.49963
G1 X117.583 Y211.9 E14.53992
G1 X117.373 Y210.914 E14.58016
G1 X117.25 Y209.927 E14.61986
G1 X117.216 Y209.206 E14.64867
G1 X117.201 Y208.24 E14.68723
G1 X117.201 Y196.33 E15.16258
G1 X117.215 Y195.602 E15.19164
G1 X117.281 Y194.594 E15.23196
G1 X117.436 Y193.595 E15.27231
G1 X117.686 Y192.595 E15.31345
G1 X118.161 Y191.289 E15.36892
G1 X118.302 Y190.966 E15.38298
G1 X118.735 Y190.093 E15.42188
G1 X119.26 Y189.232 E15.46212
G1 X119.882 Y188.392 E15.50384
G1 X120.504 Y187.689 E15.54131
G1 X121.265 Y186.969 E15.58312
G1 X122.107 Y186.305 E15.62592
G1 X122.384 Y186.109 E15.63946
G0 F4200 X122.615 Y186.436
G1 F900 X123.434 Y185.909 E15.67833
G1 X124.295 Y185.457 E15.71714
G1 X125.128 Y185.107 E15.75321
G1 X126.123 Y184.791 E15.79487
G1 X127.073 Y184.579 E15.83372
G1 X127.969 Y184.46 E15.8698
G1 X128.793 Y184.416 E15.90273
G1 X129.744 Y184.401 E15.94069
G1 X175.46 Y184.4 E17.76532
G1 X176.344 Y184.413 E17.8006
G1 X177.316 Y184.472 E17.83947
G1 X178.278 Y184.618 E17.8783
G1 X179.198 Y184.841 E17.91609
G1 X180.526 Y185.317 E17.97239
G1 X180.842 Y185.456 E17.98617
G1 X181.716 Y185.887 E18.02506
G1 X182.546 Y186.394 E18.06388
G1 X183.331 Y186.973 E18.10282
G1 X184.06 Y187.618 E18.14166
G1 X184.708 Y188.301 E18.17924
G1 X185.416 Y189.206 E18.2251
G1 X185.61 Y189.484 E18.23863
G1 X186.13 Y190.306 E18.27745
G1 X186.576 Y191.172 E18.31633
G1 X186.944 Y192.073 E18.35518
G1 X187.231 Y193.004 E18.39406
G1 X187.434 Y193.957 E18.43295
G1 X187.552 Y194.913 E18.4714
G1 X187.584 Y195.595 E18.49865
G1 X187.599 Y196.54 E18.53637
G1 X187.6 Y208.231 E19.00298
G1 X187.587 Y209.133 E19.03898
G1 X187.529 Y210.106 E19.07789
G1 X187.383 Y211.068 E19.11672
G1 X187.172 Y211.947 E19.1528
G1 X186.716 Y213.243 E19.20764
G1 X186.59 Y213.54 E19.22051
G1 X186.167 Y214.418 E19.25941
G1 X185.669 Y215.254 E19.29825
G1 X185.12 Y216.016 E19.33573
G1 X184.461 Y216.779 E19.37597
G1 X183.813 Y217.408 E19.41202
G1 X182.83 Y218.192 E19.4622
G1 X182.569 Y218.376 E19.47495
G1 X181.733 Y218.91 E19.51454
G1 X180.87 Y219.359 E19.55337
G1 X179.969 Y219.73 E19.59226
G1 X179.038 Y220.021 E19.63119
G1 X178.088 Y220.227 E19.66999
G1 X177.192 Y220.343 E19.70604
G1 X176.407 Y220.384 E19.73742
G1 X175.456 Y220.399 E19.77538
G1 X129.74 Y220.4 E21.6
G1 X128.856 Y220.387 E21.63529
G1 X127.884 Y220.328 E21.67416
G1 X126.922 Y220.182 E21.71299
G1 X126.002 Y219.959 E21.75077
G1 X124.674 Y219.483 E21.80708
G1 X124.358 Y219.344 E21.82086
G1 X123.484 Y218.913 E21.85975
G1 X122.654 Y218.406 E21.89857
G1 X121.869 Y217.827 E21.9375
G1 X121.165 Y217.206 E21.97497
G1 X120.467 Y216.47 E22.01545
G1 X119.82 Y215.645 E22.0573
G1 X119.602 Y215.335 E22.07243
G1 X119.079 Y214.513 E22.11131
G1 X118.632 Y213.649 E22.15014
G1 X118.262 Y212.747 E22.18905
G1 X117.974 Y211.816 E22.22794
G1 X117.77 Y210.864 E22.2668
G1 X117.65 Y209.908 E22.30526
G1 X117.616 Y209.2 E22.33355
G1 X117.601 Y208.234 E22.37211
G1 X117.601 Y196.337 E22.84694
G1 X117.614 Y195.627 E22.87529
G1 X117.676 Y194.655 E22.91416
G1 X117.824 Y193.691 E22.95309
G1 X118.062 Y192.732 E22.99252
G1 X118.537 Y191.426 E23.04799
G1 X118.661 Y191.143 E23.06032
G1 X119.077 Y190.301 E23.0978
G1 X119.602 Y189.44 E23.13805
G1 X120.182 Y188.657 E23.17694
G1 X120.779 Y187.98 E23.21297
G1 X121.54 Y187.26 E23.25478
G1 X122.338 Y186.632 E23.29531
G1 X122.615 Y186.436 E23.30886
G0 F4200 X122.832 Y186.772
G1 F900 X123.62 Y186.263 E23.3463
G1 X124.45 Y185.826 E23.38374
G1 X125.283 Y185.476 E23.4198
G1 X126.21 Y185.181 E23.45863
G1 X127.126 Y184.976 E23.49609
G1 X128.022 Y184.857 E23.53216
G1 X128.799 Y184.816 E23.56322
G1 X129.744 Y184.801 E23.60094
G1 X175.454 Y184.8 E25.42533
G1 X176.32 Y184.812 E25.45989
G1 X177.257 Y184.868 E25.49736
G1 X178.185 Y185.007 E25.53481
G1 X179.063 Y185.218 E25.57085
G1 X180.391 Y185.694 E25.62716
G1 X180.666 Y185.815 E25.63915
G1 X181.508 Y186.229 E25.6766
G1 X182.309 Y186.716 E25.71401
G1 X183.066 Y187.273 E25.75152
G1 X183.77 Y187.894 E25.78899
G1 X184.393 Y188.548 E25.82504
G1 X185.088 Y189.435 E25.87001
G1 X185.272 Y189.698 E25.88283
G1 X185.775 Y190.49 E25.92027
G1 X186.206 Y191.324 E25.95774
G1 X186.562 Y192.192 E25.99519
G1 X186.84 Y193.088 E26.03263
G1 X187.037 Y194.006 E26.0701
G1 X187.152 Y194.932 E26.10734
G1 X187.184 Y195.601 E26.13408
G1 X187.199 Y196.54 E26.17156
G1 X187.2 Y208.226 E26.63797
G1 X187.188 Y209.11 E26.67326
G1 X187.133 Y210.047 E26.71072
G1 X186.994 Y210.975 E26.74817
G1 X186.783 Y211.854 E26.78425
G1 X186.348 Y213.087 E26.83644
G1 X186.229 Y213.367 E26.84858
G1 X185.823 Y214.214 E26.88607
G1 X185.344 Y215.02 E26.92349
G1 X184.795 Y215.782 E26.96097
G1 X184.182 Y216.492 E26.99841
G1 X183.534 Y217.121 E27.03445
G1 X182.599 Y217.865 E27.08214
G1 X182.353 Y218.039 E27.09417
G1 X181.548 Y218.555 E27.13233
G1 X180.717 Y218.989 E27.16975
G1 X179.849 Y219.348 E27.20724
G1 X178.953 Y219.63 E27.24473
G1 X178.037 Y219.83 E27.28215
G1 X177.141 Y219.946 E27.31821
G1 X176.401 Y219.984 E27.34779
G1 X175.456 Y219.999 E27.38551
G1 X129.746 Y220 E29.20989
G1 X128.88 Y219.988 E29.24446
G1 X127.943 Y219.932 E29.28193
G1 X127.015 Y219.793 E29.31938
G1 X126.137 Y219.582 E29.35542
G1 X124.809 Y219.106 E29.41172
G1 X124.534 Y218.985 E29.42371
G1 X123.692 Y218.571 E29.46116
G1 X122.891 Y218.084 E29.49858
G1 X122.134 Y217.527 E29.53609
G1 X121.43 Y216.906 E29.57356
G1 X120.782 Y216.223 E29.61113
G1 X120.135 Y215.398 E29.65298
G1 X119.939 Y215.12 E29.66655
G1 X119.434 Y214.329 E29.70401
G1 X119.002 Y213.496 E29.74146
G1 X118.644 Y212.628 E29.77894
G1 X118.365 Y211.732 E29.81639
G1 X118.167 Y210.814 E29.85387
G1 X118.05 Y209.888 E29.89113
G1 X118.016 Y209.194 E29.91886
G1 X118.001 Y208.228 E29.95742
G1 X118.001 Y196.344 E30.43173
G1 X118.013 Y195.652 E30.45936
G1 X118.071 Y194.715 E30.49683
G1 X118.212 Y193.787 E30.53429
G1 X118.438 Y192.868 E30.57206
G1 X118.903 Y191.587 E30.62645
G1 X119.02 Y191.32 E30.63809
G1 X119.436 Y190.478 E30.67557
G1 X119.924 Y189.678 E30.71297
G1 X120.482 Y188.922 E30.75048
G1 X121.079 Y188.245 E30.7865
G1 X121.787 Y187.574 E30.82544
G1 X122.57 Y186.958 E30.8652
G1 X122.832 Y186.772 E30.87802
G0 F4200 X123.049 Y187.108
G1 F900 X123.807 Y186.617 E30.91407
G1 X124.605 Y186.195 E30.9501
G1 X125.438 Y185.845 E30.98616
G1 X126.298 Y185.571 E31.02218
G1 X127.179 Y185.373 E31.05822
G1 X128.075 Y185.254 E31.0943
G1 X128.805 Y185.216 E31.12348
G1 X129.744 Y185.201 E31.16096
G1 X175.449 Y185.2 E32.98514
G1 X176.297 Y185.211 E33.01899
G1 X177.199 Y185.264 E33.05505
G1 X178.092 Y185.396 E33.09108
G1 X178.97 Y185.607 E33.12712
G1 X180.231 Y186.061 E33.18062
G1 X180.49 Y186.174 E33.19189
G1 X181.301 Y186.571 E33.22793
G1 X182.073 Y187.039 E33.26396
G1 X182.802 Y187.573 E33.30003
G1 X183.48 Y188.17 E33.33609
G1 X184.103 Y188.824 E33.37214
G1 X184.761 Y189.665 E33.41476
G1 X184.935 Y189.913 E33.42685
G1 X185.42 Y190.674 E33.46287
G1 X185.836 Y191.476 E33.49892
G1 X186.18 Y192.311 E33.53497
G1 X186.449 Y193.173 E33.57101
G1 X186.64 Y194.056 E33.60707
G1 X186.752 Y194.952 E33.64311
G1 X186.784 Y195.607 E33.66928
G1 X186.799 Y196.54 E33.70652
G1 X186.8 Y208.221 E34.17274
G1 X186.789 Y209.087 E34.2073
G1 X186.737 Y209.989 E34.24336
G1 X186.605 Y210.882 E34.27939
G1 X186.394 Y211.761 E34.31547
G1 X185.98 Y212.931 E34.36501
G1 X185.868 Y213.195 E34.37645
G1 X185.479 Y214.01 E34.4125
G1 X185.019 Y214.787 E34.44854
G1 X184.492 Y215.521 E34.4846
G1 X183.903 Y216.205 E34.52063
G1 X183.255 Y216.834 E34.55667
G1 X182.368 Y217.538 E34.60187
G1 X182.122 Y217.712 E34.61389
G1 X181.362 Y218.201 E34.64996
G1 X180.563 Y218.62 E34.68597
G1 X179.729 Y218.967 E34.72203
G1 X178.867 Y219.239 E34.7581
G1 X177.986 Y219.433 E34.79411
G1 X177.09 Y219.549 E34.83017
G1 X176.395 Y219.584 E34.85794
G1 X175.456 Y219.599 E34.89542
G1 X129.751 Y219.6 E36.71961
G1 X128.903 Y219.589 E36.75346
G1 X128.001 Y219.536 E36.78952
G1 X127.108 Y219.404 E36.82555
G1 X126.23 Y219.193 E36.86159
G1 X124.969 Y218.739 E36.91508
G1 X124.71 Y218.626 E36.92636
G1 X123.899 Y218.229 E36.9624
G1 X123.127 Y217.761 E36.99843
G1 X122.398 Y217.227 E37.0345
G1 X121.72 Y216.63 E37.07055
G1 X121.097 Y215.976 E37.1066
G1 X120.45 Y215.151 E37.14845
G1 X120.276 Y214.904 E37.16051
G1 X119.789 Y214.144 E37.19653
G1 X119.372 Y213.343 E37.23258
G1 X119.026 Y212.508 E37.26865
G1 X118.756 Y211.647 E37.30467
G1 X118.564 Y210.764 E37.34073
G1 X118.45 Y209.868 E37.37678
G1 X118.416 Y209.188 E37.40395
G1 X118.401 Y208.222 E37.44251
G1 X118.401 Y196.351 E37.91631
G1 X118.412 Y195.676 E37.94326
G1 X118.467 Y194.774 E37.97932
G1 X118.601 Y193.881 E38.01536
G1 X118.814 Y193.004 E38.05138
G1 X119.269 Y191.748 E38.1047
G1 X119.379 Y191.497 E38.11564
G1 X119.778 Y190.686 E38.15171
G1 X120.246 Y189.915 E38.18771
G1 X120.782 Y189.187 E38.22379
G1 X121.379 Y188.51 E38.25982
G1 X122.034 Y187.888 E38.29587
G1 X122.802 Y187.284 E38.33487
G1 X123.049 Y187.108 E38.34697
G1 F2700 E33.34697
;MESH:Rect_AA_case.SLDPRT
G0 F4200 X128.311 Y195.167
G0 X129.092 Y195.955
G0 X129.679 Y208.327
;TYPE:WALL-INNER
G1 F2700 E38.34697
G1 F900 X171.234 Y208.322 E40.00552
G1 F769.2 X171.7 Y208.192 E40.02811
G1 X171.281 Y207.953 E40.05064
G1 F900 X171.11 Y207.891 E40.0579
G1 X170.797 Y207.744 E40.0717
G1 X170.439 Y207.494 E40.08913
G1 X170.131 Y207.186 E40.10651
G1 X169.885 Y206.834 E40.12365
G1 X169.696 Y206.435 E40.14128
G1 X169.584 Y206.011 E40.15878
G1 X169.553 Y205.661 E40.1728
G1 X169.553 Y199.139 E40.43311
G1 X169.584 Y198.789 E40.44713
G1 X169.696 Y198.365 E40.46464
G1 X169.885 Y197.966 E40.48226
G1 X170.131 Y197.614 E40.4994
G1 X170.439 Y197.306 E40.51678
G1 X170.799 Y197.055 E40.5343
G1 F867.5 X171.277 Y196.833 E40.55612
G1 F640.6 X171.589 Y196.619 E40.57734
G1 F649.8 X171.195 Y196.475 E40.60053
G1 F871.7 X160.814 Y196.475 E41.02832
G1 F880.2 X150.433 Y196.476 E41.45197
G1 F888.9 X140.052 Y196.477 E41.87148
G1 F897.8 X129.671 Y196.478 E42.28684
G1 F900 X129.679 Y208.327 E42.75976
G0 F4200 X129.279 Y208.727
G1 F900 X175.927 Y208.721 E44.62158
G1 X175.922 Y196.072 E45.12643
G1 X129.273 Y196.078 E46.9883
G1 X129.279 Y208.727 E47.49315
G1 F2700 E42.49315
G0 F4200 X129.549 Y208.457
G0 X171.168 Y208.129
G0 X171.258 Y207.841
G0 X171.334 Y207.554
