;FLAVOR:Marlin
;TIME:14244
;Filament used: 7.37662m
;Layer height: 0.2
;MINX:94.709
;MINY:48.384
;MINZ:0.28
;MAXX:211.29
;MAXY:238.133
;MAXZ:7.3
;TARGET_MACHINE.NAME:Creality CR-10S Pro
;Generated with Cura_SteamEngine 5.6.0
M82 ;absolute extrusion mode
M201 X500.00 Y500.00 Z100.00 E5000.00 ;Setup machine max acceleration
M203 X500.00 Y500.00 Z10.00 E50.00 ;Setup machine max feedrate
M204 P500.00 R1000.00 T500.00 ;Setup Print/Retract/Travel acceleration
M205 X8.00 Y8.00 Z0.40 E5.00 ;Setup Jerk
M220 S100 ;Reset Feedrate
M221 S100 ;Reset Flowrate

;*** Start Dual Nozzle/Bed Preheating ***
M140 S70 ; start preheating the bed
M104 S215.0 ﻿T0 ; start preheating hotend
M190 S70 ; heat to Cura Bed setting
M109 S215.0 ﻿T0 ; heat to Cura Hotend
;*** End Preheating ***

G28 ;Home
G29 ;Auto bed Level

G92 E0 ;Reset Extruder
G1 Z2.0 F3000 ;Move Z Axis up
G1 X10.1 Y20 Z0.28 F5000.0 ;Move to start position
G1 X10.1 Y200.0 Z0.28 F1500.0 E15 ;Draw the first line
G1 X10.4 Y200.0 Z0.28 F5000.0 ;Move to side a little
G1 X10.4 Y20 Z0.28 F1500.0 E30 ;Draw the second line
G92 E0 ;Reset Extruder
G1 Z2.0 F3000 ;Move Z Axis up
G92 E0
G92 E0
G1 F2700 E-5
;LAYER_COUNT:9
;LAYER:0
M107
G0 F6000 X96.597 Y55.644 Z0.28
;TYPE:SKIRT
G1 F2700 E0
G1 F600 X97.094 Y54.854 E0.04346
G1 X97.45 Y54.338 E0.07265
G1 X98.038 Y53.563 E0.11795
G1 X98.653 Y52.883 E0.16064
G1 X99.081 Y52.45 E0.18899
G1 X99.795 Y51.791 E0.23423
G1 X100.507 Y51.238 E0.27621
G1 X101.007 Y50.883 E0.30477
G1 X101.823 Y50.358 E0.34995
G1 X102.614 Y49.938 E0.39165
G1 X103.18 Y49.669 E0.42083
G1 X104.075 Y49.292 E0.46605
G1 X104.965 Y49.002 E0.50964
G1 X105.562 Y48.839 E0.53846
G1 X106.509 Y48.626 E0.58365
G1 X107.417 Y48.501 E0.62633
G1 X108.028 Y48.444 E0.65491
G1 X108.87 Y48.397 E0.69417
G1 X109.681 Y48.385 E0.73194
G1 X196.244 Y48.384 E4.76268
G1 X197.075 Y48.394 E4.80138
G1 X197.811 Y48.43 E4.83569
G1 X198.449 Y48.484 E4.8655
G1 X199.377 Y48.605 E4.90908
G1 X200.249 Y48.793 E4.95062
G1 X200.842 Y48.946 E4.97913
G1 X201.77 Y49.233 E5.02436
G1 X202.63 Y49.582 E5.06758
G1 X203.204 Y49.846 E5.097
G1 X204.038 Y50.276 E5.14069
G1 X204.821 Y50.769 E5.18378
G1 X205.337 Y51.125 E5.21297
G1 X206.112 Y51.713 E5.25827
G1 X206.792 Y52.328 E5.30096
G1 X207.225 Y52.756 E5.32931
G1 X207.884 Y53.47 E5.37455
G1 X208.437 Y54.182 E5.41653
G1 X208.792 Y54.682 E5.44509
G1 X209.317 Y55.498 E5.49027
G1 X209.737 Y56.289 E5.53197
G1 X210.006 Y56.855 E5.56115
G1 X210.383 Y57.75 E5.60637
G1 X210.673 Y58.64 E5.64996
G1 X210.836 Y59.237 E5.67877
G1 X211.049 Y60.184 E5.72397
G1 X211.174 Y61.088 E5.76647
G1 X211.231 Y61.698 E5.79499
G1 X211.278 Y62.543 E5.8344
G1 X211.29 Y63.356 E5.87226
G1 X211.289 Y100.238 E7.58964
G1 X211.271 Y101.102 E7.62988
G1 X211.226 Y101.898 E7.66701
G1 X211.191 Y102.25 E7.68348
G1 X210.997 Y103.497 E7.74224
G1 X210.86 Y104.127 E7.77226
G1 X210.62 Y105.033 E7.81591
G1 X210.305 Y105.912 E7.85938
G1 X210.12 Y106.363 E7.88208
G1 X209.729 Y107.208 E7.92544
G1 X209.449 Y107.717 E7.95249
G1 X209.123 Y108.274 E7.98254
G1 X208.594 Y109.089 E8.02778
G1 X208.071 Y109.765 E8.06758
G1 X207.771 Y110.123 E8.08933
G1 X207.16 Y110.788 E8.13138
G1 X206.683 Y111.239 E8.16195
G1 X206.204 Y111.665 E8.1918
G1 X205.461 Y112.267 E8.23633
G1 X204.66 Y112.81 E8.28139
G1 X204.267 Y113.051 E8.30285
G1 X203.477 Y113.489 E8.34491
G1 X202.974 Y113.726 E8.37081
G1 X202.369 Y113.992 E8.40158
G1 X201.461 Y114.341 E8.44688
G1 X200.531 Y114.609 E8.49194
G1 X199.988 Y114.739 E8.51794
G1 X199.102 Y114.91 E8.55996
G1 X198.306 Y115.002 E8.59727
G1 X197.75 Y115.045 E8.62324
G1 X197.125 Y115.073 E8.65237
G1 X196.432 Y115.084 E8.68464
G1 X109.617 Y115.083 E12.72711
G1 X108.925 Y115.074 E12.75934
G1 X108.189 Y115.038 E12.79365
G1 X107.551 Y114.984 E12.82346
G1 X106.623 Y114.863 E12.86704
G1 X105.748 Y114.675 E12.90871
G1 X105.148 Y114.519 E12.93758
G1 X104.22 Y114.232 E12.98281
G1 X103.364 Y113.885 E13.02582
G1 X102.805 Y113.628 E13.05447
G1 X102.002 Y113.215 E13.09652
G1 X101.206 Y112.718 E13.14021
G1 X100.681 Y112.357 E13.16988
G1 X99.904 Y111.769 E13.21525
G1 X99.208 Y111.141 E13.25891
G1 X98.775 Y110.713 E13.28726
G1 X98.116 Y109.999 E13.3325
G1 X97.566 Y109.292 E13.37421
G1 X97.194 Y108.767 E13.40417
G1 X96.687 Y107.979 E13.4478
G1 X96.25 Y107.156 E13.49119
G1 X95.989 Y106.606 E13.51954
G1 X95.611 Y105.709 E13.56486
G1 X95.329 Y104.834 E13.60767
G1 X95.164 Y104.231 E13.63678
G1 X94.95 Y103.283 E13.68203
G1 X94.822 Y102.349 E13.72593
G1 X94.767 Y101.746 E13.75413
G1 X94.723 Y100.935 E13.79195
G1 X94.71 Y100.093 E13.83116
G1 X94.709 Y63.431 E15.53829
G1 X94.719 Y62.6 E15.57699
G1 X94.755 Y61.864 E15.6113
G1 X94.809 Y61.226 E15.64112
G1 X94.936 Y60.265 E15.68626
G1 X95.119 Y59.422 E15.72642
G1 X95.272 Y58.83 E15.7549
G1 X95.559 Y57.899 E15.80026
G1 X95.904 Y57.051 E15.84289
G1 X96.168 Y56.477 E15.87231
G1 X96.597 Y55.644 E15.91594
G0 F6000 X96.953 Y55.827
G1 F600 X97.423 Y55.081 E15.95699
G1 X97.769 Y54.579 E15.98538
G1 X98.335 Y53.831 E16.02906
G1 X98.938 Y53.164 E16.07093
G1 X99.353 Y52.744 E16.09842
G1 X100.041 Y52.107 E16.14208
G1 X100.739 Y51.564 E16.18326
G1 X101.224 Y51.219 E16.21098
G1 X102.011 Y50.711 E16.25459
G1 X102.786 Y50.299 E16.29546
G1 X103.336 Y50.037 E16.32383
G1 X104.199 Y49.672 E16.36746
G1 X105.071 Y49.388 E16.41016
G1 X105.65 Y49.229 E16.43812
G1 X106.564 Y49.022 E16.48176
G1 X107.454 Y48.899 E16.5236
G1 X108.05 Y48.843 E16.55147
G1 X108.876 Y48.797 E16.58999
G1 X109.681 Y48.785 E16.62748
G1 X196.239 Y48.784 E20.65798
G1 X197.056 Y48.794 E20.69603
G1 X197.778 Y48.829 E20.72969
G1 X198.397 Y48.881 E20.75861
G1 X199.325 Y49.002 E20.80219
G1 X200.149 Y49.18 E20.84145
G1 X200.724 Y49.328 E20.86909
G1 X201.62 Y49.604 E20.91275
G1 X202.48 Y49.953 E20.95597
G1 X203.021 Y50.202 E20.9837
G1 X203.855 Y50.632 E21.02739
G1 X204.594 Y51.098 E21.06807
G1 X205.096 Y51.444 E21.09646
G1 X205.844 Y52.01 E21.14014
G1 X206.511 Y52.613 E21.18201
G1 X206.931 Y53.028 E21.2095
G1 X207.568 Y53.716 E21.25316
G1 X208.111 Y54.414 E21.29434
G1 X208.456 Y54.899 E21.32205
G1 X208.964 Y55.686 E21.36567
G1 X209.376 Y56.461 E21.40654
G1 X209.638 Y57.011 E21.43491
G1 X210.003 Y57.874 E21.47854
G1 X210.287 Y58.746 E21.52124
G1 X210.446 Y59.325 E21.5492
G1 X210.653 Y60.239 E21.59284
G1 X210.776 Y61.126 E21.63454
G1 X210.832 Y61.72 E21.66232
G1 X210.878 Y62.549 E21.70098
G1 X210.89 Y63.356 E21.73856
G1 X210.889 Y100.23 E23.45557
G1 X210.872 Y101.079 E23.49511
G1 X210.828 Y101.859 E23.53149
G1 X210.796 Y102.189 E23.54692
G1 X210.606 Y103.412 E23.60456
G1 X210.473 Y104.025 E23.63376
G1 X210.243 Y104.898 E23.6758
G1 X209.928 Y105.777 E23.71928
G1 X209.757 Y106.195 E23.74031
G1 X209.366 Y107.04 E23.78366
G1 X209.104 Y107.515 E23.80892
G1 X208.787 Y108.057 E23.83816
G1 X208.278 Y108.844 E23.8818
G1 X207.764 Y109.508 E23.9209
G1 X207.476 Y109.852 E23.94179
G1 X206.865 Y110.517 E23.98385
G1 X206.417 Y110.94 E24.01254
G1 X205.952 Y111.354 E24.04153
G1 X205.209 Y111.956 E24.08605
G1 X204.451 Y112.469 E24.12867
G1 X204.073 Y112.701 E24.14933
G1 X203.283 Y113.139 E24.19139
G1 X202.813 Y113.36 E24.21557
G1 X202.225 Y113.619 E24.24549
G1 X201.35 Y113.957 E24.28917
G1 X200.438 Y114.22 E24.33336
G1 X199.912 Y114.346 E24.35855
G1 X199.026 Y114.517 E24.40057
G1 X198.275 Y114.603 E24.43576
G1 X197.732 Y114.645 E24.46112
G1 X197.119 Y114.673 E24.4897
G1 X196.432 Y114.684 E24.52169
G1 X109.622 Y114.683 E28.56393
G1 X108.944 Y114.674 E28.5955
G1 X108.222 Y114.639 E28.62916
G1 X107.603 Y114.587 E28.65809
G1 X106.675 Y114.466 E28.70166
G1 X105.848 Y114.288 E28.74105
G1 X105.266 Y114.137 E28.76905
G1 X104.37 Y113.861 E28.81271
G1 X103.514 Y113.514 E28.85572
G1 X102.988 Y113.272 E28.88268
G1 X102.185 Y112.859 E28.92472
G1 X101.432 Y112.388 E28.96608
G1 X100.922 Y112.038 E28.99488
G1 X100.172 Y111.472 E29.03863
G1 X99.489 Y110.856 E29.08146
G1 X99.069 Y110.441 E29.10896
G1 X98.432 Y109.753 E29.15262
G1 X97.882 Y109.046 E29.19432
G1 X97.53 Y108.55 E29.22265
G1 X97.04 Y107.791 E29.26471
G1 X96.611 Y106.984 E29.30727
G1 X96.357 Y106.45 E29.3348
G1 X95.992 Y105.586 E29.37848
G1 X95.715 Y104.728 E29.42046
G1 X95.554 Y104.142 E29.44876
G1 X95.346 Y103.228 E29.49241
G1 X95.22 Y102.312 E29.53546
G1 X95.166 Y101.724 E29.56296
G1 X95.123 Y100.929 E29.60003
G1 X95.11 Y100.093 E29.63896
G1 X95.109 Y63.436 E31.34586
G1 X95.119 Y62.619 E31.38391
G1 X95.154 Y61.897 E31.41757
G1 X95.206 Y61.278 E31.44649
G1 X95.327 Y60.35 E31.49007
G1 X95.506 Y59.522 E31.52952
G1 X95.654 Y58.948 E31.55712
G1 X95.93 Y58.05 E31.60086
G1 X96.275 Y57.202 E31.64349
G1 X96.524 Y56.66 E31.67127
G1 X96.953 Y55.827 E31.7149
G0 F6000 X97.292 Y56.04
G1 F600 X97.752 Y55.308 E31.75515
G1 X98.088 Y54.82 E31.78274
G1 X98.632 Y54.099 E31.8248
G1 X99.223 Y53.445 E31.86584
G1 X99.625 Y53.037 E31.89251
G1 X100.287 Y52.423 E31.93456
G1 X100.971 Y51.89 E31.97494
G1 X101.441 Y51.555 E32.00181
G1 X102.199 Y51.064 E32.04386
G1 X102.959 Y50.66 E32.08394
G1 X103.492 Y50.405 E32.11146
G1 X104.323 Y50.052 E32.1535
G1 X105.178 Y49.774 E32.19536
G1 X105.739 Y49.619 E32.22246
G1 X106.619 Y49.418 E32.26449
G1 X107.492 Y49.297 E32.30553
G1 X108.072 Y49.242 E32.33266
G1 X108.882 Y49.197 E32.37044
G1 X109.681 Y49.185 E32.40765
G1 X196.234 Y49.184 E36.43792
G1 X197.037 Y49.194 E36.47531
G1 X197.745 Y49.228 E36.50832
G1 X198.346 Y49.278 E36.5364
G1 X199.241 Y49.393 E36.57841
G1 X200.049 Y49.567 E36.6169
G1 X200.607 Y49.711 E36.64374
G1 X201.47 Y49.975 E36.68576
G1 X202.313 Y50.317 E36.72812
G1 X202.838 Y50.558 E36.75502
G1 X203.642 Y50.971 E36.79711
G1 X204.367 Y51.427 E36.83699
G1 X204.855 Y51.763 E36.86458
G1 X205.576 Y52.307 E36.90663
G1 X206.23 Y52.898 E36.94768
G1 X206.638 Y53.3 E36.97435
G1 X207.252 Y53.962 E37.01639
G1 X207.785 Y54.646 E37.05677
G1 X208.12 Y55.116 E37.08365
G1 X208.611 Y55.874 E37.1257
G1 X209.015 Y56.634 E37.16578
G1 X209.27 Y57.167 E37.19329
G1 X209.623 Y57.998 E37.23533
G1 X209.901 Y58.853 E37.2772
G1 X210.056 Y59.414 E37.3043
G1 X210.257 Y60.294 E37.34633
G1 X210.378 Y61.164 E37.38723
G1 X210.433 Y61.742 E37.41426
G1 X210.478 Y62.555 E37.45218
G1 X210.49 Y63.356 E37.48948
G1 X210.489 Y100.222 E39.20612
G1 X210.473 Y101.057 E39.24501
G1 X210.43 Y101.821 E39.28064
G1 X210.401 Y102.128 E39.295
G1 X210.215 Y103.327 E39.35149
G1 X210.086 Y103.923 E39.37989
G1 X209.856 Y104.796 E39.42193
G1 X209.558 Y105.626 E39.46299
G1 X209.394 Y106.027 E39.48316
G1 X209.015 Y106.847 E39.52523
G1 X208.759 Y107.313 E39.54998
G1 X208.451 Y107.84 E39.57841
G1 X207.962 Y108.599 E39.62045
G1 X207.458 Y109.251 E39.65882
G1 X207.181 Y109.581 E39.67888
G1 X206.57 Y110.246 E39.72094
G1 X206.151 Y110.641 E39.74775
G1 X205.686 Y111.055 E39.77674
G1 X204.985 Y111.625 E39.81881
G1 X204.242 Y112.128 E39.86059
G1 X203.879 Y112.351 E39.88043
G1 X203.089 Y112.789 E39.92249
G1 X202.652 Y112.994 E39.94496
G1 X202.08 Y113.246 E39.97407
G1 X201.239 Y113.573 E40.01609
G1 X200.345 Y113.831 E40.05941
G1 X199.836 Y113.953 E40.08379
G1 X198.95 Y114.124 E40.1258
G1 X198.244 Y114.204 E40.15889
G1 X197.713 Y114.245 E40.18369
G1 X197.113 Y114.273 E40.21166
G1 X196.432 Y114.284 E40.24337
G1 X109.627 Y114.283 E44.28537
G1 X108.963 Y114.274 E44.3163
G1 X108.255 Y114.24 E44.3493
G1 X107.654 Y114.19 E44.37738
G1 X106.759 Y114.075 E44.4194
G1 X105.948 Y113.901 E44.45802
G1 X105.383 Y113.755 E44.4852
G1 X104.52 Y113.49 E44.52723
G1 X103.681 Y113.15 E44.56939
G1 X103.171 Y112.916 E44.59552
G1 X102.368 Y112.503 E44.63756
G1 X101.658 Y112.058 E44.67658
G1 X101.162 Y111.718 E44.70458
G1 X100.44 Y111.175 E44.74665
G1 X99.77 Y110.571 E44.78865
G1 X99.362 Y110.169 E44.81532
G1 X98.748 Y109.507 E44.85736
G1 X98.208 Y108.814 E44.89827
G1 X97.866 Y108.333 E44.92576
G1 X97.376 Y107.574 E44.96782
G1 X96.972 Y106.812 E45.00798
G1 X96.725 Y106.294 E45.0347
G1 X96.373 Y105.463 E45.07673
G1 X96.101 Y104.621 E45.11793
G1 X95.944 Y104.053 E45.14537
G1 X95.742 Y103.173 E45.18741
G1 X95.618 Y102.275 E45.22962
G1 X95.565 Y101.702 E45.25642
G1 X95.523 Y100.923 E45.29275
G1 X95.51 Y100.093 E45.3314
G1 X95.509 Y63.441 E47.03807
G1 X95.519 Y62.638 E47.07546
G1 X95.553 Y61.93 E47.10847
G1 X95.603 Y61.329 E47.13655
G1 X95.718 Y60.434 E47.17857
G1 X95.893 Y59.622 E47.21725
G1 X96.037 Y59.065 E47.24403
G1 X96.301 Y58.201 E47.2861
G1 X96.639 Y57.369 E47.32792
G1 X96.88 Y56.843 E47.35486
G1 X97.292 Y56.04 E47.39689
G1 F2700 E42.39689
;MESH:pb_top_lid_lg.SLDPRT(1)
G0 F6000 X106.523 Y61.27
G0 X106.683 Y61.357
;TYPE:WALL-INNER
G1 F2700 E47.39689
G1 F600 X106.475 Y61.804 E47.41984
G1 X106.354 Y62.258 E47.44172
G1 X106.309 Y62.746 E47.46454
G1 X106.31 Y100.722 E49.23286
G1 X106.353 Y101.21 E49.25567
G1 X106.475 Y101.665 E49.27761
G1 X106.683 Y102.111 E49.30052
G1 X106.953 Y102.498 E49.3225
G1 X107.299 Y102.844 E49.34528
G1 X107.683 Y103.111 E49.36706
G1 X108.125 Y103.316 E49.38975
G1 X108.584 Y103.439 E49.41187
G1 X109.078 Y103.484 E49.43497
G1 X196.93 Y103.484 E53.52573
G1 X197.371 Y103.449 E53.54633
G1 X197.788 Y103.349 E53.5663
G1 X198.182 Y103.184 E53.58619
G1 X198.559 Y102.955 E53.60673
G1 X198.886 Y102.674 E53.6268
G1 X199.16 Y102.355 E53.64638
G1 X199.393 Y101.973 E53.66722
G1 X199.551 Y101.594 E53.68634
G1 X199.656 Y101.152 E53.70749
G1 X199.69 Y100.723 E53.72753
G1 X199.691 Y62.746 E55.4959
G1 X199.647 Y62.258 E55.51871
G1 X199.525 Y61.804 E55.5406
G1 X199.317 Y61.357 E55.56356
G1 X199.047 Y60.972 E55.58546
G1 X198.703 Y60.628 E55.60811
G1 X198.318 Y60.358 E55.63001
G1 X197.871 Y60.15 E55.65296
G1 X197.416 Y60.029 E55.67489
G1 X196.922 Y59.984 E55.69799
G1 X109.078 Y59.984 E59.78837
G1 X108.584 Y60.029 E59.81147
G1 X108.129 Y60.15 E59.83339
G1 X107.682 Y60.358 E59.85635
G1 X107.297 Y60.628 E59.87824
G1 X106.953 Y60.972 E59.9009
G1 X106.683 Y61.357 E59.92279
G1 F2700 E54.92279
G0 F6000 X106.762 Y61.425
G0 X106.512 Y62.286
G0 X106.501 Y62.793
G0 X123.119 Y76.759
G0 X123.244 Y76.888
G1 F2700 E59.92279
G1 F600 X123.575 Y76.695 E59.94064
G1 X123.899 Y76.637 E59.95596
G1 X125.595 Y76.643 E60.03494
G1 X125.951 Y76.736 E60.05207
G1 X126.333 Y77.05 E60.07509
G1 X126.529 Y77.422 E60.09467
G1 X126.559 Y77.599 E60.10303
G1 X126.553 Y85.924 E60.49068
G1 X126.375 Y86.367 E60.51291
G1 X126.079 Y86.652 E60.53204
G1 X125.656 Y86.826 E60.55334
G1 X123.837 Y86.828 E60.63804
G1 X123.466 Y86.731 E60.6559
G1 X123.138 Y86.461 E60.67568
G1 X123.024 Y86.308 E60.68456
G1 X122.866 Y85.926 E60.70381
G1 X122.861 Y77.559 E61.09342
G1 X123.007 Y77.181 E61.11228
G1 X123.244 Y76.888 E61.12983
G0 F6000 X123.522 Y77.187
;TYPE:WALL-OUTER
G1 F600 X123.716 Y77.077 E61.14022
G1 X123.934 Y77.035 E61.15055
G1 X125.573 Y77.043 E61.22687
G1 X125.787 Y77.114 E61.23737
G1 X126.013 Y77.304 E61.25112
G1 X126.159 Y77.576 E61.2655
G1 X126.146 Y85.869 E61.65165
G1 X126.039 Y86.127 E61.66466
G1 X125.872 Y86.301 E61.67589
G1 X125.578 Y86.428 E61.6908
G1 X123.837 Y86.424 E61.77187
G1 X123.643 Y86.36 E61.78138
G1 X123.388 Y86.148 E61.79682
G1 X123.268 Y85.847 E61.81191
G1 X123.259 Y77.631 E62.19448
G1 X123.362 Y77.368 E62.20764
G1 X123.522 Y77.187 E62.21889
G1 F2700 E57.21889
G0 F6000 X123.372 Y76.928
G0 X123.128 Y76.747
G0 X123.128 Y60.184
G0 X109.06 Y59.584
G1 F2700 E62.21889
G1 F600 X108.514 Y59.633 E62.24441
G1 X107.992 Y59.772 E62.26957
G1 X107.481 Y60.01 E62.29581
G1 X107.039 Y60.32 E62.32095
G1 X106.645 Y60.714 E62.3469
G1 X106.335 Y61.156 E62.37204
G1 X106.097 Y61.667 E62.39829
G1 X105.958 Y62.188 E62.42339
G1 X105.909 Y62.728 E62.44864
G1 X105.91 Y100.74 E64.21864
G1 X105.958 Y101.28 E64.24388
G1 X106.097 Y101.802 E64.26904
G1 X106.335 Y102.312 E64.29524
G1 X106.645 Y102.756 E64.32046
G1 X107.041 Y103.152 E64.34654
G1 X107.483 Y103.459 E64.37159
G1 X107.988 Y103.694 E64.39753
G1 X108.514 Y103.835 E64.42289
G1 X109.06 Y103.884 E64.44841
G1 X196.946 Y103.884 E68.54076
G1 X197.433 Y103.845 E68.5635
G1 X197.912 Y103.731 E68.58643
G1 X198.364 Y103.542 E68.60924
G1 X198.795 Y103.28 E68.63273
G1 X199.17 Y102.958 E68.65575
G1 X199.484 Y102.591 E68.67824
G1 X199.751 Y102.155 E68.70204
G1 X199.933 Y101.718 E68.72409
G1 X200.052 Y101.214 E68.7482
G1 X200.09 Y100.739 E68.77039
G1 X200.091 Y62.728 E70.54034
G1 X200.042 Y62.188 E70.56559
G1 X199.903 Y61.667 E70.5907
G1 X199.665 Y61.156 E70.61694
G1 X199.355 Y60.714 E70.64208
