;FLAVOR:Marlin
;TIME:46994
;Filament used: 25.8558m
;Layer height: 0.2
;MINX:32.576
;MINY:76.2
;MINZ:0.28
;MAXX:274.475
;MAXY:223.9
;MAXZ:3.16
;TARGET_MACHINE.NAME:Creality CR-10S Pro
;Generated with Cura_SteamEngine 5.6.0
M82 ;absolute extrusion mode
M201 X500.00 Y500.00 Z100.00 E5000.00 ;Setup machine max acceleration
M203 X500.00 Y500.00 Z10.00 E50.00 ;Setup machine max feedrate
M204 P500.00 R1000.00 T500.00 ;Setup Print/Retract/Travel acceleration
M205 X8.00 Y8.00 Z0.40 E5.00 ;Setup Jerk
M220 S100 ;Reset Feedrate
M221 S100 ;Reset Flowrate

;*** Start Dual Nozzle/Bed Preheating ***
M140 S70 ; start preheating the bed
M104 S215.0 ﻿T0 ; start preheating hotend
M190 S70 ; heat to Cura Bed setting
M109 S215.0 ﻿T0 ; heat to Cura Hotend
;*** End Preheating ***

G28 ;Home
G29 ;Auto bed Level

G92 E0 ;Reset Extruder
G1 Z2.0 F3000 ;Move Z Axis up
G1 X10.1 Y20 Z0.28 F5000.0 ;Move to start position
G1 X10.1 Y200.0 Z0.28 F1500.0 E15 ;Draw the first line
G1 X10.4 Y200.0 Z0.28 F5000.0 ;Move to side a little
G1 X10.4 Y20 Z0.28 F1500.0 E30 ;Draw the second line
G92 E0 ;Reset Extruder
G1 Z2.0 F3000 ;Move Z Axis up
G92 E0
G92 E0
G1 F2700 E-5
;LAYER_COUNT:13
;LAYER:0
M107
G0 F6000 X40.825 Y77.811 Z0.28
;TYPE:SKIRT
G1 F2700 E0
G1 F600 X41.483 Y77.501 E0.03387
G1 X42.379 Y77.127 E0.07908
G1 X43.241 Y76.85 E0.12124
G1 X43.934 Y76.661 E0.15469
G1 X44.881 Y76.449 E0.19987
G1 X45.781 Y76.325 E0.24218
G1 X46.489 Y76.259 E0.27529
G1 X47.324 Y76.213 E0.31423
G1 X48.117 Y76.201 E0.35116
G1 X258.828 Y76.2 E10.16275
G1 X259.691 Y76.211 E10.20293
G1 X260.418 Y76.247 E10.23683
G1 X261.137 Y76.308 E10.27043
G1 X262.1 Y76.435 E10.31566
G1 X262.958 Y76.622 E10.35655
G1 X263.645 Y76.802 E10.38962
G1 X264.574 Y77.091 E10.43492
G1 X265.406 Y77.43 E10.47675
G1 X266.069 Y77.734 E10.51072
G1 X266.935 Y78.179 E10.55605
G1 X267.695 Y78.656 E10.59783
G1 X268.326 Y79.093 E10.63357
G1 X269.1 Y79.684 E10.67892
G1 X269.78 Y80.302 E10.72171
G1 X270.286 Y80.802 E10.75483
G1 X270.899 Y81.465 E10.79688
G1 X271.492 Y82.228 E10.84187
G1 X271.911 Y82.819 E10.87561
G1 X272.437 Y83.638 E10.92093
G1 X272.846 Y84.413 E10.96174
G1 X273.171 Y85.099 E10.99708
G1 X273.546 Y85.996 E11.04235
G1 X273.822 Y86.855 E11.08437
G1 X274.011 Y87.546 E11.11772
G1 X274.224 Y88.493 E11.16292
G1 X274.348 Y89.389 E11.20504
G1 X274.415 Y90.101 E11.23834
G1 X274.462 Y90.941 E11.27752
G1 X274.474 Y91.705 E11.31309
G1 X274.475 Y208.239 E16.73941
G1 X274.464 Y209.113 E16.78011
G1 X274.428 Y209.843 E16.81414
G1 X274.367 Y210.562 E16.84774
G1 X274.24 Y211.525 E16.89297
G1 X274.052 Y212.386 E16.93401
G1 X273.872 Y213.072 E16.96703
G1 X273.584 Y214 E17.01227
G1 X273.248 Y214.825 E17.05375
G1 X272.944 Y215.489 E17.08776
G1 X272.499 Y216.355 E17.1331
G1 X272.019 Y217.12 E17.17515
G1 X271.582 Y217.751 E17.21089
G1 X270.991 Y218.525 E17.25623
G1 X270.373 Y219.205 E17.29902
G1 X269.873 Y219.711 E17.33215
G1 X269.21 Y220.324 E17.37419
G1 X268.447 Y220.917 E17.41919
G1 X267.856 Y221.336 E17.45292
G1 X267.037 Y221.862 E17.49825
G1 X266.263 Y222.271 E17.53901
G1 X265.574 Y222.597 E17.5745
G1 X264.677 Y222.971 E17.61975
G1 X263.806 Y223.251 E17.66236
G1 X263.112 Y223.44 E17.69585
G1 X262.165 Y223.652 E17.74104
G1 X261.269 Y223.775 E17.78315
G1 X260.561 Y223.841 E17.81626
G1 X259.726 Y223.887 E17.8552
G1 X258.933 Y223.899 E17.89213
G1 X48.222 Y223.9 E27.70372
G1 X47.359 Y223.889 E27.7439
G1 X46.632 Y223.853 E27.7778
G1 X45.913 Y223.792 E27.8114
G1 X44.95 Y223.665 E27.85663
G1 X44.092 Y223.478 E27.89752
G1 X43.405 Y223.298 E27.93059
G1 X42.476 Y223.009 E27.97589
G1 X41.644 Y222.67 E28.01772
G1 X40.981 Y222.366 E28.05169
G1 X40.115 Y221.921 E28.09702
G1 X39.355 Y221.444 E28.1388
G1 X38.724 Y221.007 E28.17455
G1 X37.95 Y220.416 E28.21989
G1 X37.27 Y219.798 E28.26268
G1 X36.764 Y219.298 E28.2958
G1 X36.151 Y218.635 E28.33785
G1 X35.558 Y217.872 E28.38284
G1 X35.139 Y217.28 E28.41662
G1 X34.613 Y216.461 E28.46194
G1 X34.186 Y215.65 E28.50462
G1 X33.876 Y214.992 E28.53849
G1 X33.502 Y214.096 E28.5837
G1 X33.225 Y213.234 E28.62586
G1 X33.036 Y212.541 E28.6593
G1 X32.824 Y211.594 E28.70449
G1 X32.7 Y210.695 E28.74675
G1 X32.634 Y209.988 E28.77981
G1 X32.588 Y209.152 E28.8188
G1 X32.576 Y208.37 E28.85522
G1 X32.576 Y199.486 E29.26889
G1 X32.589 Y198.742 E29.30354
G1 X32.647 Y197.798 E29.34758
G1 X32.871 Y196.459 E29.4108
G1 X33.574 Y193.432 E29.5555
G1 X34.081 Y190.909 E29.67533
G1 X34.497 Y188.482 E29.78999
G1 X34.855 Y185.964 E29.90842
G1 X35.132 Y183.522 E30.02286
G1 X35.352 Y180.979 E30.14171
G1 X35.492 Y178.475 E30.25849
G1 X35.566 Y175.908 E30.37807
G1 X35.575 Y174.6 E30.43898
G1 X35.575 Y125.532 E32.72379
G1 X35.538 Y122.938 E32.84459
G1 X35.429 Y120.394 E32.96316
G1 X35.253 Y117.909 E33.07916
G1 X35.006 Y115.414 E33.1959
G1 X34.685 Y112.907 E33.31359
G1 X34.295 Y110.424 E33.43063
G1 X33.841 Y107.983 E33.54624
G1 X33.178 Y104.944 E33.69108
G1 X32.871 Y103.637 E33.75359
G1 X32.703 Y102.75 E33.79563
G1 X32.59 Y101.501 E33.85403
G1 X32.577 Y100.935 E33.88039
G1 X32.576 Y91.676 E34.31153
G1 X32.586 Y90.971 E34.34436
G1 X32.623 Y90.233 E34.37877
G1 X32.684 Y89.525 E34.41186
G1 X32.812 Y88.563 E34.45705
G1 X32.998 Y87.714 E34.49752
G1 X33.178 Y87.028 E34.53054
G1 X33.466 Y86.1 E34.57579
G1 X33.802 Y85.275 E34.61726
G1 X34.106 Y84.611 E34.65127
G1 X34.551 Y83.745 E34.69661
G1 X35.031 Y82.98 E34.73866
G1 X35.468 Y82.349 E34.7744
G1 X36.059 Y81.575 E34.81975
G1 X36.677 Y80.895 E34.86253
G1 X37.177 Y80.389 E34.89566
G1 X37.84 Y79.776 E34.9377
G1 X38.603 Y79.183 E34.9827
G1 X39.195 Y78.764 E35.01647
G1 X40.014 Y78.238 E35.06179
G1 X40.825 Y77.811 E35.10447
G0 F6000 X40.996 Y78.173
G1 F600 X41.637 Y77.87 E35.13749
G1 X42.502 Y77.508 E35.18115
G1 X43.347 Y77.236 E35.22248
G1 X44.022 Y77.051 E35.25507
G1 X44.936 Y76.845 E35.2987
G1 X45.818 Y76.723 E35.34016
G1 X46.511 Y76.658 E35.37257
G1 X47.33 Y76.613 E35.41077
G1 X48.117 Y76.601 E35.44742
G1 X258.823 Y76.6 E45.25877
G1 X259.671 Y76.611 E45.29826
G1 X260.384 Y76.646 E45.3315
G1 X261.085 Y76.705 E45.36426
G1 X262.015 Y76.826 E45.40793
G1 X262.857 Y77.009 E45.44805
G1 X263.527 Y77.184 E45.48029
G1 X264.423 Y77.461 E45.52396
G1 X265.24 Y77.794 E45.56505
G1 X265.887 Y78.09 E45.59818
G1 X266.722 Y78.518 E45.64187
G1 X267.482 Y78.995 E45.68365
G1 X268.084 Y79.411 E45.71772
G1 X268.831 Y79.98 E45.76145
G1 X269.499 Y80.587 E45.80348
G1 X269.992 Y81.074 E45.83574
G1 X270.605 Y81.737 E45.87779
G1 X271.166 Y82.459 E45.92036
G1 X271.575 Y83.036 E45.9533
G1 X272.083 Y83.825 E45.99699
G1 X272.492 Y84.6 E46.0378
G1 X272.802 Y85.254 E46.0715
G1 X273.165 Y86.118 E46.11514
G1 X273.436 Y86.961 E46.15637
G1 X273.621 Y87.634 E46.18887
G1 X273.828 Y88.548 E46.23251
G1 X273.95 Y89.427 E46.27383
G1 X274.016 Y90.123 E46.30638
G1 X274.062 Y90.947 E46.34481
G1 X274.074 Y91.705 E46.38011
G1 X274.075 Y208.234 E51.80619
G1 X274.064 Y209.093 E51.84619
G1 X274.029 Y209.809 E51.87957
G1 X273.97 Y210.51 E51.91233
G1 X273.849 Y211.44 E51.956
G1 X273.665 Y212.285 E51.99627
G1 X273.49 Y212.954 E52.02847
G1 X273.213 Y213.849 E52.07209
G1 X272.884 Y214.659 E52.1128
G1 X272.588 Y215.307 E52.14597
G1 X272.16 Y216.142 E52.18966
G1 X271.68 Y216.907 E52.23172
G1 X271.264 Y217.509 E52.26579
G1 X270.695 Y218.256 E52.30952
G1 X270.088 Y218.924 E52.35154
G1 X269.601 Y219.417 E52.38381
G1 X268.938 Y220.03 E52.42586
G1 X268.216 Y220.591 E52.46843
G1 X267.639 Y221 E52.50137
G1 X266.85 Y221.508 E52.54506
G1 X266.076 Y221.917 E52.58582
G1 X265.42 Y222.228 E52.61963
G1 X264.555 Y222.59 E52.66329
G1 X263.7 Y222.865 E52.70511
G1 X263.024 Y223.05 E52.73775
G1 X262.11 Y223.256 E52.78138
G1 X261.232 Y223.377 E52.82265
G1 X260.539 Y223.442 E52.85506
G1 X259.72 Y223.487 E52.89325
G1 X258.933 Y223.499 E52.9299
G1 X48.227 Y223.5 E62.74125
G1 X47.379 Y223.489 E62.78074
G1 X46.666 Y223.454 E62.81398
G1 X45.965 Y223.395 E62.84674
G1 X45.035 Y223.274 E62.89041
G1 X44.193 Y223.091 E62.93053
G1 X43.523 Y222.916 E62.96278
G1 X42.627 Y222.639 E63.00645
G1 X41.81 Y222.306 E63.04753
G1 X41.163 Y222.01 E63.08066
G1 X40.328 Y221.582 E63.12435
G1 X39.568 Y221.105 E63.16613
G1 X38.966 Y220.689 E63.20021
G1 X38.219 Y220.12 E63.24393
G1 X37.551 Y219.513 E63.28596
G1 X37.058 Y219.026 E63.31823
G1 X36.445 Y218.363 E63.36027
G1 X35.884 Y217.641 E63.40285
G1 X35.475 Y217.064 E63.43578
G1 X34.967 Y216.274 E63.47952
G1 X34.548 Y215.479 E63.52136
G1 X34.245 Y214.838 E63.55437
G1 X33.883 Y213.973 E63.59804
G1 X33.611 Y213.128 E63.63937
G1 X33.426 Y212.453 E63.67196
G1 X33.22 Y211.539 E63.71559
G1 X33.098 Y210.658 E63.757
G1 X33.033 Y209.966 E63.78937
G1 X32.988 Y209.146 E63.82761
G1 X32.976 Y208.364 E63.86403
G1 X32.976 Y199.493 E64.2771
G1 X32.988 Y198.766 E64.31095
G1 X33.042 Y197.864 E64.35303
G1 X33.261 Y196.549 E64.41511
G1 X33.964 Y193.522 E64.55981
G1 X34.473 Y190.988 E64.68016
G1 X34.891 Y188.55 E64.79534
G1 X35.251 Y186.02 E64.91433
G1 X35.531 Y183.556 E65.0298
G1 X35.75 Y181.013 E65.14865
G1 X35.892 Y178.487 E65.26646
G1 X35.966 Y175.92 E65.38604
G1 X35.975 Y174.603 E65.44737
G1 X35.975 Y125.532 E67.73232
G1 X35.938 Y122.932 E67.8534
G1 X35.829 Y120.377 E67.97248
G1 X35.652 Y117.881 E68.08899
G1 X35.403 Y115.363 E68.20681
G1 X35.082 Y112.856 E68.3245
G1 X34.69 Y110.362 E68.44206
G1 X34.232 Y107.898 E68.55876
G1 X33.569 Y104.859 E68.7036
G1 X33.264 Y103.563 E68.76559
G1 X33.096 Y102.676 E68.80763
G1 X32.99 Y101.492 E68.86298
G1 X32.977 Y100.935 E68.88893
G1 X32.976 Y91.682 E69.31978
G1 X32.986 Y90.991 E69.35196
G1 X33.022 Y90.267 E69.38572
G1 X33.081 Y89.577 E69.41796
G1 X33.203 Y88.648 E69.46159
G1 X33.385 Y87.815 E69.5013
G1 X33.56 Y87.146 E69.5335
G1 X33.837 Y86.251 E69.57712
G1 X34.166 Y85.441 E69.61783
G1 X34.462 Y84.793 E69.651
G1 X34.89 Y83.958 E69.69469
G1 X35.37 Y83.193 E69.73675
G1 X35.786 Y82.591 E69.77082
G1 X36.355 Y81.844 E69.81455
G1 X36.962 Y81.176 E69.85657
G1 X37.449 Y80.683 E69.88884
G1 X38.112 Y80.07 E69.93089
G1 X38.834 Y79.509 E69.97346
G1 X39.411 Y79.1 E70.0064
G1 X40.201 Y78.592 E70.05013
G1 X40.996 Y78.173 E70.09198
G0 F6000 X41.167 Y78.535
G1 F600 X41.792 Y78.239 E70.12418
G1 X42.625 Y77.889 E70.16625
G1 X43.453 Y77.622 E70.20676
G1 X44.111 Y77.441 E70.23854
G1 X44.991 Y77.241 E70.28056
G1 X45.856 Y77.121 E70.32122
G1 X46.533 Y77.057 E70.35289
G1 X47.336 Y77.013 E70.39033
G1 X48.117 Y77.001 E70.42671
G1 X258.818 Y77 E80.23783
G1 X259.652 Y77.011 E80.27666
G1 X260.351 Y77.045 E80.30925
G1 X261.034 Y77.102 E80.34117
G1 X261.93 Y77.217 E80.38323
G1 X262.756 Y77.396 E80.42258
G1 X263.409 Y77.566 E80.454
G1 X264.272 Y77.832 E80.49605
G1 X265.074 Y78.158 E80.53637
G1 X265.705 Y78.446 E80.56866
G1 X266.509 Y78.857 E80.61071
G1 X267.269 Y79.334 E80.65249
G1 X267.842 Y79.73 E80.68492
G1 X268.562 Y80.276 E80.727
G1 X269.218 Y80.871 E80.76824
G1 X269.698 Y81.346 E80.79968
G1 X270.311 Y82.009 E80.84173
G1 X270.84 Y82.691 E80.88192
G1 X271.239 Y83.253 E80.91401
G1 X271.729 Y84.012 E80.95608
G1 X272.138 Y84.787 E80.99688
G1 X272.433 Y85.409 E81.02894
G1 X272.784 Y86.241 E81.07099
G1 X273.05 Y87.067 E81.1114
G1 X273.231 Y87.723 E81.14308
G1 X273.432 Y88.603 E81.18511
G1 X273.552 Y89.465 E81.22564
G1 X273.617 Y90.145 E81.25745
G1 X273.662 Y90.953 E81.29513
G1 X273.674 Y91.705 E81.33015
G1 X273.675 Y208.229 E86.756
G1 X273.664 Y209.074 E86.79535
G1 X273.63 Y209.776 E86.82807
G1 X273.573 Y210.459 E86.85999
G1 X273.458 Y211.355 E86.90205
G1 X273.278 Y212.184 E86.94155
G1 X273.108 Y212.836 E86.97293
G1 X272.842 Y213.699 E87.01498
G1 X272.52 Y214.493 E87.05487
G1 X272.232 Y215.125 E87.08721
G1 X271.821 Y215.929 E87.12926
G1 X271.341 Y216.694 E87.17131
G1 X270.945 Y217.267 E87.20375
G1 X270.399 Y217.987 E87.24582
G1 X269.804 Y218.643 E87.28706
G1 X269.329 Y219.123 E87.31851
G1 X268.666 Y219.736 E87.36055
G1 X267.984 Y220.265 E87.40074
G1 X267.422 Y220.664 E87.43283
G1 X266.663 Y221.154 E87.4749
G1 X265.889 Y221.563 E87.51567
G1 X265.265 Y221.859 E87.54782
G1 X264.432 Y222.209 E87.5899
G1 X263.594 Y222.479 E87.63089
G1 X262.935 Y222.66 E87.66272
G1 X262.055 Y222.86 E87.70474
G1 X261.194 Y222.979 E87.74521
G1 X260.517 Y223.043 E87.77687
G1 X259.714 Y223.087 E87.81432
G1 X258.933 Y223.099 E87.85069
G1 X48.232 Y223.1 E97.66181
G1 X47.398 Y223.089 E97.70065
G1 X46.699 Y223.055 E97.73324
G1 X46.016 Y222.998 E97.76515
G1 X45.12 Y222.883 E97.80722
G1 X44.294 Y222.704 E97.84657
G1 X43.641 Y222.534 E97.87799
G1 X42.778 Y222.268 E97.92004
G1 X41.976 Y221.942 E97.96035
G1 X41.345 Y221.654 E97.99265
G1 X40.541 Y221.243 E98.0347
G1 X39.781 Y220.766 E98.07648
G1 X39.208 Y220.37 E98.10891
G1 X38.488 Y219.824 E98.15099
G1 X37.832 Y219.229 E98.19223
G1 X37.352 Y218.754 E98.22367
G1 X36.739 Y218.091 E98.26572
G1 X36.21 Y217.409 E98.30591
G1 X35.811 Y216.847 E98.338
G1 X35.321 Y216.088 E98.38007
G1 X34.91 Y215.308 E98.42112
G1 X34.614 Y214.683 E98.45332
G1 X34.264 Y213.85 E98.4954
G1 X33.997 Y213.022 E98.53591
G1 X33.816 Y212.364 E98.56768
G1 X33.616 Y211.484 E98.6097
G1 X33.496 Y210.62 E98.65032
G1 X33.432 Y209.944 E98.68194
G1 X33.388 Y209.14 E98.71943
G1 X33.376 Y208.358 E98.75585
G1 X33.376 Y199.499 E99.16836
G1 X33.387 Y198.79 E99.20138
G1 X33.441 Y197.888 E99.24346
G1 X33.651 Y196.639 E99.30243
G1 X34.354 Y193.612 E99.44713
G1 X34.865 Y191.067 E99.568
G1 X35.285 Y188.618 E99.68371
G1 X35.647 Y186.076 E99.80327
G1 X35.93 Y183.59 E99.91977
G1 X36.148 Y181.047 E100.03862
G1 X36.292 Y178.499 E100.15745
G1 X36.366 Y175.932 E100.27703
G1 X36.375 Y174.606 E100.33878
G1 X36.375 Y125.532 E102.62387
G1 X36.338 Y122.926 E102.74523
G1 X36.229 Y120.36 E102.86482
G1 X36.051 Y117.853 E102.98185
G1 X35.8 Y115.312 E103.10075
G1 X35.479 Y112.805 E103.21844
G1 X35.085 Y110.3 E103.33651
G1 X34.623 Y107.813 E103.4543
G1 X33.96 Y104.774 E103.59914
G1 X33.657 Y103.489 E103.66061
G1 X33.489 Y102.602 E103.70265
G1 X33.39 Y101.482 E103.755
G1 X33.377 Y100.935 E103.78048
G1 X33.376 Y91.688 E104.21106
G1 X33.386 Y91.011 E104.24259
G1 X33.421 Y90.301 E104.27569
G1 X33.478 Y89.628 E104.30714
G1 X33.594 Y88.733 E104.34916
G1 X33.772 Y87.916 E104.3881
G1 X33.942 Y87.264 E104.41947
G1 X34.208 Y86.401 E104.46152
G1 X34.53 Y85.607 E104.50142
G1 X34.818 Y84.975 E104.53376
G1 X35.229 Y84.171 E104.57581
G1 X35.709 Y83.406 E104.61786
G1 X36.105 Y82.833 E104.65029
G1 X36.651 Y82.113 E104.69237
G1 X37.246 Y81.457 E104.73361
G1 X37.721 Y80.977 E104.76505
G1 X38.384 Y80.364 E104.8071
G1 X39.066 Y79.835 E104.84729
G1 X39.628 Y79.436 E104.87938
G1 X40.387 Y78.946 E104.92145
G1 X41.167 Y78.535 E104.9625
G1 F2700 E99.9625
;MESH:quazar_lid_15x12.STL
G0 F6000 X46.911 Y87.674
G0 X48.315 Y87.801
;TYPE:WALL-INNER
G1 F2700 E104.9625
G1 F600 X48.705 Y87.903 E104.98127
G1 X49.254 Y88.161 E105.00952
G1 X49.745 Y88.505 E105.03743
G1 X50.17 Y88.93 E105.06542
G1 X50.514 Y89.421 E105.09334
G1 X50.768 Y89.962 E105.12117
G1 X50.924 Y90.545 E105.14927
G1 X50.978 Y91.15 E105.17755
G1 X50.924 Y91.756 E105.20588
G1 X50.767 Y92.334 E105.23377
G1 X50.509 Y92.883 E105.26202
G1 X50.143 Y93.397 E105.2914
G1 X49.725 Y93.808 E105.3187
G1 X49.256 Y94.135 E105.34532
G1 X48.707 Y94.396 E105.37362
G1 X48.129 Y94.549 E105.40146
G1 X47.525 Y94.603 E105.4297
G1 X46.92 Y94.549 E105.45798
G1 X46.337 Y94.393 E105.48609
G1 X45.796 Y94.139 E105.51392
G1 X45.305 Y93.795 E105.54183
G1 X44.88 Y93.37 E105.56982
G1 X44.536 Y92.879 E105.59773
G1 X44.278 Y92.33 E105.62598
G1 X44.176 Y91.94 E105.64475
G1 X44.175 Y100.648 E106.05023
G1 X44.896 Y100.937 E106.0864
G1 X45.453 Y101.271 E106.11664
G1 X45.951 Y101.691 E106.14698
G1 X46.38 Y102.185 E106.17744
G1 X46.722 Y102.733 E106.20752
G1 X46.965 Y103.315 E106.23689
G1 X47.123 Y103.965 E106.26804
G1 X47.174 Y104.565 E106.29608
G1 X47.176 Y148.556 E108.34448
G1 X47.316 Y148.277 E108.35902
G1 X47.631 Y147.829 E108.38452
G1 X48.055 Y147.405 E108.41244
G1 X48.546 Y147.061 E108.44036
G1 X49.093 Y146.804 E108.4685
G1 X49.677 Y146.65 E108.49662
G1 X50.276 Y146.597 E108.52462
G1 X50.879 Y146.651 E108.55281
G1 X51.459 Y146.804 E108.58074
G1 X52.008 Y147.066 E108.60907
G1 X52.51 Y147.421 E108.6377
G1 X52.911 Y147.823 E108.66414
G1 X53.242 Y148.29 E108.69079
G1 X53.511 Y148.85 E108.71972
G1 X53.674 Y149.456 E108.74894
G1 X53.725 Y150.08 E108.77809
G1 X53.674 Y150.644 E108.80446
